assets/luts/cinematic.cube
TITLE "ReelForge cinematic teal/orange"
LUT_3D_SIZE 5
0.00000 0.00000 0.00000
0.23750 0.00000 0.00000
0.47500 0.00000 0.00000
0.71250 0.00000 0.00000
0.95000 0.00000 0.00000
0.00000 0.25750 0.00000
0.23750 0.25750 0.00000
0.47500 0.25750 0.00000
0.71250 0.25750 0.00000
1.00000 0.25500 0.00000
0.00000 0.51500 0.00000
0.23750 0.51500 0.00000
0.54000 0.51000 0.00000
0.81000 0.51000 0.00000
1.00000 0.51000 0.00000
0.00000 0.76500 0.00000
0.27000 0.76500 0.00000
0.54000 0.76500 0.00000
0.81000 0.76500 0.00000
1.00000 0.76500 0.00000
0.00000 1.00000 0.00000
0.27000 1.00000 0.00000
0.54000 1.00000 0.00000
0.81000 1.00000 0.00000
1.00000 1.00000 0.00000
0.00000 0.00000 0.26500
0.23750 0.00000 0.26500
0.47500 0.00000 0.26500
0.71250 0.00000 0.26500
0.95000 0.00000 0.26500
0.00000 0.25750 0.26500
0.23750 0.25750 0.26500
0.47500 0.25750 0.26500
0.71250 0.25750 0.26500
1.00000 0.25500 0.23750
0.00000 0.51500 0.26500
0.23750 0.51500 0.26500
0.54000 0.51000 0.23750
0.81000 0.51000 0.23750
1.00000 0.51000 0.23750
0.00000 0.76500 0.23750
0.27000 0.76500 0.23750
0.54000 0.76500 0.23750
0.81000 0.76500 0.23750
1.00000 0.76500 0.23750
0.00000 1.00000 0.23750
0.27000 1.00000 0.23750
0.54000 1.00000 0.23750
0.81000 1.00000 0.23750
1.00000 1.00000 0.23750
0.00000 0.00000 0.53000
0.23750 0.00000 0.53000
0.47500 0.00000 0.53000
0.71250 0.00000 0.53000
0.95000 0.00000 0.53000
0.00000 0.25750 0.53000
0.23750 0.25750 0.53000
0.47500 0.25750 0.53000
0.81000 0.25500 0.47500
1.00000 0.25500 0.47500
0.00000 0.51500 0.53000
0.27000 0.51000 0.47500
0.54000 0.51000 0.47500
0.81000 0.51000 0.47500
1.00000 0.51000 0.47500
0.00000 0.76500 0.47500
0.27000 0.76500 0.47500
0.54000 0.76500 0.47500
0.81000 0.76500 0.47500
1.00000 0.76500 0.47500
0.00000 1.00000 0.47500
0.27000 1.00000 0.47500
0.54000 1.00000 0.47500
0.81000 1.00000 0.47500
1.00000 1.00000 0.47500
0.00000 0.00000 0.79500
0.23750 0.00000 0.79500
0.47500 0.00000 0.79500
0.71250 0.00000 0.79500
0.95000 0.00000 0.79500
0.00000 0.25750 0.79500
0.23750 0.25750 0.79500
0.47500 0.25750 0.79500
0.81000 0.25500 0.71250
1.00000 0.25500 0.71250
0.00000 0.51500 0.79500
0.27000 0.51000 0.71250
0.54000 0.51000 0.71250
0.81000 0.51000 0.71250
1.00000 0.51000 0.71250
0.00000 0.76500 0.71250
0.27000 0.76500 0.71250
0.54000 0.76500 0.71250
0.81000 0.76500 0.71250
1.00000 0.76500 0.71250
0.00000 1.00000 0.71250
0.27000 1.00000 0.71250
0.54000 1.00000 0.71250
0.81000 1.00000 0.71250
1.00000 1.00000 0.71250
0.00000 0.00000 1.00000
0.23750 0.00000 1.00000
0.47500 0.00000 1.00000
0.71250 0.00000 1.00000
1.00000 0.00000 0.95000
0.00000 0.25750 1.00000
0.23750 0.25750 1.00000
0.54000 0.25500 0.95000
0.81000 0.25500 0.95000
1.00000 0.25500 0.95000
0.00000 0.51000 0.95000
0.27000 0.51000 0.95000
0.54000 0.51000 0.95000
0.81000 0.51000 0.95000
1.00000 0.51000 0.95000
0.00000 0.76500 0.95000
0.27000 0.76500 0.95000
0.54000 0.76500 0.95000
0.81000 0.76500 0.95000
1.00000 0.76500 0.95000
0.00000 1.00000 0.95000
0.27000 1.00000 0.95000
0.54000 1.00000 0.95000
0.81000 1.00000 0.95000
1.00000 1.00000 0.95000
