assets/luts/cinematic.cube
TITLE "ReelForge cinematic teal/orange"
LUT_3D_SIZE 17
0.00000 0.00000 0.00000
0.05937 0.00000 0.00000
0.11875 0.00000 0.00000
0.17812 0.00000 0.00000
0.23750 0.00000 0.00000
0.29688 0.00000 0.00000
0.35625 0.00000 0.00000
0.41562 0.00000 0.00000
0.47500 0.00000 0.00000
0.53437 0.00000 0.00000
0.59375 0.00000 0.00000
0.65312 0.00000 0.00000
0.71250 0.00000 0.00000
0.77187 0.00000 0.00000
0.83125 0.00000 0.00000
0.89062 0.00000 0.00000
0.95000 0.00000 0.00000
0.00000 0.06438 0.00000
0.05937 0.06438 0.00000
0.11875 0.06438 0.00000
0.17812 0.06438 0.00000
0.23750 0.06438 0.00000
0.29688 0.06438 0.00000
0.35625 0.06438 0.00000
0.41562 0.06438 0.00000
0.47500 0.06438 0.00000
0.53437 0.06438 0.00000
0.59375 0.06438 0.00000
0.65312 0.06438 0.00000
0.71250 0.06438 0.00000
0.77187 0.06438 0.00000
0.83125 0.06438 0.00000
0.89062 0.06438 0.00000
0.95000 0.06438 0.00000
0.00000 0.12875 0.00000
0.05937 0.12875 0.00000
0.11875 0.12875 0.00000
0.17812 0.12875 0.00000
0.23750 0.12875 0.00000
0.29688 0.12875 0.00000
0.35625 0.12875 0.00000
0.41562 0.12875 0.00000
0.47500 0.12875 0.00000
0.53437 0.12875 0.00000
0.59375 0.12875 0.00000
0.65312 0.12875 0.00000
0.71250 0.12875 0.00000
0.77187 0.12875 0.00000
0.83125 0.12875 0.00000
0.89062 0.12875 0.00000
0.95000 0.12875 0.00000
0.00000 0.19312 0.00000
0.05937 0.19312 0.00000
0.11875 0.19312 0.00000
0.17812 0.19312 0.00000
0.23750 0.19312 0.00000
0.29688 0.19312 0.00000
0.35625 0.19312 0.00000
0.41562 0.19312 0.00000
0.47500 0.19312 0.00000
0.53437 0.19312 0.00000
0.59375 0.19312 0.00000
0.65312 0.19312 0.00000
0.71250 0.19312 0.00000
0.77187 0.19312 0.00000
0.83125 0.19312 0.00000
0.89062 0.19312 0.00000
1.00000 0.19125 0.00000
0.00000 0.25750 0.00000
0.05937 0.25750 0.00000
0.11875 0.25750 0.00000
0.17812 0.25750 0.00000
0.23750 0.25750 0.00000
0.29688 0.25750 0.00000
0.35625 0.25750 0.00000
0.41562 0.25750 0.00000
0.47500 0.25750 0.00000
0.53437 0.25750 0.00000
0.59375 0.25750 0.00000
0.65312 0.25750 0.00000
0.71250 0.25750 0.00000
0.77187 0.25750 0.00000
0.94500 0.25500 0.00000
1.00000 0.25500 0.00000
1.00000 0.25500 0.00000
0.00000 0.32188 0.00000
0.05937 0.32188 0.00000
0.11875 0.32188 0.00000
0.17812 0.32188 0.00000
0.23750 0.32188 0.00000
0.29688 0.32188 0.00000
0.35625 0.32188 0.00000
0.41562 0.32188 0.00000
0.47500 0.32188 0.00000
0.53437 0.32188 0.00000
0.59375 0.32188 0.00000
0.65312 0.32188 0.00000
0.81000 0.31875 0.00000
0.87750 0.31875 0.00000
0.94500 0.31875 0.00000
1.00000 0.31875 0.00000
1.00000 0.31875 0.00000
0.00000 0.38625 0.00000
0.05937 0.38625 0.00000
0.11875 0.38625 0.00000
0.17812 0.38625 0.00000
0.23750 0.38625 0.00000
0.29688 0.38625 0.00000
0.35625 0.38625 0.00000
0.41562 0.38625 0.00000
0.47500 0.38625 0.00000
0.53437 0.38625 0.00000
0.67500 0.38250 0.00000
0.74250 0.38250 0.00000
0.81000 0.38250 0.00000
0.87750 0.38250 0.00000
0.94500 0.38250 0.00000
1.00000 0.38250 0.00000
1.00000 0.38250 0.00000
0.00000 0.45062 0.00000
0.05937 0.45062 0.00000
0.11875 0.45062 0.00000
0.17812 0.45062 0.00000
0.23750 0.45062 0.00000
0.29688 0.45062 0.00000
0.35625 0.45062 0.00000
0.41562 0.45062 0.00000
0.54000 0.44625 0.00000
0.60750 0.44625 0.00000
0.67500 0.44625 0.00000
0.74250 0.44625 0.00000
0.81000 0.44625 0.00000
0.87750 0.44625 0.00000
0.94500 0.44625 0.00000
1.00000 0.44625 0.00000
1.00000 0.44625 0.00000
0.00000 0.51500 0.00000
0.05937 0.51500 0.00000
0.11875 0.51500 0.00000
0.17812 0.51500 0.00000
0.23750 0.51500 0.00000
0.29688 0.51500 0.00000
0.40500 0.51000 0.00000
0.47250 0.51000 0.00000
0.54000 0.51000 0.00000
0.60750 0.51000 0.00000
0.67500 0.51000 0.00000
0.74250 0.51000 0.00000
0.81000 0.51000 0.00000
0.87750 0.51000 0.00000
0.94500 0.51000 0.00000
1.00000 0.51000 0.00000
1.00000 0.51000 0.00000
0.00000 0.57937 0.00000
0.05937 0.57937 0.00000
0.11875 0.57937 0.00000
0.17812 0.57937 0.00000
0.27000 0.57375 0.00000
0.33750 0.57375 0.00000
0.40500 0.57375 0.00000
0.47250 0.57375 0.00000
0.54000 0.57375 0.00000
0.60750 0.57375 0.00000
0.67500 0.57375 0.00000
0.74250 0.57375 0.00000
0.81000 0.57375 0.00000
0.87750 0.57375 0.00000
0.94500 0.57375 0.00000
1.00000 0.57375 0.00000
1.00000 0.57375 0.00000
0.00000 0.64375 0.00000
0.05937 0.64375 0.00000
0.13500 0.63750 0.00000
0.20250 0.63750 0.00000
0.27000 0.63750 0.00000
0.33750 0.63750 0.00000
0.40500 0.63750 0.00000
0.47250 0.63750 0.00000
0.54000 0.63750 0.00000
0.60750 0.63750 0.00000
0.67500 0.63750 0.00000
0.74250 0.63750 0.00000
0.81000 0.63750 0.00000
0.87750 0.63750 0.00000
0.94500 0.63750 0.00000
1.00000 0.63750 0.00000
1.00000 0.63750 0.00000
0.00000 0.70125 0.00000
0.06750 0.70125 0.00000
0.13500 0.70125 0.00000
0.20250 0.70125 0.00000
0.27000 0.70125 0.00000
0.33750 0.70125 0.00000
0.40500 0.70125 0.00000
0.47250 0.70125 0.00000
0.54000 0.70125 0.00000
0.60750 0.70125 0.00000
0.67500 0.70125 0.00000
0.74250 0.70125 0.00000
0.81000 0.70125 0.00000
0.87750 0.70125 0.00000
0.94500 0.70125 0.00000
1.00000 0.70125 0.00000
1.00000 0.70125 0.00000
0.00000 0.76500 0.00000
0.06750 0.76500 0.00000
0.13500 0.76500 0.00000
0.20250 0.76500 0.00000
0.27000 0.76500 0.00000
0.33750 0.76500 0.00000
0.40500 0.76500 0.00000
0.47250 0.76500 0.00000
0.54000 0.76500 0.00000
0.60750 0.76500 0.00000
0.67500 0.76500 0.00000
0.74250 0.76500 0.00000
0.81000 0.76500 0.00000
0.87750 0.76500 0.00000
0.94500 0.76500 0.00000
1.00000 0.76500 0.00000
1.00000 0.76500 0.00000
0.00000 0.82875 0.00000
0.06750 0.82875 0.00000
0.13500 0.82875 0.00000
0.20250 0.82875 0.00000
0.27000 0.82875 0.00000
0.33750 0.82875 0.00000
0.40500 0.82875 0.00000
0.47250 0.82875 0.00000
0.54000 0.82875 0.00000
0.60750 0.82875 0.00000
0.67500 0.82875 0.00000
0.74250 0.82875 0.00000
0.81000 0.82875 0.00000
0.87750 0.82875 0.00000
0.94500 0.82875 0.00000
1.00000 0.82875 0.00000
1.00000 0.82875 0.00000
0.00000 0.89250 0.00000
0.06750 0.89250 0.00000
0.13500 0.89250 0.00000
0.20250 0.89250 0.00000
0.27000 0.89250 0.00000
0.33750 0.89250 0.00000
0.40500 0.89250 0.00000
0.47250 0.89250 0.00000
0.54000 0.89250 0.00000
0.60750 0.89250 0.00000
0.67500 0.89250 0.00000
0.74250 0.89250 0.00000
0.81000 0.89250 0.00000
0.87750 0.89250 0.00000
0.94500 0.89250 0.00000
1.00000 0.89250 0.00000
1.00000 0.89250 0.00000
0.00000 0.95625 0.00000
0.06750 0.95625 0.00000
0.13500 0.95625 0.00000
0.20250 0.95625 0.00000
0.27000 0.95625 0.00000
0.33750 0.95625 0.00000
0.40500 0.95625 0.00000
0.47250 0.95625 0.00000
0.54000 0.95625 0.00000
0.60750 0.95625 0.00000
0.67500 0.95625 0.00000
0.74250 0.95625 0.00000
0.81000 0.95625 0.00000
0.87750 0.95625 0.00000
0.94500 0.95625 0.00000
1.00000 0.95625 0.00000
1.00000 0.95625 0.00000
0.00000 1.00000 0.00000
0.06750 1.00000 0.00000
0.13500 1.00000 0.00000
0.20250 1.00000 0.00000
0.27000 1.00000 0.00000
0.33750 1.00000 0.00000
0.40500 1.00000 0.00000
0.47250 1.00000 0.00000
0.54000 1.00000 0.00000
0.60750 1.00000 0.00000
0.67500 1.00000 0.00000
0.74250 1.00000 0.00000
0.81000 1.00000 0.00000
0.87750 1.00000 0.00000
0.94500 1.00000 0.00000
1.00000 1.00000 0.00000
1.00000 1.00000 0.00000
0.00000 0.00000 0.06625
0.05937 0.00000 0.06625
0.11875 0.00000 0.06625
0.17812 0.00000 0.06625
0.23750 0.00000 0.06625
0.29688 0.00000 0.06625
0.35625 0.00000 0.06625
0.41562 0.00000 0.06625
0.47500 0.00000 0.06625
0.53437 0.00000 0.06625
0.59375 0.00000 0.06625
0.65312 0.00000 0.06625
0.71250 0.00000 0.06625
0.77187 0.00000 0.06625
0.83125 0.00000 0.06625
0.89062 0.00000 0.06625
0.95000 0.00000 0.06625
0.00000 0.06438 0.06625
0.05937 0.06438 0.06625
0.11875 0.06438 0.06625
0.17812 0.06438 0.06625
0.23750 0.06438 0.06625
0.29688 0.06438 0.06625
0.35625 0.06438 0.06625
0.41562 0.06438 0.06625
0.47500 0.06438 0.06625
0.53437 0.06438 0.06625
0.59375 0.06438 0.06625
0.65312 0.06438 0.06625
0.71250 0.06438 0.06625
0.77187 0.06438 0.06625
0.83125 0.06438 0.06625
0.89062 0.06438 0.06625
0.95000 0.06438 0.06625
0.00000 0.12875 0.06625
0.05937 0.12875 0.06625
0.11875 0.12875 0.06625
0.17812 0.12875 0.06625
0.23750 0.12875 0.06625
0.29688 0.12875 0.06625
0.35625 0.12875 0.06625
0.41562 0.12875 0.06625
0.47500 0.12875 0.06625
0.53437 0.12875 0.06625
0.59375 0.12875 0.06625
0.65312 0.12875 0.06625
0.71250 0.12875 0.06625
0.77187 0.12875 0.06625
0.83125 0.12875 0.06625
0.89062 0.12875 0.06625
0.95000 0.12875 0.06625
0.00000 0.19312 0.06625
0.05937 0.19312 0.06625
0.11875 0.19312 0.06625
0.17812 0.19312 0.06625
0.23750 0.19312 0.06625
0.29688 0.19312 0.06625
0.35625 0.19312 0.06625
0.41562 0.19312 0.06625
0.47500 0.19312 0.06625
0.53437 0.19312 0.06625
0.59375 0.19312 0.06625
0.65312 0.19312 0.06625
0.71250 0.19312 0.06625
0.77187 0.19312 0.06625
0.83125 0.19312 0.06625
0.89062 0.19312 0.06625
1.00000 0.19125 0.05937
0.00000 0.25750 0.06625
0.05937 0.25750 0.06625
0.11875 0.25750 0.06625
0.17812 0.25750 0.06625
0.23750 0.25750 0.06625
0.29688 0.25750 0.06625
0.35625 0.25750 0.06625
0.41562 0.25750 0.06625
0.47500 0.25750 0.06625
0.53437 0.25750 0.06625
0.59375 0.25750 0.06625
0.65312 0.25750 0.06625
0.71250 0.25750 0.06625
0.77187 0.25750 0.06625
0.94500 0.25500 0.05937
1.00000 0.25500 0.05937
1.00000 0.25500 0.05937
0.00000 0.32188 0.06625
0.05937 0.32188 0.06625
0.11875 0.32188 0.06625
0.17812 0.32188 0.06625
0.23750 0.32188 0.06625
0.29688 0.32188 0.06625
0.35625 0.32188 0.06625
0.41562 0.32188 0.06625
0.47500 0.32188 0.06625
0.53437 0.32188 0.06625
0.59375 0.32188 0.06625
0.65312 0.32188 0.06625
0.81000 0.31875 0.05937
0.87750 0.31875 0.05937
0.94500 0.31875 0.05937
1.00000 0.31875 0.05937
1.00000 0.31875 0.05937
0.00000 0.38625 0.06625
0.05937 0.38625 0.06625
0.11875 0.38625 0.06625
0.17812 0.38625 0.06625
0.23750 0.38625 0.06625
0.29688 0.38625 0.06625
0.35625 0.38625 0.06625
0.41562 0.38625 0.06625
0.47500 0.38625 0.06625
0.53437 0.38625 0.06625
0.67500 0.38250 0.05937
0.74250 0.38250 0.05937
0.81000 0.38250 0.05937
0.87750 0.38250 0.05937
0.94500 0.38250 0.05937
1.00000 0.38250 0.05937
1.00000 0.38250 0.05937
0.00000 0.45062 0.06625
0.05937 0.45062 0.06625
0.11875 0.45062 0.06625
0.17812 0.45062 0.06625
0.23750 0.45062 0.06625
0.29688 0.45062 0.06625
0.35625 0.45062 0.06625
0.41562 0.45062 0.06625
0.54000 0.44625 0.05937
0.60750 0.44625 0.05937
0.67500 0.44625 0.05937
0.74250 0.44625 0.05937
0.81000 0.44625 0.05937
0.87750 0.44625 0.05937
0.94500 0.44625 0.05937
1.00000 0.44625 0.05937
1.00000 0.44625 0.05937
0.00000 0.51500 0.06625
0.05937 0.51500 0.06625
0.11875 0.51500 0.06625
0.17812 0.51500 0.06625
0.23750 0.51500 0.06625
0.29688 0.51500 0.06625
0.40500 0.51000 0.05937
0.47250 0.51000 0.05937
0.54000 0.51000 0.05937
0.60750 0.51000 0.05937
0.67500 0.51000 0.05937
0.74250 0.51000 0.05937
0.81000 0.51000 0.05937
0.87750 0.51000 0.05937
0.94500 0.51000 0.05937
1.00000 0.51000 0.05937
1.00000 0.51000 0.05937
0.00000 0.57937 0.06625
0.05937 0.57937 0.06625
0.11875 0.57937 0.06625
0.17812 0.57937 0.06625
0.27000 0.57375 0.05937
0.33750 0.57375 0.05937
0.40500 0.57375 0.05937
0.47250 0.57375 0.05937
0.54000 0.57375 0.05937
0.60750 0.57375 0.05937
0.67500 0.57375 0.05937
0.74250 0.57375 0.05937
0.81000 0.57375 0.05937
0.87750 0.57375 0.05937
0.94500 0.57375 0.05937
1.00000 0.57375 0.05937
1.00000 0.57375 0.05937
0.00000 0.64375 0.06625
0.05937 0.64375 0.06625
0.13500 0.63750 0.05937
0.20250 0.63750 0.05937
0.27000 0.63750 0.05937
0.33750 0.63750 0.05937
0.40500 0.63750 0.05937
0.47250 0.63750 0.05937
0.54000 0.63750 0.05937
0.60750 0.63750 0.05937
0.67500 0.63750 0.05937
0.74250 0.63750 0.05937
0.81000 0.63750 0.05937
0.87750 0.63750 0.05937
0.94500 0.63750 0.05937
1.00000 0.63750 0.05937
1.00000 0.63750 0.05937
0.00000 0.70125 0.05937
0.06750 0.70125 0.05937
0.13500 0.70125 0.05937
0.20250 0.70125 0.05937
0.27000 0.70125 0.05937
0.33750 0.70125 0.05937
0.40500 0.70125 0.05937
0.47250 0.70125 0.05937
0.54000 0.70125 0.05937
0.60750 0.70125 0.05937
0.67500 0.70125 0.05937
0.74250 0.70125 0.05937
0.81000 0.70125 0.05937
0.87750 0.70125 0.05937
0.94500 0.70125 0.05937
1.00000 0.70125 0.05937
1.00000 0.70125 0.05937
0.00000 0.76500 0.05937
0.06750 0.76500 0.05937
0.13500 0.76500 0.05937
0.20250 0.76500 0.05937
0.27000 0.76500 0.05937
0.33750 0.76500 0.05937
0.40500 0.76500 0.05937
0.47250 0.76500 0.05937
0.54000 0.76500 0.05937
0.60750 0.76500 0.05937
0.67500 0.76500 0.05937
0.74250 0.76500 0.05937
0.81000 0.76500 0.05937
0.87750 0.76500 0.05937
0.94500 0.76500 0.05937
1.00000 0.76500 0.05937
1.00000 0.76500 0.05937
0.00000 0.82875 0.05937
0.06750 0.82875 0.05937
0.13500 0.82875 0.05937
0.20250 0.82875 0.05937
0.27000 0.82875 0.05937
0.33750 0.82875 0.05937
0.40500 0.82875 0.05937
0.47250 0.82875 0.05937
0.54000 0.82875 0.05937
0.60750 0.82875 0.05937
0.67500 0.82875 0.05937
0.74250 0.82875 0.05937
0.81000 0.82875 0.05937
0.87750 0.82875 0.05937
0.94500 0.82875 0.05937
1.00000 0.82875 0.05937
1.00000 0.82875 0.05937
0.00000 0.89250 0.05937
0.06750 0.89250 0.05937
0.13500 0.89250 0.05937
0.20250 0.89250 0.05937
0.27000 0.89250 0.05937
0.33750 0.89250 0.05937
0.40500 0.89250 0.05937
0.47250 0.89250 0.05937
0.54000 0.89250 0.05937
0.60750 0.89250 0.05937
0.67500 0.89250 0.05937
0.74250 0.89250 0.05937
0.81000 0.89250 0.05937
0.87750 0.89250 0.05937
0.94500 0.89250 0.05937
1.00000 0.89250 0.05937
1.00000 0.89250 0.05937
0.00000 0.95625 0.05937
0.06750 0.95625 0.05937
0.13500 0.95625 0.05937
0.20250 0.95625 0.05937
0.27000 0.95625 0.05937
0.33750 0.95625 0.05937
0.40500 0.95625 0.05937
0.47250 0.95625 0.05937
0.54000 0.95625 0.05937
0.60750 0.95625 0.05937
0.67500 0.95625 0.05937
0.74250 0.95625 0.05937
0.81000 0.95625 0.05937
0.87750 0.95625 0.05937
0.94500 0.95625 0.05937
1.00000 0.95625 0.05937
1.00000 0.95625 0.05937
0.00000 1.00000 0.05937
0.06750 1.00000 0.05937
0.13500 1.00000 0.05937
0.20250 1.00000 0.05937
0.27000 1.00000 0.05937
0.33750 1.00000 0.05937
0.40500 1.00000 0.05937
0.47250 1.00000 0.05937
0.54000 1.00000 0.05937
0.60750 1.00000 0.05937
0.67500 1.00000 0.05937
0.74250 1.00000 0.05937
0.81000 1.00000 0.05937
0.87750 1.00000 0.05937
0.94500 1.00000 0.05937
1.00000 1.00000 0.05937
1.00000 1.00000 0.05937
0.00000 0.00000 0.13250
0.05937 0.00000 0.13250
0.11875 0.00000 0.13250
0.17812 0.00000 0.13250
0.23750 0.00000 0.13250
0.29688 0.00000 0.13250
0.35625 0.00000 0.13250
0.41562 0.00000 0.13250
0.47500 0.00000 0.13250
0.53437 0.00000 0.13250
0.59375 0.00000 0.13250
0.65312 0.00000 0.13250
0.71250 0.00000 0.13250
0.77187 0.00000 0.13250
0.83125 0.00000 0.13250
0.89062 0.00000 0.13250
0.95000 0.00000 0.13250
0.00000 0.06438 0.13250
0.05937 0.06438 0.13250
0.11875 0.06438 0.13250
0.17812 0.06438 0.13250
0.23750 0.06438 0.13250
0.29688 0.06438 0.13250
0.35625 0.06438 0.13250
0.41562 0.06438 0.13250
0.47500 0.06438 0.13250
0.53437 0.06438 0.13250
0.59375 0.06438 0.13250
0.65312 0.06438 0.13250
0.71250 0.06438 0.13250
0.77187 0.06438 0.13250
0.83125 0.06438 0.13250
0.89062 0.06438 0.13250
0.95000 0.06438 0.13250
0.00000 0.12875 0.13250
0.05937 0.12875 0.13250
0.11875 0.12875 0.13250
0.17812 0.12875 0.13250
0.23750 0.12875 0.13250
0.29688 0.12875 0.13250
0.35625 0.12875 0.13250
0.41562 0.12875 0.13250
0.47500 0.12875 0.13250
0.53437 0.12875 0.13250
0.59375 0.12875 0.13250
0.65312 0.12875 0.13250
0.71250 0.12875 0.13250
0.77187 0.12875 0.13250
0.83125 0.12875 0.13250
0.89062 0.12875 0.13250
0.95000 0.12875 0.13250
0.00000 0.19312 0.13250
0.05937 0.19312 0.13250
0.11875 0.19312 0.13250
0.17812 0.19312 0.13250
0.23750 0.19312 0.13250
0.29688 0.19312 0.13250
0.35625 0.19312 0.13250
0.41562 0.19312 0.13250
0.47500 0.19312 0.13250
0.53437 0.19312 0.13250
0.59375 0.19312 0.13250
0.65312 0.19312 0.13250
0.71250 0.19312 0.13250
0.77187 0.19312 0.13250
0.83125 0.19312 0.13250
1.00000 0.19125 0.11875
1.00000 0.19125 0.11875
0.00000 0.25750 0.13250
0.05937 0.25750 0.13250
0.11875 0.25750 0.13250
0.17812 0.25750 0.13250
0.23750 0.25750 0.13250
0.29688 0.25750 0.13250
0.35625 0.25750 0.13250
0.41562 0.25750 0.13250
0.47500 0.25750 0.13250
0.53437 0.25750 0.13250
0.59375 0.25750 0.13250
0.65312 0.25750 0.13250
0.71250 0.25750 0.13250
0.87750 0.25500 0.11875
0.94500 0.25500 0.11875
1.00000 0.25500 0.11875
1.00000 0.25500 0.11875
0.00000 0.32188 0.13250
0.05937 0.32188 0.13250
0.11875 0.32188 0.13250
0.17812 0.32188 0.13250
0.23750 0.32188 0.13250
0.29688 0.32188 0.13250
0.35625 0.32188 0.13250
0.41562 0.32188 0.13250
0.47500 0.32188 0.13250
0.53437 0.32188 0.13250
0.59375 0.32188 0.13250
0.74250 0.31875 0.11875
0.81000 0.31875 0.11875
0.87750 0.31875 0.11875
0.94500 0.31875 0.11875
1.00000 0.31875 0.11875
1.00000 0.31875 0.11875
0.00000 0.38625 0.13250
0.05937 0.38625 0.13250
0.11875 0.38625 0.13250
0.17812 0.38625 0.13250
0.23750 0.38625 0.13250
0.29688 0.38625 0.13250
0.35625 0.38625 0.13250
0.41562 0.38625 0.13250
0.47500 0.38625 0.13250
0.60750 0.38250 0.11875
0.67500 0.38250 0.11875
0.74250 0.38250 0.11875
0.81000 0.38250 0.11875
0.87750 0.38250 0.11875
0.94500 0.38250 0.11875
1.00000 0.38250 0.11875
1.00000 0.38250 0.11875
0.00000 0.45062 0.13250
0.05937 0.45062 0.13250
0.11875 0.45062 0.13250
0.17812 0.45062 0.13250
0.23750 0.45062 0.13250
0.29688 0.45062 0.13250
0.35625 0.45062 0.13250
0.47250 0.44625 0.11875
0.54000 0.44625 0.11875
0.60750 0.44625 0.11875
0.67500 0.44625 0.11875
0.74250 0.44625 0.11875
0.81000 0.44625 0.11875
0.87750 0.44625 0.11875
0.94500 0.44625 0.11875
1.00000 0.44625 0.11875
1.00000 0.44625 0.11875
0.00000 0.51500 0.13250
0.05937 0.51500 0.13250
0.11875 0.51500 0.13250
0.17812 0.51500 0.13250
0.23750 0.51500 0.13250
0.33750 0.51000 0.11875
0.40500 0.51000 0.11875
0.47250 0.51000 0.11875
0.54000 0.51000 0.11875
0.60750 0.51000 0.11875
0.67500 0.51000 0.11875
0.74250 0.51000 0.11875
0.81000 0.51000 0.11875
0.87750 0.51000 0.11875
0.94500 0.51000 0.11875
1.00000 0.51000 0.11875
1.00000 0.51000 0.11875
0.00000 0.57937 0.13250
0.05937 0.57937 0.13250
0.11875 0.57937 0.13250
0.20250 0.57375 0.11875
0.27000 0.57375 0.11875
0.33750 0.57375 0.11875
0.40500 0.57375 0.11875
0.47250 0.57375 0.11875
0.54000 0.57375 0.11875
0.60750 0.57375 0.11875
0.67500 0.57375 0.11875
0.74250 0.57375 0.11875
0.81000 0.57375 0.11875
0.87750 0.57375 0.11875
0.94500 0.57375 0.11875
1.00000 0.57375 0.11875
1.00000 0.57375 0.11875
0.00000 0.64375 0.13250
0.05937 0.64375 0.13250
0.13500 0.63750 0.11875
0.20250 0.63750 0.11875
0.27000 0.63750 0.11875
0.33750 0.63750 0.11875
0.40500 0.63750 0.11875
0.47250 0.63750 0.11875
0.54000 0.63750 0.11875
0.60750 0.63750 0.11875
0.67500 0.63750 0.11875
0.74250 0.63750 0.11875
0.81000 0.63750 0.11875
0.87750 0.63750 0.11875
0.94500 0.63750 0.11875
1.00000 0.63750 0.11875
1.00000 0.63750 0.11875
0.00000 0.70125 0.11875
0.06750 0.70125 0.11875
0.13500 0.70125 0.11875
0.20250 0.70125 0.11875
0.27000 0.70125 0.11875
0.33750 0.70125 0.11875
0.40500 0.70125 0.11875
0.47250 0.70125 0.11875
0.54000 0.70125 0.11875
0.60750 0.70125 0.11875
0.67500 0.70125 0.11875
0.74250 0.70125 0.11875
0.81000 0.70125 0.11875
0.87750 0.70125 0.11875
0.94500 0.70125 0.11875
1.00000 0.70125 0.11875
1.00000 0.70125 0.11875
0.00000 0.76500 0.11875
0.06750 0.76500 0.11875
0.13500 0.76500 0.11875
0.20250 0.76500 0.11875
0.27000 0.76500 0.11875
0.33750 0.76500 0.11875
0.40500 0.76500 0.11875
0.47250 0.76500 0.11875
0.54000 0.76500 0.11875
0.60750 0.76500 0.11875
0.67500 0.76500 0.11875
0.74250 0.76500 0.11875
0.81000 0.76500 0.11875
0.87750 0.76500 0.11875
0.94500 0.76500 0.11875
1.00000 0.76500 0.11875
1.00000 0.76500 0.11875
0.00000 0.82875 0.11875
0.06750 0.82875 0.11875
0.13500 0.82875 0.11875
0.20250 0.82875 0.11875
0.27000 0.82875 0.11875
0.33750 0.82875 0.11875
0.40500 0.82875 0.11875
0.47250 0.82875 0.11875
0.54000 0.82875 0.11875
0.60750 0.82875 0.11875
0.67500 0.82875 0.11875
0.74250 0.82875 0.11875
0.81000 0.82875 0.11875
0.87750 0.82875 0.11875
0.94500 0.82875 0.11875
1.00000 0.82875 0.11875
1.00000 0.82875 0.11875
0.00000 0.89250 0.11875
0.06750 0.89250 0.11875
0.13500 0.89250 0.11875
0.20250 0.89250 0.11875
0.27000 0.89250 0.11875
0.33750 0.89250 0.11875
0.40500 0.89250 0.11875
0.47250 0.89250 0.11875
0.54000 0.89250 0.11875
0.60750 0.89250 0.11875
0.67500 0.89250 0.11875
0.74250 0.89250 0.11875
0.81000 0.89250 0.11875
0.87750 0.89250 0.11875
0.94500 0.89250 0.11875
1.00000 0.89250 0.11875
1.00000 0.89250 0.11875
0.00000 0.95625 0.11875
0.06750 0.95625 0.11875
0.13500 0.95625 0.11875
0.20250 0.95625 0.11875
0.27000 0.95625 0.11875
0.33750 0.95625 0.11875
0.40500 0.95625 0.11875
0.47250 0.95625 0.11875
0.54000 0.95625 0.11875
0.60750 0.95625 0.11875
0.67500 0.95625 0.11875
0.74250 0.95625 0.11875
0.81000 0.95625 0.11875
0.87750 0.95625 0.11875
0.94500 0.95625 0.11875
1.00000 0.95625 0.11875
1.00000 0.95625 0.11875
0.00000 1.00000 0.11875
0.06750 1.00000 0.11875
0.13500 1.00000 0.11875
0.20250 1.00000 0.11875
0.27000 1.00000 0.11875
0.33750 1.00000 0.11875
0.40500 1.00000 0.11875
0.47250 1.00000 0.11875
0.54000 1.00000 0.11875
0.60750 1.00000 0.11875
0.67500 1.00000 0.11875
0.74250 1.00000 0.11875
0.81000 1.00000 0.11875
0.87750 1.00000 0.11875
0.94500 1.00000 0.11875
1.00000 1.00000 0.11875
1.00000 1.00000 0.11875
0.00000 0.00000 0.19875
0.05937 0.00000 0.19875
0.11875 0.00000 0.19875
0.17812 0.00000 0.19875
0.23750 0.00000 0.19875
0.29688 0.00000 0.19875
0.35625 0.00000 0.19875
0.41562 0.00000 0.19875
0.47500 0.00000 0.19875
0.53437 0.00000 0.19875
0.59375 0.00000 0.19875
0.65312 0.00000 0.19875
0.71250 0.00000 0.19875
0.77187 0.00000 0.19875
0.83125 0.00000 0.19875
0.89062 0.00000 0.19875
0.95000 0.00000 0.19875
0.00000 0.06438 0.19875
0.05937 0.06438 0.19875
0.11875 0.06438 0.19875
0.17812 0.06438 0.19875
0.23750 0.06438 0.19875
0.29688 0.06438 0.19875
0.35625 0.06438 0.19875
0.41562 0.06438 0.19875
0.47500 0.06438 0.19875
0.53437 0.06438 0.19875
0.59375 0.06438 0.19875
0.65312 0.06438 0.19875
0.71250 0.06438 0.19875
0.77187 0.06438 0.19875
0.83125 0.06438 0.19875
0.89062 0.06438 0.19875
