assets/luts/cool.cube
TITLE "ReelForge cool"
LUT_3D_SIZE 9
0.00000 0.00000 0.00000
0.11500 0.00000 0.00000
0.23000 0.00000 0.00000
0.34500 0.00000 0.00000
0.46000 0.00000 0.00000
0.57500 0.00000 0.00000
0.69000 0.00000 0.00000
0.80500 0.00000 0.00000
0.92000 0.00000 0.00000
0.00000 0.12500 0.00000
0.11500 0.12500 0.00000
0.23000 0.12500 0.00000
0.34500 0.12500 0.00000
0.46000 0.12500 0.00000
0.57500 0.12500 0.00000
0.69000 0.12500 0.00000
0.80500 0.12500 0.00000
0.92000 0.12500 0.00000
0.00000 0.25000 0.00000
0.11500 0.25000 0.00000
0.23000 0.25000 0.00000
0.34500 0.25000 0.00000
0.46000 0.25000 0.00000
0.57500 0.25000 0.00000
0.69000 0.25000 0.00000
0.80500 0.25000 0.00000
0.92000 0.25000 0.00000
0.00000 0.37500 0.00000
0.11500 0.37500 0.00000
0.23000 0.37500 0.00000
0.34500 0.37500 0.00000
0.46000 0.37500 0.00000
0.57500 0.37500 0.00000
0.69000 0.37500 0.00000
0.80500 0.37500 0.00000
0.92000 0.37500 0.00000
0.00000 0.50000 0.00000
0.11500 0.50000 0.00000
0.23000 0.50000 0.00000
0.34500 0.50000 0.00000
0.46000 0.50000 0.00000
0.57500 0.50000 0.00000
0.69000 0.50000 0.00000
0.80500 0.50000 0.00000
0.92000 0.50000 0.00000
0.00000 0.62500 0.00000
0.11500 0.62500 0.00000
0.23000 0.62500 0.00000
0.34500 0.62500 0.00000
0.46000 0.62500 0.00000
0.57500 0.62500 0.00000
0.69000 0.62500 0.00000
0.80500 0.62500 0.00000
0.92000 0.62500 0.00000
0.00000 0.75000 0.00000
0.11500 0.75000 0.00000
0.23000 0.75000 0.00000
0.34500 0.75000 0.00000
0.46000 0.75000 0.00000
0.57500 0.75000 0.00000
0.69000 0.75000 0.00000
0.80500 0.75000 0.00000
0.92000 0.75000 0.00000
0.00000 0.87500 0.00000
0.11500 0.87500 0.00000
0.23000 0.87500 0.00000
0.34500 0.87500 0.00000
0.46000 0.87500 0.00000
0.57500 0.87500 0.00000
0.69000 0.87500 0.00000
0.80500 0.87500 0.00000
0.92000 0.87500 0.00000
0.00000 1.00000 0.00000
0.11500 1.00000 0.00000
0.23000 1.00000 0.00000
0.34500 1.00000 0.00000
0.46000 1.00000 0.00000
0.57500 1.00000 0.00000
0.69000 1.00000 0.00000
0.80500 1.00000 0.00000
0.92000 1.00000 0.00000
0.00000 0.00000 0.13750
0.11500 0.00000 0.13750
0.23000 0.00000 0.13750
0.34500 0.00000 0.13750
0.46000 0.00000 0.13750
0.57500 0.00000 0.13750
0.69000 0.00000 0.13750
0.80500 0.00000 0.13750
0.92000 0.00000 0.13750
0.00000 0.12500 0.13750
0.11500 0.12500 0.13750
0.23000 0.12500 0.13750
0.34500 0.12500 0.13750
0.46000 0.12500 0.13750
0.57500 0.12500 0.13750
0.69000 0.12500 0.13750
0.80500 0.12500 0.13750
0.92000 0.12500 0.13750
0.00000 0.25000 0.13750
0.11500 0.25000 0.13750
0.23000 0.25000 0.13750
0.34500 0.25000 0.13750
0.46000 0.25000 0.13750
0.57500 0.25000 0.13750
0.69000 0.25000 0.13750
0.80500 0.25000 0.13750
0.92000 0.25000 0.13750
0.00000 0.37500 0.13750
0.11500 0.37500 0.13750
0.23000 0.37500 0.13750
0.34500 0.37500 0.13750
0.46000 0.37500 0.13750
0.57500 0.37500 0.13750
0.69000 0.37500 0.13750
0.80500 0.37500 0.13750
0.92000 0.37500 0.13750
0.00000 0.50000 0.13750
0.11500 0.50000 0.13750
0.23000 0.50000 0.13750
0.34500 0.50000 0.13750
0.46000 0.50000 0.13750
0.57500 0.50000 0.13750
0.69000 0.50000 0.13750
0.80500 0.50000 0.13750
0.92000 0.50000 0.13750
0.00000 0.62500 0.13750
0.11500 0.62500 0.13750
0.23000 0.62500 0.13750
0.34500 0.62500 0.13750
0.46000 0.62500 0.13750
0.57500 0.62500 0.13750
0.69000 0.62500 0.13750
0.80500 0.62500 0.13750
0.92000 0.62500 0.13750
0.00000 0.75000 0.13750
0.11500 0.75000 0.13750
0.23000 0.75000 0.13750
0.34500 0.75000 0.13750
0.46000 0.75000 0.13750
0.57500 0.75000 0.13750
0.69000 0.75000 0.13750
0.80500 0.75000 0.13750
0.92000 0.75000 0.13750
0.00000 0.87500 0.13750
0.11500 0.87500 0.13750
0.23000 0.87500 0.13750
0.34500 0.87500 0.13750
0.46000 0.87500 0.13750
0.57500 0.87500 0.13750
0.69000 0.87500 0.13750
0.80500 0.87500 0.13750
0.92000 0.87500 0.13750
0.00000 1.00000 0.13750
0.11500 1.00000 0.13750
0.23000 1.00000 0.13750
0.34500 1.00000 0.13750
0.46000 1.00000 0.13750
0.57500 1.00000 0.13750
0.69000 1.00000 0.13750
0.80500 1.00000 0.13750
0.92000 1.00000 0.13750
0.00000 0.00000 0.27500
0.11500 0.00000 0.27500
0.23000 0.00000 0.27500
0.34500 0.00000 0.27500
0.46000 0.00000 0.27500
0.57500 0.00000 0.27500
0.69000 0.00000 0.27500
0.80500 0.00000 0.27500
0.92000 0.00000 0.27500
0.00000 0.12500 0.27500
0.11500 0.12500 0.27500
0.23000 0.12500 0.27500
0.34500 0.12500 0.27500
0.46000 0.12500 0.27500
0.57500 0.12500 0.27500
0.69000 0.12500 0.27500
0.80500 0.12500 0.27500
0.92000 0.12500 0.27500
0.00000 0.25000 0.27500
0.11500 0.25000 0.27500
0.23000 0.25000 0.27500
0.34500 0.25000 0.27500
0.46000 0.25000 0.27500
0.57500 0.25000 0.27500
0.69000 0.25000 0.27500
0.80500 0.25000 0.27500
0.92000 0.25000 0.27500
0.00000 0.37500 0.27500
0.11500 0.37500 0.27500
0.23000 0.37500 0.27500
0.34500 0.37500 0.27500
0.46000 0.37500 0.27500
0.57500 0.37500 0.27500
0.69000 0.37500 0.27500
0.80500 0.37500 0.27500
0.92000 0.37500 0.27500
0.00000 0.50000 0.27500
0.11500 0.50000 0.27500
0.23000 0.50000 0.27500
0.34500 0.50000 0.27500
0.46000 0.50000 0.27500
0.57500 0.50000 0.27500
0.69000 0.50000 0.27500
0.80500 0.50000 0.27500
0.92000 0.50000 0.27500
0.00000 0.62500 0.27500
0.11500 0.62500 0.27500
0.23000 0.62500 0.27500
0.34500 0.62500 0.27500
0.46000 0.62500 0.27500
0.57500 0.62500 0.27500
0.69000 0.62500 0.27500
0.80500 0.62500 0.27500
0.92000 0.62500 0.27500
0.00000 0.75000 0.27500
0.11500 0.75000 0.27500
0.23000 0.75000 0.27500
0.34500 0.75000 0.27500
0.46000 0.75000 0.27500
0.57500 0.75000 0.27500
0.69000 0.75000 0.27500
0.80500 0.75000 0.27500
0.92000 0.75000 0.27500
0.00000 0.87500 0.27500
0.11500 0.87500 0.27500
0.23000 0.87500 0.27500
0.34500 0.87500 0.27500
0.46000 0.87500 0.27500
0.57500 0.87500 0.27500
0.69000 0.87500 0.27500
0.80500 0.87500 0.27500
0.92000 0.87500 0.27500
0.00000 1.00000 0.27500
0.11500 1.00000 0.27500
0.23000 1.00000 0.27500
0.34500 1.00000 0.27500
0.46000 1.00000 0.27500
0.57500 1.00000 0.27500
0.69000 1.00000 0.27500
0.80500 1.00000 0.27500
0.92000 1.00000 0.27500
0.00000 0.00000 0.41250
0.11500 0.00000 0.41250
0.23000 0.00000 0.41250
0.34500 0.00000 0.41250
0.46000 0.00000 0.41250
0.57500 0.00000 0.41250
0.69000 0.00000 0.41250
0.80500 0.00000 0.41250
0.92000 0.00000 0.41250
0.00000 0.12500 0.41250
0.11500 0.12500 0.41250
0.23000 0.12500 0.41250
0.34500 0.12500 0.41250
0.46000 0.12500 0.41250
0.57500 0.12500 0.41250
0.69000 0.12500 0.41250
0.80500 0.12500 0.41250
0.92000 0.12500 0.41250
0.00000 0.25000 0.41250
0.11500 0.25000 0.41250
0.23000 0.25000 0.41250
0.34500 0.25000 0.41250
0.46000 0.25000 0.41250
0.57500 0.25000 0.41250
0.69000 0.25000 0.41250
0.80500 0.25000 0.41250
0.92000 0.25000 0.41250
0.00000 0.37500 0.41250
0.11500 0.37500 0.41250
0.23000 0.37500 0.41250
0.34500 0.37500 0.41250
0.46000 0.37500 0.41250
0.57500 0.37500 0.41250
0.69000 0.37500 0.41250
0.80500 0.37500 0.41250
0.92000 0.37500 0.41250
0.00000 0.50000 0.41250
0.11500 0.50000 0.41250
0.23000 0.50000 0.41250
0.34500 0.50000 0.41250
0.46000 0.50000 0.41250
0.57500 0.50000 0.41250
0.69000 0.50000 0.41250
0.80500 0.50000 0.41250
0.92000 0.50000 0.41250
0.00000 0.62500 0.41250
0.11500 0.62500 0.41250
0.23000 0.62500 0.41250
0.34500 0.62500 0.41250
0.46000 0.62500 0.41250
0.57500 0.62500 0.41250
0.69000 0.62500 0.41250
0.80500 0.62500 0.41250
0.92000 0.62500 0.41250
0.00000 0.75000 0.41250
0.11500 0.75000 0.41250
0.23000 0.75000 0.41250
0.34500 0.75000 0.41250
0.46000 0.75000 0.41250
0.57500 0.75000 0.41250
0.69000 0.75000 0.41250
0.80500 0.75000 0.41250
0.92000 0.75000 0.41250
0.00000 0.87500 0.41250
0.11500 0.87500 0.41250
0.23000 0.87500 0.41250
0.34500 0.87500 0.41250
0.46000 0.87500 0.41250
0.57500 0.87500 0.41250
0.69000 0.87500 0.41250
0.80500 0.87500 0.41250
0.92000 0.87500 0.41250
0.00000 1.00000 0.41250
0.11500 1.00000 0.41250
0.23000 1.00000 0.41250
0.34500 1.00000 0.41250
0.46000 1.00000 0.41250
0.57500 1.00000 0.41250
0.69000 1.00000 0.41250
0.80500 1.00000 0.41250
0.92000 1.00000 0.41250
0.00000 0.00000 0.55000
0.11500 0.00000 0.55000
0.23000 0.00000 0.55000
0.34500 0.00000 0.55000
0.46000 0.00000 0.55000
0.57500 0.00000 0.55000
0.69000 0.00000 0.55000
0.80500 0.00000 0.55000
0.92000 0.00000 0.55000
0.00000 0.12500 0.55000
0.11500 0.12500 0.55000
0.23000 0.12500 0.55000
0.34500 0.12500 0.55000
0.46000 0.12500 0.55000
0.57500 0.12500 0.55000
0.69000 0.12500 0.55000
0.80500 0.12500 0.55000
0.92000 0.12500 0.55000
0.00000 0.25000 0.55000
0.11500 0.25000 0.55000
0.23000 0.25000 0.55000
0.34500 0.25000 0.55000
0.46000 0.25000 0.55000
0.57500 0.25000 0.55000
0.69000 0.25000 0.55000
0.80500 0.25000 0.55000
0.92000 0.25000 0.55000
0.00000 0.37500 0.55000
0.11500 0.37500 0.55000
0.23000 0.37500 0.55000
0.34500 0.37500 0.55000
0.46000 0.37500 0.55000
0.57500 0.37500 0.55000
0.69000 0.37500 0.55000
0.80500 0.37500 0.55000
0.92000 0.37500 0.55000
0.00000 0.50000 0.55000
0.11500 0.50000 0.55000
0.23000 0.50000 0.55000
0.34500 0.50000 0.55000
0.46000 0.50000 0.55000
0.57500 0.50000 0.55000
0.69000 0.50000 0.55000
0.80500 0.50000 0.55000
0.92000 0.50000 0.55000
0.00000 0.62500 0.55000
0.11500 0.62500 0.55000
0.23000 0.62500 0.55000
0.34500 0.62500 0.55000
0.46000 0.62500 0.55000
0.57500 0.62500 0.55000
0.69000 0.62500 0.55000
0.80500 0.62500 0.55000
0.92000 0.62500 0.55000
0.00000 0.75000 0.55000
0.11500 0.75000 0.55000
0.23000 0.75000 0.55000
0.34500 0.75000 0.55000
0.46000 0.75000 0.55000
0.57500 0.75000 0.55000
0.69000 0.75000 0.55000
0.80500 0.75000 0.55000
0.92000 0.75000 0.55000
0.00000 0.87500 0.55000
0.11500 0.87500 0.55000
0.23000 0.87500 0.55000
0.34500 0.87500 0.55000
0.46000 0.87500 0.55000
0.57500 0.87500 0.55000
0.69000 0.87500 0.55000
0.80500 0.87500 0.55000
0.92000 0.87500 0.55000
0.00000 1.00000 0.55000
0.11500 1.00000 0.55000
0.23000 1.00000 0.55000
0.34500 1.00000 0.55000
0.46000 1.00000 0.55000
0.57500 1.00000 0.55000
0.69000 1.00000 0.55000
0.80500 1.00000 0.55000
0.92000 1.00000 0.55000
0.00000 0.00000 0.68750
0.11500 0.00000 0.68750
0.23000 0.00000 0.68750
0.34500 0.00000 0.68750
0.46000 0.00000 0.68750
0.57500 0.00000 0.68750
0.69000 0.00000 0.68750
0.80500 0.00000 0.68750
0.92000 0.00000 0.68750
0.00000 0.12500 0.68750
0.11500 0.12500 0.68750
0.23000 0.12500 0.68750
0.34500 0.12500 0.68750
0.46000 0.12500 0.68750
0.57500 0.12500 0.68750
0.69000 0.12500 0.68750
0.80500 0.12500 0.68750
0.92000 0.12500 0.68750
0.00000 0.25000 0.68750
0.11500 0.25000 0.68750
0.23000 0.25000 0.68750
0.34500 0.25000 0.68750
0.46000 0.25000 0.68750
0.57500 0.25000 0.68750
0.69000 0.25000 0.68750
0.80500 0.25000 0.68750
0.92000 0.25000 0.68750
0.00000 0.37500 0.68750
0.11500 0.37500 0.68750
0.23000 0.37500 0.68750
0.34500 0.37500 0.68750
0.46000 0.37500 0.68750
0.57500 0.37500 0.68750
0.69000 0.37500 0.68750
0.80500 0.37500 0.68750
0.92000 0.37500 0.68750
0.00000 0.50000 0.68750
0.11500 0.50000 0.68750
0.23000 0.50000 0.68750
0.34500 0.50000 0.68750
0.46000 0.50000 0.68750
0.57500 0.50000 0.68750
0.69000 0.50000 0.68750
0.80500 0.50000 0.68750
0.92000 0.50000 0.68750
0.00000 0.62500 0.68750
0.11500 0.62500 0.68750
0.23000 0.62500 0.68750
0.34500 0.62500 0.68750
0.46000 0.62500 0.68750
0.57500 0.62500 0.68750
0.69000 0.62500 0.68750
0.80500 0.62500 0.68750
0.92000 0.62500 0.68750
0.00000 0.75000 0.68750
0.11500 0.75000 0.68750
0.23000 0.75000 0.68750
0.34500 0.75000 0.68750
0.46000 0.75000 0.68750
0.57500 0.75000 0.68750
0.69000 0.75000 0.68750
0.80500 0.75000 0.68750
0.92000 0.75000 0.68750
0.00000 0.87500 0.68750
0.11500 0.87500 0.68750
0.23000 0.87500 0.68750
0.34500 0.87500 0.68750
0.46000 0.87500 0.68750
0.57500 0.87500 0.68750
0.69000 0.87500 0.68750
0.80500 0.87500 0.68750
0.92000 0.87500 0.68750
0.00000 1.00000 0.68750
0.11500 1.00000 0.68750
0.23000 1.00000 0.68750
0.34500 1.00000 0.68750
0.46000 1.00000 0.68750
0.57500 1.00000 0.68750
0.69000 1.00000 0.68750
0.80500 1.00000 0.68750
0.92000 1.00000 0.68750
0.00000 0.00000 0.82500
0.11500 0.00000 0.82500
0.23000 0.00000 0.82500
0.34500 0.00000 0.82500
0.46000 0.00000 0.82500
0.57500 0.00000 0.82500
0.69000 0.00000 0.82500
0.80500 0.00000 0.82500
0.92000 0.00000 0.82500
0.00000 0.12500 0.82500
0.11500 0.12500 0.82500
0.23000 0.12500 0.82500
0.34500 0.12500 0.82500
0.46000 0.12500 0.82500
0.57500 0.12500 0.82500
0.69000 0.12500 0.82500
0.80500 0.12500 0.82500
0.92000 0.12500 0.82500
0.00000 0.25000 0.82500
0.11500 0.25000 0.82500
0.23000 0.25000 0.82500
0.34500 0.25000 0.82500
0.46000 0.25000 0.82500
0.57500 0.25000 0.82500
0.69000 0.25000 0.82500
0.80500 0.25000 0.82500
0.92000 0.25000 0.82500
0.00000 0.37500 0.82500
0.11500 0.37500 0.82500
0.23000 0.37500 0.82500
0.34500 0.37500 0.82500
0.46000 0.37500 0.82500
0.57500 0.37500 0.82500
0.69000 0.37500 0.82500
0.80500 0.37500 0.82500
0.92000 0.37500 0.82500
0.00000 0.50000 0.82500
0.11500 0.50000 0.82500
0.23000 0.50000 0.82500
0.34500 0.50000 0.82500
0.46000 0.50000 0.82500
0.57500 0.50000 0.82500
0.69000 0.50000 0.82500
0.80500 0.50000 0.82500
0.92000 0.50000 0.82500
0.00000 0.62500 0.82500
0.11500 0.62500 0.82500
0.23000 0.62500 0.82500
0.34500 0.62500 0.82500
0.46000 0.62500 0.82500
0.57500 0.62500 0.82500
0.69000 0.62500 0.82500
0.80500 0.62500 0.82500
0.92000 0.62500 0.82500
0.00000 0.75000 0.82500
0.11500 0.75000 0.82500
0.23000 0.75000 0.82500
0.34500 0.75000 0.82500
0.46000 0.75000 0.82500
0.57500 0.75000 0.82500
0.69000 0.75000 0.82500
0.80500 0.75000 0.82500
0.92000 0.75000 0.82500
0.00000 0.87500 0.82500
0.11500 0.87500 0.82500
0.23000 0.87500 0.82500
0.34500 0.87500 0.82500
0.46000 0.87500 0.82500
0.57500 0.87500 0.82500
0.69000 0.87500 0.82500
0.80500 0.87500 0.82500
0.92000 0.87500 0.82500
0.00000 1.00000 0.82500
0.11500 1.00000 0.82500
0.23000 1.00000 0.82500
0.34500 1.00000 0.82500
0.46000 1.00000 0.82500
0.57500 1.00000 0.82500
0.69000 1.00000 0.82500
0.80500 1.00000 0.82500
0.92000 1.00000 0.82500
0.00000 0.00000 0.96250
0.11500 0.00000 0.96250
0.23000 0.00000 0.96250
0.34500 0.00000 0.96250
0.46000 0.00000 0.96250
0.57500 0.00000 0.96250
0.69000 0.00000 0.96250
0.80500 0.00000 0.96250
0.92000 0.00000 0.96250
0.00000 0.12500 0.96250
0.11500 0.12500 0.96250
0.23000 0.12500 0.96250
0.34500 0.12500 0.96250
0.46000 0.12500 0.96250
0.57500 0.12500 0.96250
0.69000 0.12500 0.96250
0.80500 0.12500 0.96250
0.92000 0.12500 0.96250
0.00000 0.25000 0.96250
0.11500 0.25000 0.96250
0.23000 0.25000 0.96250
0.34500 0.25000 0.96250
0.46000 0.25000 0.96250
0.57500 0.25000 0.96250
0.69000 0.25000 0.96250
0.80500 0.25000 0.96250
0.92000 0.25000 0.96250
0.00000 0.37500 0.96250
0.11500 0.37500 0.96250
0.23000 0.37500 0.96250
0.34500 0.37500 0.96250
0.46000 0.37500 0.96250
0.57500 0.37500 0.96250
0.69000 0.37500 0.96250
0.80500 0.37500 0.96250
0.92000 0.37500 0.96250
0.00000 0.50000 0.96250
0.11500 0.50000 0.96250
0.23000 0.50000 0.96250
0.34500 0.50000 0.96250
0.46000 0.50000 0.96250
0.57500 0.50000 0.96250
0.69000 0.50000 0.96250
0.80500 0.50000 0.96250
0.92000 0.50000 0.96250
0.00000 0.62500 0.96250
0.11500 0.62500 0.96250
0.23000 0.62500 0.96250
0.34500 0.62500 0.96250
0.46000 0.62500 0.96250
0.57500 0.62500 0.96250
0.69000 0.62500 0.96250
0.80500 0.62500 0.96250
0.92000 0.62500 0.96250
0.00000 0.75000 0.96250
0.11500 0.75000 0.96250
0.23000 0.75000 0.96250
0.34500 0.75000 0.96250
0.46000 0.75000 0.96250
0.57500 0.75000 0.96250
0.69000 0.75000 0.96250
0.80500 0.75000 0.96250
0.92000 0.75000 0.96250
0.00000 0.87500 0.96250
0.11500 0.87500 0.96250
0.23000 0.87500 0.96250
0.34500 0.87500 0.96250
0.46000 0.87500 0.96250
0.57500 0.87500 0.96250
0.69000 0.87500 0.96250
0.80500 0.87500 0.96250
0.92000 0.87500 0.96250
0.00000 1.00000 0.96250
0.11500 1.00000 0.96250
0.23000 1.00000 0.96250
0.34500 1.00000 0.96250
0.46000 1.00000 0.96250
0.57500 1.00000 0.96250
0.69000 1.00000 0.96250
0.80500 1.00000 0.96250
0.92000 1.00000 0.96250
0.00000 0.00000 1.00000
0.11500 0.00000 1.00000
0.23000 0.00000 1.00000
0.34500 0.00000 1.00000
0.46000 0.00000 1.00000
0.57500 0.00000 1.00000
0.69000 0.00000 1.00000
0.80500 0.00000 1.00000
0.92000 0.00000 1.00000
0.00000 0.12500 1.00000
0.11500 0.12500 1.00000
0.23000 0.12500 1.00000
0.34500 0.12500 1.00000
0.46000 0.12500 1.00000
0.57500 0.12500 1.00000
0.69000 0.12500 1.00000
0.80500 0.12500 1.00000
0.92000 0.12500 1.00000
0.00000 0.25000 1.00000
0.11500 0.25000 1.00000
0.23000 0.25000 1.00000
0.34500 0.25000 1.00000
0.46000 0.25000 1.00000
0.57500 0.25000 1.00000
0.69000 0.25000 1.00000
0.80500 0.25000 1.00000
0.92000 0.25000 1.00000
0.00000 0.37500 1.00000
0.11500 0.37500 1.00000
0.23000 0.37500 1.00000
0.34500 0.37500 1.00000
0.46000 0.37500 1.00000
0.57500 0.37500 1.00000
0.69000 0.37500 1.00000
0.80500 0.37500 1.00000
0.92000 0.37500 1.00000
0.00000 0.50000 1.00000
0.11500 0.50000 1.00000
0.23000 0.50000 1.00000
0.34500 0.50000 1.00000
0.46000 0.50000 1.00000
0.57500 0.50000 1.00000
0.69000 0.50000 1.00000
0.80500 0.50000 1.00000
0.92000 0.50000 1.00000
0.00000 0.62500 1.00000
0.11500 0.62500 1.00000
0.23000 0.62500 1.00000
0.34500 0.62500 1.00000
0.46000 0.62500 1.00000
0.57500 0.62500 1.00000
0.69000 0.62500 1.00000
0.80500 0.62500 1.00000
0.92000 0.62500 1.00000
0.00000 0.75000 1.00000
0.11500 0.75000 1.00000
0.23000 0.75000 1.00000
0.34500 0.75000 1.00000
0.46000 0.75000 1.00000
0.57500 0.75000 1.00000
0.69000 0.75000 1.00000
0.80500 0.75000 1.00000
0.92000 0.75000 1.00000
0.00000 0.87500 1.00000
0.11500 0.87500 1.00000
0.23000 0.87500 1.00000
0.34500 0.87500 1.00000
0.46000 0.87500 1.00000
0.57500 0.87500 1.00000
0.69000 0.87500 1.00000
0.80500 0.87500 1.00000
0.92000 0.87500 1.00000
0.00000 1.00000 1.00000
0.11500 1.00000 1.00000
0.23000 1.00000 1.00000
0.34500 1.00000 1.00000
0.46000 1.00000 1.00000
0.57500 1.00000 1.00000
0.69000 1.00000 1.00000
0.80500 1.00000 1.00000
0.92000 1.00000 1.00000
