assets/luts/cool.cube
TITLE "ReelForge cool"
LUT_3D_SIZE 5
0.00000 0.00000 0.00000
0.23000 0.00000 0.00000
0.46000 0.00000 0.00000
0.69000 0.00000 0.00000
0.92000 0.00000 0.00000
0.00000 0.25000 0.00000
0.23000 0.25000 0.00000
0.46000 0.25000 0.00000
0.69000 0.25000 0.00000
0.92000 0.25000 0.00000
0.00000 0.50000 0.00000
0.23000 0.50000 0.00000
0.46000 0.50000 0.00000
0.69000 0.50000 0.00000
0.92000 0.50000 0.00000
0.00000 0.75000 0.00000
0.23000 0.75000 0.00000
0.46000 0.75000 0.00000
0.69000 0.75000 0.00000
0.92000 0.75000 0.00000
0.00000 1.00000 0.00000
0.23000 1.00000 0.00000
0.46000 1.00000 0.00000
0.69000 1.00000 0.00000
0.92000 1.00000 0.00000
0.00000 0.00000 0.27500
0.23000 0.00000 0.27500
0.46000 0.00000 0.27500
0.69000 0.00000 0.27500
0.92000 0.00000 0.27500
0.00000 0.25000 0.27500
0.23000 0.25000 0.27500
0.46000 0.25000 0.27500
0.69000 0.25000 0.27500
0.92000 0.25000 0.27500
0.00000 0.50000 0.27500
0.23000 0.50000 0.27500
0.46000 0.50000 0.27500
0.69000 0.50000 0.27500
0.92000 0.50000 0.27500
0.00000 0.75000 0.27500
0.23000 0.75000 0.27500
0.46000 0.75000 0.27500
0.69000 0.75000 0.27500
0.92000 0.75000 0.27500
0.00000 1.00000 0.27500
0.23000 1.00000 0.27500
0.46000 1.00000 0.27500
0.69000 1.00000 0.27500
0.92000 1.00000 0.27500
0.00000 0.00000 0.55000
0.23000 0.00000 0.55000
0.46000 0.00000 0.55000
0.69000 0.00000 0.55000
0.92000 0.00000 0.55000
0.00000 0.25000 0.55000
0.23000 0.25000 0.55000
0.46000 0.25000 0.55000
0.69000 0.25000 0.55000
0.92000 0.25000 0.55000
0.00000 0.50000 0.55000
0.23000 0.50000 0.55000
0.46000 0.50000 0.55000
0.69000 0.50000 0.55000
0.92000 0.50000 0.55000
0.00000 0.75000 0.55000
0.23000 0.75000 0.55000
0.46000 0.75000 0.55000
0.69000 0.75000 0.55000
0.92000 0.75000 0.55000
0.00000 1.00000 0.55000
0.23000 1.00000 0.55000
0.46000 1.00000 0.55000
0.69000 1.00000 0.55000
0.92000 1.00000 0.55000
0.00000 0.00000 0.82500
0.23000 0.00000 0.82500
0.46000 0.00000 0.82500
0.69000 0.00000 0.82500
0.92000 0.00000 0.82500
0.00000 0.25000 0.82500
0.23000 0.25000 0.82500
0.46000 0.25000 0.82500
0.69000 0.25000 0.82500
0.92000 0.25000 0.82500
0.00000 0.50000 0.82500
0.23000 0.50000 0.82500
0.46000 0.50000 0.82500
0.69000 0.50000 0.82500
0.92000 0.50000 0.82500
0.00000 0.75000 0.82500
0.23000 0.75000 0.82500
0.46000 0.75000 0.82500
0.69000 0.75000 0.82500
0.92000 0.75000 0.82500
0.00000 1.00000 0.82500
0.23000 1.00000 0.82500
0.46000 1.00000 0.82500
0.69000 1.00000 0.82500
0.92000 1.00000 0.82500
0.00000 0.00000 1.00000
0.23000 0.00000 1.00000
0.46000 0.00000 1.00000
0.69000 0.00000 1.00000
0.92000 0.00000 1.00000
0.00000 0.25000 1.00000
0.23000 0.25000 1.00000
0.46000 0.25000 1.00000
0.69000 0.25000 1.00000
0.92000 0.25000 1.00000
0.00000 0.50000 1.00000
0.23000 0.50000 1.00000
0.46000 0.50000 1.00000
0.69000 0.50000 1.00000
0.92000 0.50000 1.00000
0.00000 0.75000 1.00000
0.23000 0.75000 1.00000
0.46000 0.75000 1.00000
0.69000 0.75000 1.00000
0.92000 0.75000 1.00000
0.00000 1.00000 1.00000
0.23000 1.00000 1.00000
0.46000 1.00000 1.00000
0.69000 1.00000 1.00000
0.92000 1.00000 1.00000
