assets/luts/cool.cube
TITLE "ReelForge cool"
LUT_3D_SIZE 17
0.00000 0.00000 0.00000
0.05750 0.00000 0.00000
0.11500 0.00000 0.00000
0.17250 0.00000 0.00000
0.23000 0.00000 0.00000
0.28750 0.00000 0.00000
0.34500 0.00000 0.00000
0.40250 0.00000 0.00000
0.46000 0.00000 0.00000
0.51750 0.00000 0.00000
0.57500 0.00000 0.00000
0.63250 0.00000 0.00000
0.69000 0.00000 0.00000
0.74750 0.00000 0.00000
0.80500 0.00000 0.00000
0.86250 0.00000 0.00000
0.92000 0.00000 0.00000
0.00000 0.06250 0.00000
0.05750 0.06250 0.00000
0.11500 0.06250 0.00000
0.17250 0.06250 0.00000
0.23000 0.06250 0.00000
0.28750 0.06250 0.00000
0.34500 0.06250 0.00000
0.40250 0.06250 0.00000
0.46000 0.06250 0.00000
0.51750 0.06250 0.00000
0.57500 0.06250 0.00000
0.63250 0.06250 0.00000
0.69000 0.06250 0.00000
0.74750 0.06250 0.00000
0.80500 0.06250 0.00000
0.86250 0.06250 0.00000
0.92000 0.06250 0.00000
0.00000 0.12500 0.00000
0.05750 0.12500 0.00000
0.11500 0.12500 0.00000
0.17250 0.12500 0.00000
0.23000 0.12500 0.00000
0.28750 0.12500 0.00000
0.34500 0.12500 0.00000
0.40250 0.12500 0.00000
0.46000 0.12500 0.00000
0.51750 0.12500 0.00000
0.57500 0.12500 0.00000
0.63250 0.12500 0.00000
0.69000 0.12500 0.00000
0.74750 0.12500 0.00000
0.80500 0.12500 0.00000
0.86250 0.12500 0.00000
0.92000 0.12500 0.00000
0.00000 0.18750 0.00000
0.05750 0.18750 0.00000
0.11500 0.18750 0.00000
0.17250 0.18750 0.00000
0.23000 0.18750 0.00000
0.28750 0.18750 0.00000
0.34500 0.18750 0.00000
0.40250 0.18750 0.00000
0.46000 0.18750 0.00000
0.51750 0.18750 0.00000
0.57500 0.18750 0.00000
0.63250 0.18750 0.00000
0.69000 0.18750 0.00000
0.74750 0.18750 0.00000
0.80500 0.18750 0.00000
0.86250 0.18750 0.00000
0.92000 0.18750 0.00000
0.00000 0.25000 0.00000
0.05750 0.25000 0.00000
0.11500 0.25000 0.00000
0.17250 0.25000 0.00000
0.23000 0.25000 0.00000
0.28750 0.25000 0.00000
0.34500 0.25000 0.00000
0.40250 0.25000 0.00000
0.46000 0.25000 0.00000
0.51750 0.25000 0.00000
0.57500 0.25000 0.00000
0.63250 0.25000 0.00000
0.69000 0.25000 0.00000
0.74750 0.25000 0.00000
0.80500 0.25000 0.00000
0.86250 0.25000 0.00000
0.92000 0.25000 0.00000
0.00000 0.31250 0.00000
0.05750 0.31250 0.00000
0.11500 0.31250 0.00000
0.17250 0.31250 0.00000
0.23000 0.31250 0.00000
0.28750 0.31250 0.00000
0.34500 0.31250 0.00000
0.40250 0.31250 0.00000
0.46000 0.31250 0.00000
0.51750 0.31250 0.00000
0.57500 0.31250 0.00000
0.63250 0.31250 0.00000
0.69000 0.31250 0.00000
0.74750 0.31250 0.00000
0.80500 0.31250 0.00000
0.86250 0.31250 0.00000
0.92000 0.31250 0.00000
0.00000 0.37500 0.00000
0.05750 0.37500 0.00000
0.11500 0.37500 0.00000
0.17250 0.37500 0.00000
0.23000 0.37500 0.00000
0.28750 0.37500 0.00000
0.34500 0.37500 0.00000
0.40250 0.37500 0.00000
0.46000 0.37500 0.00000
0.51750 0.37500 0.00000
0.57500 0.37500 0.00000
0.63250 0.37500 0.00000
0.69000 0.37500 0.00000
0.74750 0.37500 0.00000
0.80500 0.37500 0.00000
0.86250 0.37500 0.00000
0.92000 0.37500 0.00000
0.00000 0.43750 0.00000
0.05750 0.43750 0.00000
0.11500 0.43750 0.00000
0.17250 0.43750 0.00000
0.23000 0.43750 0.00000
0.28750 0.43750 0.00000
0.34500 0.43750 0.00000
0.40250 0.43750 0.00000
0.46000 0.43750 0.00000
0.51750 0.43750 0.00000
0.57500 0.43750 0.00000
0.63250 0.43750 0.00000
0.69000 0.43750 0.00000
0.74750 0.43750 0.00000
0.80500 0.43750 0.00000
0.86250 0.43750 0.00000
0.92000 0.43750 0.00000
0.00000 0.50000 0.00000
0.05750 0.50000 0.00000
0.11500 0.50000 0.00000
0.17250 0.50000 0.00000
0.23000 0.50000 0.00000
0.28750 0.50000 0.00000
0.34500 0.50000 0.00000
0.40250 0.50000 0.00000
0.46000 0.50000 0.00000
0.51750 0.50000 0.00000
0.57500 0.50000 0.00000
0.63250 0.50000 0.00000
0.69000 0.50000 0.00000
0.74750 0.50000 0.00000
0.80500 0.50000 0.00000
0.86250 0.50000 0.00000
0.92000 0.50000 0.00000
0.00000 0.56250 0.00000
0.05750 0.56250 0.00000
0.11500 0.56250 0.00000
0.17250 0.56250 0.00000
0.23000 0.56250 0.00000
0.28750 0.56250 0.00000
0.34500 0.56250 0.00000
0.40250 0.56250 0.00000
0.46000 0.56250 0.00000
0.51750 0.56250 0.00000
0.57500 0.56250 0.00000
0.63250 0.56250 0.00000
0.69000 0.56250 0.00000
0.74750 0.56250 0.00000
0.80500 0.56250 0.00000
0.86250 0.56250 0.00000
0.92000 0.56250 0.00000
0.00000 0.62500 0.00000
0.05750 0.62500 0.00000
0.11500 0.62500 0.00000
0.17250 0.62500 0.00000
0.23000 0.62500 0.00000
0.28750 0.62500 0.00000
0.34500 0.62500 0.00000
0.40250 0.62500 0.00000
0.46000 0.62500 0.00000
0.51750 0.62500 0.00000
0.57500 0.62500 0.00000
0.63250 0.62500 0.00000
0.69000 0.62500 0.00000
0.74750 0.62500 0.00000
0.80500 0.62500 0.00000
0.86250 0.62500 0.00000
0.92000 0.62500 0.00000
0.00000 0.68750 0.00000
0.05750 0.68750 0.00000
0.11500 0.68750 0.00000
0.17250 0.68750 0.00000
0.23000 0.68750 0.00000
0.28750 0.68750 0.00000
0.34500 0.68750 0.00000
0.40250 0.68750 0.00000
0.46000 0.68750 0.00000
0.51750 0.68750 0.00000
0.57500 0.68750 0.00000
0.63250 0.68750 0.00000
0.69000 0.68750 0.00000
0.74750 0.68750 0.00000
0.80500 0.68750 0.00000
0.86250 0.68750 0.00000
0.92000 0.68750 0.00000
0.00000 0.75000 0.00000
0.05750 0.75000 0.00000
0.11500 0.75000 0.00000
0.17250 0.75000 0.00000
0.23000 0.75000 0.00000
0.28750 0.75000 0.00000
0.34500 0.75000 0.00000
0.40250 0.75000 0.00000
0.46000 0.75000 0.00000
0.51750 0.75000 0.00000
0.57500 0.75000 0.00000
0.63250 0.75000 0.00000
0.69000 0.75000 0.00000
0.74750 0.75000 0.00000
0.80500 0.75000 0.00000
0.86250 0.75000 0.00000
0.92000 0.75000 0.00000
0.00000 0.81250 0.00000
0.05750 0.81250 0.00000
0.11500 0.81250 0.00000
0.17250 0.81250 0.00000
0.23000 0.81250 0.00000
0.28750 0.81250 0.00000
0.34500 0.81250 0.00000
0.40250 0.81250 0.00000
0.46000 0.81250 0.00000
0.51750 0.81250 0.00000
0.57500 0.81250 0.00000
0.63250 0.81250 0.00000
0.69000 0.81250 0.00000
0.74750 0.81250 0.00000
0.80500 0.81250 0.00000
0.86250 0.81250 0.00000
0.92000 0.81250 0.00000
0.00000 0.87500 0.00000
0.05750 0.87500 0.00000
0.11500 0.87500 0.00000
0.17250 0.87500 0.00000
0.23000 0.87500 0.00000
0.28750 0.87500 0.00000
0.34500 0.87500 0.00000
0.40250 0.87500 0.00000
0.46000 0.87500 0.00000
0.51750 0.87500 0.00000
0.57500 0.87500 0.00000
0.63250 0.87500 0.00000
0.69000 0.87500 0.00000
0.74750 0.87500 0.00000
0.80500 0.87500 0.00000
0.86250 0.87500 0.00000
0.92000 0.87500 0.00000
0.00000 0.93750 0.00000
0.05750 0.93750 0.00000
0.11500 0.93750 0.00000
0.17250 0.93750 0.00000
0.23000 0.93750 0.00000
0.28750 0.93750 0.00000
0.34500 0.93750 0.00000
0.40250 0.93750 0.00000
0.46000 0.93750 0.00000
0.51750 0.93750 0.00000
0.57500 0.93750 0.00000
0.63250 0.93750 0.00000
0.69000 0.93750 0.00000
0.74750 0.93750 0.00000
0.80500 0.93750 0.00000
0.86250 0.93750 0.00000
0.92000 0.93750 0.00000
0.00000 1.00000 0.00000
0.05750 1.00000 0.00000
0.11500 1.00000 0.00000
0.17250 1.00000 0.00000
0.23000 1.00000 0.00000
0.28750 1.00000 0.00000
0.34500 1.00000 0.00000
0.40250 1.00000 0.00000
0.46000 1.00000 0.00000
0.51750 1.00000 0.00000
0.57500 1.00000 0.00000
0.63250 1.00000 0.00000
0.69000 1.00000 0.00000
0.74750 1.00000 0.00000
0.80500 1.00000 0.00000
0.86250 1.00000 0.00000
0.92000 1.00000 0.00000
0.00000 0.00000 0.06875
0.05750 0.00000 0.06875
0.11500 0.00000 0.06875
0.17250 0.00000 0.06875
0.23000 0.00000 0.06875
0.28750 0.00000 0.06875
0.34500 0.00000 0.06875
0.40250 0.00000 0.06875
0.46000 0.00000 0.06875
0.51750 0.00000 0.06875
0.57500 0.00000 0.06875
0.63250 0.00000 0.06875
0.69000 0.00000 0.06875
0.74750 0.00000 0.06875
0.80500 0.00000 0.06875
0.86250 0.00000 0.06875
0.92000 0.00000 0.06875
0.00000 0.06250 0.06875
0.05750 0.06250 0.06875
0.11500 0.06250 0.06875
0.17250 0.06250 0.06875
0.23000 0.06250 0.06875
0.28750 0.06250 0.06875
0.34500 0.06250 0.06875
0.40250 0.06250 0.06875
0.46000 0.06250 0.06875
0.51750 0.06250 0.06875
0.57500 0.06250 0.06875
0.63250 0.06250 0.06875
0.69000 0.06250 0.06875
0.74750 0.06250 0.06875
0.80500 0.06250 0.06875
0.86250 0.06250 0.06875
0.92000 0.06250 0.06875
0.00000 0.12500 0.06875
0.05750 0.12500 0.06875
0.11500 0.12500 0.06875
0.17250 0.12500 0.06875
0.23000 0.12500 0.06875
0.28750 0.12500 0.06875
0.34500 0.12500 0.06875
0.40250 0.12500 0.06875
0.46000 0.12500 0.06875
0.51750 0.12500 0.06875
0.57500 0.12500 0.06875
0.63250 0.12500 0.06875
0.69000 0.12500 0.06875
0.74750 0.12500 0.06875
0.80500 0.12500 0.06875
0.86250 0.12500 0.06875
0.92000 0.12500 0.06875
0.00000 0.18750 0.06875
0.05750 0.18750 0.06875
0.11500 0.18750 0.06875
0.17250 0.18750 0.06875
0.23000 0.18750 0.06875
0.28750 0.18750 0.06875
0.34500 0.18750 0.06875
0.40250 0.18750 0.06875
0.46000 0.18750 0.06875
0.51750 0.18750 0.06875
0.57500 0.18750 0.06875
0.63250 0.18750 0.06875
0.69000 0.18750 0.06875
0.74750 0.18750 0.06875
0.80500 0.18750 0.06875
0.86250 0.18750 0.06875
0.92000 0.18750 0.06875
0.00000 0.25000 0.06875
0.05750 0.25000 0.06875
0.11500 0.25000 0.06875
0.17250 0.25000 0.06875
0.23000 0.25000 0.06875
0.28750 0.25000 0.06875
0.34500 0.25000 0.06875
0.40250 0.25000 0.06875
0.46000 0.25000 0.06875
0.51750 0.25000 0.06875
0.57500 0.25000 0.06875
0.63250 0.25000 0.06875
0.69000 0.25000 0.06875
0.74750 0.25000 0.06875
0.80500 0.25000 0.06875
0.86250 0.25000 0.06875
0.92000 0.25000 0.06875
0.00000 0.31250 0.06875
0.05750 0.31250 0.06875
0.11500 0.31250 0.06875
0.17250 0.31250 0.06875
0.23000 0.31250 0.06875
0.28750 0.31250 0.06875
0.34500 0.31250 0.06875
0.40250 0.31250 0.06875
0.46000 0.31250 0.06875
0.51750 0.31250 0.06875
0.57500 0.31250 0.06875
0.63250 0.31250 0.06875
0.69000 0.31250 0.06875
0.74750 0.31250 0.06875
0.80500 0.31250 0.06875
0.86250 0.31250 0.06875
0.92000 0.31250 0.06875
0.00000 0.37500 0.06875
0.05750 0.37500 0.06875
0.11500 0.37500 0.06875
0.17250 0.37500 0.06875
0.23000 0.37500 0.06875
0.28750 0.37500 0.06875
0.34500 0.37500 0.06875
0.40250 0.37500 0.06875
0.46000 0.37500 0.06875
0.51750 0.37500 0.06875
0.57500 0.37500 0.06875
0.63250 0.37500 0.06875
0.69000 0.37500 0.06875
0.74750 0.37500 0.06875
0.80500 0.37500 0.06875
0.86250 0.37500 0.06875
0.92000 0.37500 0.06875
0.00000 0.43750 0.06875
0.05750 0.43750 0.06875
0.11500 0.43750 0.06875
0.17250 0.43750 0.06875
0.23000 0.43750 0.06875
0.28750 0.43750 0.06875
0.34500 0.43750 0.06875
0.40250 0.43750 0.06875
0.46000 0.43750 0.06875
0.51750 0.43750 0.06875
0.57500 0.43750 0.06875
0.63250 0.43750 0.06875
0.69000 0.43750 0.06875
0.74750 0.43750 0.06875
0.80500 0.43750 0.06875
0.86250 0.43750 0.06875
0.92000 0.43750 0.06875
0.00000 0.50000 0.06875
0.05750 0.50000 0.06875
0.11500 0.50000 0.06875
0.17250 0.50000 0.06875
0.23000 0.50000 0.06875
0.28750 0.50000 0.06875
0.34500 0.50000 0.06875
0.40250 0.50000 0.06875
0.46000 0.50000 0.06875
0.51750 0.50000 0.06875
0.57500 0.50000 0.06875
0.63250 0.50000 0.06875
0.69000 0.50000 0.06875
0.74750 0.50000 0.06875
0.80500 0.50000 0.06875
0.86250 0.50000 0.06875
0.92000 0.50000 0.06875
0.00000 0.56250 0.06875
0.05750 0.56250 0.06875
0.11500 0.56250 0.06875
0.17250 0.56250 0.06875
0.23000 0.56250 0.06875
0.28750 0.56250 0.06875
0.34500 0.56250 0.06875
0.40250 0.56250 0.06875
0.46000 0.56250 0.06875
0.51750 0.56250 0.06875
0.57500 0.56250 0.06875
0.63250 0.56250 0.06875
0.69000 0.56250 0.06875
0.74750 0.56250 0.06875
0.80500 0.56250 0.06875
0.86250 0.56250 0.06875
0.92000 0.56250 0.06875
0.00000 0.62500 0.06875
0.05750 0.62500 0.06875
0.11500 0.62500 0.06875
0.17250 0.62500 0.06875
0.23000 0.62500 0.06875
0.28750 0.62500 0.06875
0.34500 0.62500 0.06875
0.40250 0.62500 0.06875
0.46000 0.62500 0.06875
0.51750 0.62500 0.06875
0.57500 0.62500 0.06875
0.63250 0.62500 0.06875
0.69000 0.62500 0.06875
0.74750 0.62500 0.06875
0.80500 0.62500 0.06875
0.86250 0.62500 0.06875
0.92000 0.62500 0.06875
0.00000 0.68750 0.06875
0.05750 0.68750 0.06875
0.11500 0.68750 0.06875
0.17250 0.68750 0.06875
0.23000 0.68750 0.06875
0.28750 0.68750 0.06875
0.34500 0.68750 0.06875
0.40250 0.68750 0.06875
0.46000 0.68750 0.06875
0.51750 0.68750 0.06875
0.57500 0.68750 0.06875
0.63250 0.68750 0.06875
0.69000 0.68750 0.06875
0.74750 0.68750 0.06875
0.80500 0.68750 0.06875
0.86250 0.68750 0.06875
0.92000 0.68750 0.06875
0.00000 0.75000 0.06875
0.05750 0.75000 0.06875
0.11500 0.75000 0.06875
0.17250 0.75000 0.06875
0.23000 0.75000 0.06875
0.28750 0.75000 0.06875
0.34500 0.75000 0.06875
0.40250 0.75000 0.06875
0.46000 0.75000 0.06875
0.51750 0.75000 0.06875
0.57500 0.75000 0.06875
0.63250 0.75000 0.06875
0.69000 0.75000 0.06875
0.74750 0.75000 0.06875
0.80500 0.75000 0.06875
0.86250 0.75000 0.06875
0.92000 0.75000 0.06875
0.00000 0.81250 0.06875
0.05750 0.81250 0.06875
0.11500 0.81250 0.06875
0.17250 0.81250 0.06875
0.23000 0.81250 0.06875
0.28750 0.81250 0.06875
0.34500 0.81250 0.06875
0.40250 0.81250 0.06875
0.46000 0.81250 0.06875
0.51750 0.81250 0.06875
0.57500 0.81250 0.06875
0.63250 0.81250 0.06875
0.69000 0.81250 0.06875
0.74750 0.81250 0.06875
0.80500 0.81250 0.06875
0.86250 0.81250 0.06875
0.92000 0.81250 0.06875
0.00000 0.87500 0.06875
0.05750 0.87500 0.06875
0.11500 0.87500 0.06875
0.17250 0.87500 0.06875
0.23000 0.87500 0.06875
0.28750 0.87500 0.06875
0.34500 0.87500 0.06875
0.40250 0.87500 0.06875
0.46000 0.87500 0.06875
0.51750 0.87500 0.06875
0.57500 0.87500 0.06875
0.63250 0.87500 0.06875
0.69000 0.87500 0.06875
0.74750 0.87500 0.06875
0.80500 0.87500 0.06875
0.86250 0.87500 0.06875
0.92000 0.87500 0.06875
0.00000 0.93750 0.06875
0.05750 0.93750 0.06875
0.11500 0.93750 0.06875
0.17250 0.93750 0.06875
0.23000 0.93750 0.06875
0.28750 0.93750 0.06875
0.34500 0.93750 0.06875
0.40250 0.93750 0.06875
0.46000 0.93750 0.06875
0.51750 0.93750 0.06875
0.57500 0.93750 0.06875
0.63250 0.93750 0.06875
0.69000 0.93750 0.06875
0.74750 0.93750 0.06875
0.80500 0.93750 0.06875
0.86250 0.93750 0.06875
0.92000 0.93750 0.06875
0.00000 1.00000 0.06875
0.05750 1.00000 0.06875
0.11500 1.00000 0.06875
0.17250 1.00000 0.06875
0.23000 1.00000 0.06875
0.28750 1.00000 0.06875
0.34500 1.00000 0.06875
0.40250 1.00000 0.06875
0.46000 1.00000 0.06875
0.51750 1.00000 0.06875
0.57500 1.00000 0.06875
0.63250 1.00000 0.06875
0.69000 1.00000 0.06875
0.74750 1.00000 0.06875
0.80500 1.00000 0.06875
0.86250 1.00000 0.06875
0.92000 1.00000 0.06875
0.00000 0.00000 0.13750
0.05750 0.00000 0.13750
0.11500 0.00000 0.13750
0.17250 0.00000 0.13750
0.23000 0.00000 0.13750
0.28750 0.00000 0.13750
0.34500 0.00000 0.13750
0.40250 0.00000 0.13750
0.46000 0.00000 0.13750
0.51750 0.00000 0.13750
0.57500 0.00000 0.13750
0.63250 0.00000 0.13750
0.69000 0.00000 0.13750
0.74750 0.00000 0.13750
0.80500 0.00000 0.13750
0.86250 0.00000 0.13750
0.92000 0.00000 0.13750
0.00000 0.06250 0.13750
0.05750 0.06250 0.13750
0.11500 0.06250 0.13750
0.17250 0.06250 0.13750
0.23000 0.06250 0.13750
0.28750 0.06250 0.13750
0.34500 0.06250 0.13750
0.40250 0.06250 0.13750
0.46000 0.06250 0.13750
0.51750 0.06250 0.13750
0.57500 0.06250 0.13750
0.63250 0.06250 0.13750
0.69000 0.06250 0.13750
0.74750 0.06250 0.13750
0.80500 0.06250 0.13750
0.86250 0.06250 0.13750
0.92000 0.06250 0.13750
0.00000 0.12500 0.13750
0.05750 0.12500 0.13750
0.11500 0.12500 0.13750
0.17250 0.12500 0.13750
0.23000 0.12500 0.13750
0.28750 0.12500 0.13750
0.34500 0.12500 0.13750
0.40250 0.12500 0.13750
0.46000 0.12500 0.13750
0.51750 0.12500 0.13750
0.57500 0.12500 0.13750
0.63250 0.12500 0.13750
0.69000 0.12500 0.13750
0.74750 0.12500 0.13750
0.80500 0.12500 0.13750
0.86250 0.12500 0.13750
0.92000 0.12500 0.13750
0.00000 0.18750 0.13750
0.05750 0.18750 0.13750
0.11500 0.18750 0.13750
0.17250 0.18750 0.13750
0.23000 0.18750 0.13750
0.28750 0.18750 0.13750
0.34500 0.18750 0.13750
0.40250 0.18750 0.13750
0.46000 0.18750 0.13750
0.51750 0.18750 0.13750
0.57500 0.18750 0.13750
0.63250 0.18750 0.13750
0.69000 0.18750 0.13750
0.74750 0.18750 0.13750
0.80500 0.18750 0.13750
0.86250 0.18750 0.13750
0.92000 0.18750 0.13750
0.00000 0.25000 0.13750
0.05750 0.25000 0.13750
0.11500 0.25000 0.13750
0.17250 0.25000 0.13750
0.23000 0.25000 0.13750
0.28750 0.25000 0.13750
0.34500 0.25000 0.13750
0.40250 0.25000 0.13750
0.46000 0.25000 0.13750
0.51750 0.25000 0.13750
0.57500 0.25000 0.13750
0.63250 0.25000 0.13750
0.69000 0.25000 0.13750
0.74750 0.25000 0.13750
0.80500 0.25000 0.13750
0.86250 0.25000 0.13750
0.92000 0.25000 0.13750
0.00000 0.31250 0.13750
0.05750 0.31250 0.13750
0.11500 0.31250 0.13750
0.17250 0.31250 0.13750
0.23000 0.31250 0.13750
0.28750 0.31250 0.13750
0.34500 0.31250 0.13750
0.40250 0.31250 0.13750
0.46000 0.31250 0.13750
0.51750 0.31250 0.13750
0.57500 0.31250 0.13750
0.63250 0.31250 0.13750
0.69000 0.31250 0.13750
0.74750 0.31250 0.13750
0.80500 0.31250 0.13750
0.86250 0.31250 0.13750
0.92000 0.31250 0.13750
0.00000 0.37500 0.13750
0.05750 0.37500 0.13750
0.11500 0.37500 0.13750
0.17250 0.37500 0.13750
0.23000 0.37500 0.13750
0.28750 0.37500 0.13750
0.34500 0.37500 0.13750
0.40250 0.37500 0.13750
0.46000 0.37500 0.13750
0.51750 0.37500 0.13750
0.57500 0.37500 0.13750
0.63250 0.37500 0.13750
0.69000 0.37500 0.13750
0.74750 0.37500 0.13750
0.80500 0.37500 0.13750
0.86250 0.37500 0.13750
0.92000 0.37500 0.13750
0.00000 0.43750 0.13750
0.05750 0.43750 0.13750
0.11500 0.43750 0.13750
0.17250 0.43750 0.13750
0.23000 0.43750 0.13750
0.28750 0.43750 0.13750
0.34500 0.43750 0.13750
0.40250 0.43750 0.13750
0.46000 0.43750 0.13750
0.51750 0.43750 0.13750
0.57500 0.43750 0.13750
0.63250 0.43750 0.13750
0.69000 0.43750 0.13750
0.74750 0.43750 0.13750
0.80500 0.43750 0.13750
0.86250 0.43750 0.13750
0.92000 0.43750 0.13750
0.00000 0.50000 0.13750
0.05750 0.50000 0.13750
0.11500 0.50000 0.13750
0.17250 0.50000 0.13750
0.23000 0.50000 0.13750
0.28750 0.50000 0.13750
0.34500 0.50000 0.13750
0.40250 0.50000 0.13750
0.46000 0.50000 0.13750
0.51750 0.50000 0.13750
0.57500 0.50000 0.13750
0.63250 0.50000 0.13750
0.69000 0.50000 0.13750
0.74750 0.50000 0.13750
0.80500 0.50000 0.13750
0.86250 0.50000 0.13750
0.92000 0.50000 0.13750
0.00000 0.56250 0.13750
0.05750 0.56250 0.13750
0.11500 0.56250 0.13750
0.17250 0.56250 0.13750
0.23000 0.56250 0.13750
0.28750 0.56250 0.13750
0.34500 0.56250 0.13750
0.40250 0.56250 0.13750
0.46000 0.56250 0.13750
0.51750 0.56250 0.13750
0.57500 0.56250 0.13750
0.63250 0.56250 0.13750
0.69000 0.56250 0.13750
0.74750 0.56250 0.13750
0.80500 0.56250 0.13750
0.86250 0.56250 0.13750
0.92000 0.56250 0.13750
0.00000 0.62500 0.13750
0.05750 0.62500 0.13750
0.11500 0.62500 0.13750
0.17250 0.62500 0.13750
0.23000 0.62500 0.13750
0.28750 0.62500 0.13750
0.34500 0.62500 0.13750
0.40250 0.62500 0.13750
0.46000 0.62500 0.13750
0.51750 0.62500 0.13750
0.57500 0.62500 0.13750
0.63250 0.62500 0.13750
0.69000 0.62500 0.13750
0.74750 0.62500 0.13750
0.80500 0.62500 0.13750
0.86250 0.62500 0.13750
0.92000 0.62500 0.13750
0.00000 0.68750 0.13750
0.05750 0.68750 0.13750
0.11500 0.68750 0.13750
0.17250 0.68750 0.13750
0.23000 0.68750 0.13750
0.28750 0.68750 0.13750
0.34500 0.68750 0.13750
0.40250 0.68750 0.13750
0.46000 0.68750 0.13750
0.51750 0.68750 0.13750
0.57500 0.68750 0.13750
0.63250 0.68750 0.13750
0.69000 0.68750 0.13750
0.74750 0.68750 0.13750
0.80500 0.68750 0.13750
0.86250 0.68750 0.13750
0.92000 0.68750 0.13750
0.00000 0.75000 0.13750
0.05750 0.75000 0.13750
0.11500 0.75000 0.13750
0.17250 0.75000 0.13750
0.23000 0.75000 0.13750
0.28750 0.75000 0.13750
0.34500 0.75000 0.13750
0.40250 0.75000 0.13750
0.46000 0.75000 0.13750
0.51750 0.75000 0.13750
0.57500 0.75000 0.13750
0.63250 0.75000 0.13750
0.69000 0.75000 0.13750
0.74750 0.75000 0.13750
0.80500 0.75000 0.13750
0.86250 0.75000 0.13750
0.92000 0.75000 0.13750
0.00000 0.81250 0.13750
0.05750 0.81250 0.13750
0.11500 0.81250 0.13750
0.17250 0.81250 0.13750
0.23000 0.81250 0.13750
0.28750 0.81250 0.13750
0.34500 0.81250 0.13750
0.40250 0.81250 0.13750
0.46000 0.81250 0.13750
0.51750 0.81250 0.13750
0.57500 0.81250 0.13750
0.63250 0.81250 0.13750
0.69000 0.81250 0.13750
0.74750 0.81250 0.13750
0.80500 0.81250 0.13750
0.86250 0.81250 0.13750
0.92000 0.81250 0.13750
0.00000 0.87500 0.13750
0.05750 0.87500 0.13750
0.11500 0.87500 0.13750
0.17250 0.87500 0.13750
0.23000 0.87500 0.13750
0.28750 0.87500 0.13750
0.34500 0.87500 0.13750
0.40250 0.87500 0.13750
0.46000 0.87500 0.13750
0.51750 0.87500 0.13750
0.57500 0.87500 0.13750
0.63250 0.87500 0.13750
0.69000 0.87500 0.13750
0.74750 0.87500 0.13750
0.80500 0.87500 0.13750
0.86250 0.87500 0.13750
0.92000 0.87500 0.13750
0.00000 0.93750 0.13750
0.05750 0.93750 0.13750
0.11500 0.93750 0.13750
0.17250 0.93750 0.13750
0.23000 0.93750 0.13750
0.28750 0.93750 0.13750
0.34500 0.93750 0.13750
0.40250 0.93750 0.13750
0.46000 0.93750 0.13750
0.51750 0.93750 0.13750
0.57500 0.93750 0.13750
0.63250 0.93750 0.13750
0.69000 0.93750 0.13750
0.74750 0.93750 0.13750
0.80500 0.93750 0.13750
0.86250 0.93750 0.13750
0.92000 0.93750 0.13750
0.00000 1.00000 0.13750
0.05750 1.00000 0.13750
0.11500 1.00000 0.13750
0.17250 1.00000 0.13750
0.23000 1.00000 0.13750
0.28750 1.00000 0.13750
0.34500 1.00000 0.13750
0.40250 1.00000 0.13750
0.46000 1.00000 0.13750
0.51750 1.00000 0.13750
0.57500 1.00000 0.13750
0.63250 1.00000 0.13750
0.69000 1.00000 0.13750
0.74750 1.00000 0.13750
0.80500 1.00000 0.13750
0.86250 1.00000 0.13750
0.92000 1.00000 0.13750
0.00000 0.00000 0.20625
0.05750 0.00000 0.20625
0.11500 0.00000 0.20625
0.17250 0.00000 0.20625
0.23000 0.00000 0.20625
0.28750 0.00000 0.20625
0.34500 0.00000 0.20625
0.40250 0.00000 0.20625
0.46000 0.00000 0.20625
0.51750 0.00000 0.20625
0.57500 0.00000 0.20625
0.63250 0.00000 0.20625
0.69000 0.00000 0.20625
0.74750 0.00000 0.20625
0.80500 0.00000 0.20625
0.86250 0.00000 0.20625
0.92000 0.00000 0.20625
0.00000 0.06250 0.20625
0.05750 0.06250 0.20625
0.11500 0.06250 0.20625
0.17250 0.06250 0.20625
0.23000 0.06250 0.20625
0.28750 0.06250 0.20625
0.34500 0.06250 0.20625
0.40250 0.06250 0.20625
0.46000 0.06250 0.20625
0.51750 0.06250 0.20625
0.57500 0.06250 0.20625
0.63250 0.06250 0.20625
0.69000 0.06250 0.20625
0.74750 0.06250 0.20625
0.80500 0.06250 0.20625
0.86250 0.06250 0.20625
