assets/luts/vivid.cube
TITLE "ReelForge vivid saturation"
LUT_3D_SIZE 5
0.00000 0.00000 0.00000
0.28000 0.00000 0.00000
0.56000 0.00000 0.00000
0.84000 0.00000 0.00000
1.00000 0.00000 0.00000
0.00000 0.28000 0.00000
0.26500 0.26500 0.00000
0.54500 0.25000 0.00000
0.82500 0.23500 0.00000
1.00000 0.22000 0.00000
0.00000 0.56000 0.00000
0.25000 0.54500 0.00000
0.53000 0.53000 0.00000
0.81000 0.51500 0.00000
1.00000 0.50000 0.00000
0.00000 0.84000 0.00000
0.23500 0.82500 0.00000
0.51500 0.81000 0.00000
0.79500 0.79500 0.00000
1.00000 0.78000 0.00000
0.00000 1.00000 0.00000
0.22000 1.00000 0.00000
0.50000 1.00000 0.00000
0.78000 1.00000 0.00000
1.00000 1.00000 0.00000
0.00000 0.00000 0.28000
0.26500 0.00000 0.26500
0.54500 0.00000 0.25000
0.82500 0.00000 0.23500
1.00000 0.00000 0.22000
0.00000 0.26500 0.26500
0.25000 0.25000 0.25000
0.53000 0.23500 0.23500
0.81000 0.22000 0.22000
1.00000 0.20500 0.20500
0.00000 0.54500 0.25000
0.23500 0.53000 0.23500
0.51500 0.51500 0.22000
0.79500 0.50000 0.20500
1.00000 0.48500 0.19000
0.00000 0.82500 0.23500
0.22000 0.81000 0.22000
0.50000 0.79500 0.20500
0.78000 0.78000 0.19000
1.00000 0.76500 0.17500
0.00000 1.00000 0.22000
0.20500 1.00000 0.20500
0.48500 1.00000 0.19000
0.76500 1.00000 0.17500
1.00000 1.00000 0.16000
0.00000 0.00000 0.56000
0.25000 0.00000 0.54500
0.53000 0.00000 0.53000
0.81000 0.00000 0.51500
1.00000 0.00000 0.50000
0.00000 0.25000 0.54500
0.23500 0.23500 0.53000
0.51500 0.22000 0.51500
0.79500 0.20500 0.50000
1.00000 0.19000 0.48500
0.00000 0.53000 0.53000
0.22000 0.51500 0.51500
0.50000 0.50000 0.50000
0.78000 0.48500 0.48500
1.00000 0.47000 0.47000
0.00000 0.81000 0.51500
0.20500 0.79500 0.50000
0.48500 0.78000 0.48500
0.76500 0.76500 0.47000
1.00000 0.75000 0.45500
0.00000 1.00000 0.50000
0.19000 1.00000 0.48500
0.47000 1.00000 0.47000
0.75000 1.00000 0.45500
1.00000 1.00000 0.44000
0.00000 0.00000 0.84000
0.23500 0.00000 0.82500
0.51500 0.00000 0.81000
0.79500 0.00000 0.79500
1.00000 0.00000 0.78000
0.00000 0.23500 0.82500
0.22000 0.22000 0.81000
0.50000 0.20500 0.79500
0.78000 0.19000 0.78000
1.00000 0.17500 0.76500
0.00000 0.51500 0.81000
0.20500 0.50000 0.79500
0.48500 0.48500 0.78000
0.76500 0.47000 0.76500
1.00000 0.45500 0.75000
0.00000 0.79500 0.79500
0.19000 0.78000 0.78000
0.47000 0.76500 0.76500
0.75000 0.75000 0.75000
1.00000 0.73500 0.73500
0.00000 1.00000 0.78000
0.17500 1.00000 0.76500
0.45500 1.00000 0.75000
0.73500 1.00000 0.73500
1.00000 1.00000 0.72000
0.00000 0.00000 1.00000
0.22000 0.00000 1.00000
0.50000 0.00000 1.00000
0.78000 0.00000 1.00000
1.00000 0.00000 1.00000
0.00000 0.22000 1.00000
0.20500 0.20500 1.00000
0.48500 0.19000 1.00000
0.76500 0.17500 1.00000
1.00000 0.16000 1.00000
0.00000 0.50000 1.00000
0.19000 0.48500 1.00000
0.47000 0.47000 1.00000
0.75000 0.45500 1.00000
1.00000 0.44000 1.00000
0.00000 0.78000 1.00000
0.17500 0.76500 1.00000
0.45500 0.75000 1.00000
0.73500 0.73500 1.00000
1.00000 0.72000 1.00000
0.00000 1.00000 1.00000
0.16000 1.00000 1.00000
0.44000 1.00000 1.00000
0.72000 1.00000 1.00000
1.00000 1.00000 1.00000
