assets/luts/vivid.cube
TITLE "ReelForge vivid saturation"
LUT_3D_SIZE 9
0.00000 0.00000 0.00000
0.14000 0.00000 0.00000
0.28000 0.00000 0.00000
0.42000 0.00000 0.00000
0.56000 0.00000 0.00000
0.70000 0.00000 0.00000
0.84000 0.00000 0.00000
0.98000 0.00000 0.00000
1.00000 0.00000 0.00000
0.00000 0.14000 0.00000
0.13250 0.13250 0.00000
0.27250 0.12500 0.00000
0.41250 0.11750 0.00000
0.55250 0.11000 0.00000
0.69250 0.10250 0.00000
0.83250 0.09500 0.00000
0.97250 0.08750 0.00000
1.00000 0.08000 0.00000
0.00000 0.28000 0.00000
0.12500 0.27250 0.00000
0.26500 0.26500 0.00000
0.40500 0.25750 0.00000
0.54500 0.25000 0.00000
0.68500 0.24250 0.00000
0.82500 0.23500 0.00000
0.96500 0.22750 0.00000
1.00000 0.22000 0.00000
0.00000 0.42000 0.00000
0.11750 0.41250 0.00000
0.25750 0.40500 0.00000
0.39750 0.39750 0.00000
0.53750 0.39000 0.00000
0.67750 0.38250 0.00000
0.81750 0.37500 0.00000
0.95750 0.36750 0.00000
1.00000 0.36000 0.00000
0.00000 0.56000 0.00000
0.11000 0.55250 0.00000
0.25000 0.54500 0.00000
0.39000 0.53750 0.00000
0.53000 0.53000 0.00000
0.67000 0.52250 0.00000
0.81000 0.51500 0.00000
0.95000 0.50750 0.00000
1.00000 0.50000 0.00000
0.00000 0.70000 0.00000
0.10250 0.69250 0.00000
0.24250 0.68500 0.00000
0.38250 0.67750 0.00000
0.52250 0.67000 0.00000
0.66250 0.66250 0.00000
0.80250 0.65500 0.00000
0.94250 0.64750 0.00000
1.00000 0.64000 0.00000
0.00000 0.84000 0.00000
0.09500 0.83250 0.00000
0.23500 0.82500 0.00000
0.37500 0.81750 0.00000
0.51500 0.81000 0.00000
0.65500 0.80250 0.00000
0.79500 0.79500 0.00000
0.93500 0.78750 0.00000
1.00000 0.78000 0.00000
0.00000 0.98000 0.00000
0.08750 0.97250 0.00000
0.22750 0.96500 0.00000
0.36750 0.95750 0.00000
0.50750 0.95000 0.00000
0.64750 0.94250 0.00000
0.78750 0.93500 0.00000
0.92750 0.92750 0.00000
1.00000 0.92000 0.00000
0.00000 1.00000 0.00000
0.08000 1.00000 0.00000
0.22000 1.00000 0.00000
0.36000 1.00000 0.00000
0.50000 1.00000 0.00000
0.64000 1.00000 0.00000
0.78000 1.00000 0.00000
0.92000 1.00000 0.00000
1.00000 1.00000 0.00000
0.00000 0.00000 0.14000
0.13250 0.00000 0.13250
0.27250 0.00000 0.12500
0.41250 0.00000 0.11750
0.55250 0.00000 0.11000
0.69250 0.00000 0.10250
0.83250 0.00000 0.09500
0.97250 0.00000 0.08750
1.00000 0.00000 0.08000
0.00000 0.13250 0.13250
0.12500 0.12500 0.12500
0.26500 0.11750 0.11750
0.40500 0.11000 0.11000
0.54500 0.10250 0.10250
0.68500 0.09500 0.09500
0.82500 0.08750 0.08750
0.96500 0.08000 0.08000
1.00000 0.07250 0.07250
0.00000 0.27250 0.12500
0.11750 0.26500 0.11750
0.25750 0.25750 0.11000
0.39750 0.25000 0.10250
0.53750 0.24250 0.09500
0.67750 0.23500 0.08750
0.81750 0.22750 0.08000
0.95750 0.22000 0.07250
1.00000 0.21250 0.06500
0.00000 0.41250 0.11750
0.11000 0.40500 0.11000
0.25000 0.39750 0.10250
0.39000 0.39000 0.09500
0.53000 0.38250 0.08750
0.67000 0.37500 0.08000
0.81000 0.36750 0.07250
0.95000 0.36000 0.06500
1.00000 0.35250 0.05750
0.00000 0.55250 0.11000
0.10250 0.54500 0.10250
0.24250 0.53750 0.09500
0.38250 0.53000 0.08750
0.52250 0.52250 0.08000
0.66250 0.51500 0.07250
0.80250 0.50750 0.06500
0.94250 0.50000 0.05750
1.00000 0.49250 0.05000
0.00000 0.69250 0.10250
0.09500 0.68500 0.09500
0.23500 0.67750 0.08750
0.37500 0.67000 0.08000
0.51500 0.66250 0.07250
0.65500 0.65500 0.06500
0.79500 0.64750 0.05750
0.93500 0.64000 0.05000
1.00000 0.63250 0.04250
0.00000 0.83250 0.09500
0.08750 0.82500 0.08750
0.22750 0.81750 0.08000
0.36750 0.81000 0.07250
0.50750 0.80250 0.06500
0.64750 0.79500 0.05750
0.78750 0.78750 0.05000
0.92750 0.78000 0.04250
1.00000 0.77250 0.03500
0.00000 0.97250 0.08750
0.08000 0.96500 0.08000
0.22000 0.95750 0.07250
0.36000 0.95000 0.06500
0.50000 0.94250 0.05750
0.64000 0.93500 0.05000
0.78000 0.92750 0.04250
0.92000 0.92000 0.03500
1.00000 0.91250 0.02750
0.00000 1.00000 0.08000
0.07250 1.00000 0.07250
0.21250 1.00000 0.06500
0.35250 1.00000 0.05750
0.49250 1.00000 0.05000
0.63250 1.00000 0.04250
0.77250 1.00000 0.03500
0.91250 1.00000 0.02750
1.00000 1.00000 0.02000
0.00000 0.00000 0.28000
0.12500 0.00000 0.27250
0.26500 0.00000 0.26500
0.40500 0.00000 0.25750
0.54500 0.00000 0.25000
0.68500 0.00000 0.24250
0.82500 0.00000 0.23500
0.96500 0.00000 0.22750
1.00000 0.00000 0.22000
0.00000 0.12500 0.27250
0.11750 0.11750 0.26500
0.25750 0.11000 0.25750
0.39750 0.10250 0.25000
0.53750 0.09500 0.24250
0.67750 0.08750 0.23500
0.81750 0.08000 0.22750
0.95750 0.07250 0.22000
1.00000 0.06500 0.21250
0.00000 0.26500 0.26500
0.11000 0.25750 0.25750
0.25000 0.25000 0.25000
0.39000 0.24250 0.24250
0.53000 0.23500 0.23500
0.67000 0.22750 0.22750
0.81000 0.22000 0.22000
0.95000 0.21250 0.21250
1.00000 0.20500 0.20500
0.00000 0.40500 0.25750
0.10250 0.39750 0.25000
0.24250 0.39000 0.24250
0.38250 0.38250 0.23500
0.52250 0.37500 0.22750
0.66250 0.36750 0.22000
0.80250 0.36000 0.21250
0.94250 0.35250 0.20500
1.00000 0.34500 0.19750
0.00000 0.54500 0.25000
0.09500 0.53750 0.24250
0.23500 0.53000 0.23500
0.37500 0.52250 0.22750
0.51500 0.51500 0.22000
0.65500 0.50750 0.21250
0.79500 0.50000 0.20500
0.93500 0.49250 0.19750
1.00000 0.48500 0.19000
0.00000 0.68500 0.24250
0.08750 0.67750 0.23500
0.22750 0.67000 0.22750
0.36750 0.66250 0.22000
0.50750 0.65500 0.21250
0.64750 0.64750 0.20500
0.78750 0.64000 0.19750
0.92750 0.63250 0.19000
1.00000 0.62500 0.18250
0.00000 0.82500 0.23500
0.08000 0.81750 0.22750
0.22000 0.81000 0.22000
0.36000 0.80250 0.21250
0.50000 0.79500 0.20500
0.64000 0.78750 0.19750
0.78000 0.78000 0.19000
0.92000 0.77250 0.18250
1.00000 0.76500 0.17500
0.00000 0.96500 0.22750
0.07250 0.95750 0.22000
0.21250 0.95000 0.21250
0.35250 0.94250 0.20500
0.49250 0.93500 0.19750
0.63250 0.92750 0.19000
0.77250 0.92000 0.18250
0.91250 0.91250 0.17500
1.00000 0.90500 0.16750
0.00000 1.00000 0.22000
0.06500 1.00000 0.21250
0.20500 1.00000 0.20500
0.34500 1.00000 0.19750
0.48500 1.00000 0.19000
0.62500 1.00000 0.18250
0.76500 1.00000 0.17500
0.90500 1.00000 0.16750
1.00000 1.00000 0.16000
0.00000 0.00000 0.42000
0.11750 0.00000 0.41250
0.25750 0.00000 0.40500
0.39750 0.00000 0.39750
0.53750 0.00000 0.39000
0.67750 0.00000 0.38250
0.81750 0.00000 0.37500
0.95750 0.00000 0.36750
1.00000 0.00000 0.36000
0.00000 0.11750 0.41250
0.11000 0.11000 0.40500
0.25000 0.10250 0.39750
0.39000 0.09500 0.39000
0.53000 0.08750 0.38250
0.67000 0.08000 0.37500
0.81000 0.07250 0.36750
0.95000 0.06500 0.36000
1.00000 0.05750 0.35250
0.00000 0.25750 0.40500
0.10250 0.25000 0.39750
0.24250 0.24250 0.39000
0.38250 0.23500 0.38250
0.52250 0.22750 0.37500
0.66250 0.22000 0.36750
0.80250 0.21250 0.36000
0.94250 0.20500 0.35250
1.00000 0.19750 0.34500
0.00000 0.39750 0.39750
0.09500 0.39000 0.39000
0.23500 0.38250 0.38250
0.37500 0.37500 0.37500
0.51500 0.36750 0.36750
0.65500 0.36000 0.36000
0.79500 0.35250 0.35250
0.93500 0.34500 0.34500
1.00000 0.33750 0.33750
0.00000 0.53750 0.39000
0.08750 0.53000 0.38250
0.22750 0.52250 0.37500
0.36750 0.51500 0.36750
0.50750 0.50750 0.36000
0.64750 0.50000 0.35250
0.78750 0.49250 0.34500
0.92750 0.48500 0.33750
1.00000 0.47750 0.33000
0.00000 0.67750 0.38250
0.08000 0.67000 0.37500
0.22000 0.66250 0.36750
0.36000 0.65500 0.36000
0.50000 0.64750 0.35250
0.64000 0.64000 0.34500
0.78000 0.63250 0.33750
0.92000 0.62500 0.33000
1.00000 0.61750 0.32250
0.00000 0.81750 0.37500
0.07250 0.81000 0.36750
0.21250 0.80250 0.36000
0.35250 0.79500 0.35250
0.49250 0.78750 0.34500
0.63250 0.78000 0.33750
0.77250 0.77250 0.33000
0.91250 0.76500 0.32250
1.00000 0.75750 0.31500
0.00000 0.95750 0.36750
0.06500 0.95000 0.36000
0.20500 0.94250 0.35250
0.34500 0.93500 0.34500
0.48500 0.92750 0.33750
0.62500 0.92000 0.33000
0.76500 0.91250 0.32250
0.90500 0.90500 0.31500
1.00000 0.89750 0.30750
0.00000 1.00000 0.36000
0.05750 1.00000 0.35250
0.19750 1.00000 0.34500
0.33750 1.00000 0.33750
0.47750 1.00000 0.33000
0.61750 1.00000 0.32250
0.75750 1.00000 0.31500
0.89750 1.00000 0.30750
1.00000 1.00000 0.30000
0.00000 0.00000 0.56000
0.11000 0.00000 0.55250
0.25000 0.00000 0.54500
0.39000 0.00000 0.53750
0.53000 0.00000 0.53000
0.67000 0.00000 0.52250
0.81000 0.00000 0.51500
0.95000 0.00000 0.50750
1.00000 0.00000 0.50000
0.00000 0.11000 0.55250
0.10250 0.10250 0.54500
0.24250 0.09500 0.53750
0.38250 0.08750 0.53000
0.52250 0.08000 0.52250
0.66250 0.07250 0.51500
0.80250 0.06500 0.50750
0.94250 0.05750 0.50000
1.00000 0.05000 0.49250
0.00000 0.25000 0.54500
0.09500 0.24250 0.53750
0.23500 0.23500 0.53000
0.37500 0.22750 0.52250
0.51500 0.22000 0.51500
0.65500 0.21250 0.50750
0.79500 0.20500 0.50000
0.93500 0.19750 0.49250
1.00000 0.19000 0.48500
0.00000 0.39000 0.53750
0.08750 0.38250 0.53000
0.22750 0.37500 0.52250
0.36750 0.36750 0.51500
0.50750 0.36000 0.50750
0.64750 0.35250 0.50000
0.78750 0.34500 0.49250
0.92750 0.33750 0.48500
1.00000 0.33000 0.47750
0.00000 0.53000 0.53000
0.08000 0.52250 0.52250
0.22000 0.51500 0.51500
0.36000 0.50750 0.50750
0.50000 0.50000 0.50000
0.64000 0.49250 0.49250
0.78000 0.48500 0.48500
0.92000 0.47750 0.47750
1.00000 0.47000 0.47000
0.00000 0.67000 0.52250
0.07250 0.66250 0.51500
0.21250 0.65500 0.50750
0.35250 0.64750 0.50000
0.49250 0.64000 0.49250
0.63250 0.63250 0.48500
0.77250 0.62500 0.47750
0.91250 0.61750 0.47000
1.00000 0.61000 0.46250
0.00000 0.81000 0.51500
0.06500 0.80250 0.50750
0.20500 0.79500 0.50000
0.34500 0.78750 0.49250
0.48500 0.78000 0.48500
0.62500 0.77250 0.47750
0.76500 0.76500 0.47000
0.90500 0.75750 0.46250
1.00000 0.75000 0.45500
0.00000 0.95000 0.50750
0.05750 0.94250 0.50000
0.19750 0.93500 0.49250
0.33750 0.92750 0.48500
0.47750 0.92000 0.47750
0.61750 0.91250 0.47000
0.75750 0.90500 0.46250
0.89750 0.89750 0.45500
1.00000 0.89000 0.44750
0.00000 1.00000 0.50000
0.05000 1.00000 0.49250
0.19000 1.00000 0.48500
0.33000 1.00000 0.47750
0.47000 1.00000 0.47000
0.61000 1.00000 0.46250
0.75000 1.00000 0.45500
0.89000 1.00000 0.44750
1.00000 1.00000 0.44000
0.00000 0.00000 0.70000
0.10250 0.00000 0.69250
0.24250 0.00000 0.68500
0.38250 0.00000 0.67750
0.52250 0.00000 0.67000
0.66250 0.00000 0.66250
0.80250 0.00000 0.65500
0.94250 0.00000 0.64750
1.00000 0.00000 0.64000
0.00000 0.10250 0.69250
0.09500 0.09500 0.68500
0.23500 0.08750 0.67750
0.37500 0.08000 0.67000
0.51500 0.07250 0.66250
0.65500 0.06500 0.65500
0.79500 0.05750 0.64750
0.93500 0.05000 0.64000
1.00000 0.04250 0.63250
0.00000 0.24250 0.68500
0.08750 0.23500 0.67750
0.22750 0.22750 0.67000
0.36750 0.22000 0.66250
0.50750 0.21250 0.65500
0.64750 0.20500 0.64750
0.78750 0.19750 0.64000
0.92750 0.19000 0.63250
1.00000 0.18250 0.62500
0.00000 0.38250 0.67750
0.08000 0.37500 0.67000
0.22000 0.36750 0.66250
0.36000 0.36000 0.65500
0.50000 0.35250 0.64750
0.64000 0.34500 0.64000
0.78000 0.33750 0.63250
0.92000 0.33000 0.62500
1.00000 0.32250 0.61750
0.00000 0.52250 0.67000
0.07250 0.51500 0.66250
0.21250 0.50750 0.65500
0.35250 0.50000 0.64750
0.49250 0.49250 0.64000
0.63250 0.48500 0.63250
0.77250 0.47750 0.62500
0.91250 0.47000 0.61750
1.00000 0.46250 0.61000
0.00000 0.66250 0.66250
0.06500 0.65500 0.65500
0.20500 0.64750 0.64750
0.34500 0.64000 0.64000
0.48500 0.63250 0.63250
0.62500 0.62500 0.62500
0.76500 0.61750 0.61750
0.90500 0.61000 0.61000
1.00000 0.60250 0.60250
0.00000 0.80250 0.65500
0.05750 0.79500 0.64750
0.19750 0.78750 0.64000
0.33750 0.78000 0.63250
0.47750 0.77250 0.62500
0.61750 0.76500 0.61750
0.75750 0.75750 0.61000
0.89750 0.75000 0.60250
1.00000 0.74250 0.59500
0.00000 0.94250 0.64750
0.05000 0.93500 0.64000
0.19000 0.92750 0.63250
0.33000 0.92000 0.62500
0.47000 0.91250 0.61750
0.61000 0.90500 0.61000
0.75000 0.89750 0.60250
0.89000 0.89000 0.59500
1.00000 0.88250 0.58750
0.00000 1.00000 0.64000
0.04250 1.00000 0.63250
0.18250 1.00000 0.62500
0.32250 1.00000 0.61750
0.46250 1.00000 0.61000
0.60250 1.00000 0.60250
0.74250 1.00000 0.59500
0.88250 1.00000 0.58750
1.00000 1.00000 0.58000
0.00000 0.00000 0.84000
0.09500 0.00000 0.83250
0.23500 0.00000 0.82500
0.37500 0.00000 0.81750
0.51500 0.00000 0.81000
0.65500 0.00000 0.80250
0.79500 0.00000 0.79500
0.93500 0.00000 0.78750
1.00000 0.00000 0.78000
0.00000 0.09500 0.83250
0.08750 0.08750 0.82500
0.22750 0.08000 0.81750
0.36750 0.07250 0.81000
0.50750 0.06500 0.80250
0.64750 0.05750 0.79500
0.78750 0.05000 0.78750
0.92750 0.04250 0.78000
1.00000 0.03500 0.77250
0.00000 0.23500 0.82500
0.08000 0.22750 0.81750
0.22000 0.22000 0.81000
0.36000 0.21250 0.80250
0.50000 0.20500 0.79500
0.64000 0.19750 0.78750
0.78000 0.19000 0.78000
0.92000 0.18250 0.77250
1.00000 0.17500 0.76500
0.00000 0.37500 0.81750
0.07250 0.36750 0.81000
0.21250 0.36000 0.80250
0.35250 0.35250 0.79500
0.49250 0.34500 0.78750
0.63250 0.33750 0.78000
0.77250 0.33000 0.77250
0.91250 0.32250 0.76500
1.00000 0.31500 0.75750
0.00000 0.51500 0.81000
0.06500 0.50750 0.80250
0.20500 0.50000 0.79500
0.34500 0.49250 0.78750
0.48500 0.48500 0.78000
0.62500 0.47750 0.77250
0.76500 0.47000 0.76500
0.90500 0.46250 0.75750
1.00000 0.45500 0.75000
0.00000 0.65500 0.80250
0.05750 0.64750 0.79500
0.19750 0.64000 0.78750
0.33750 0.63250 0.78000
0.47750 0.62500 0.77250
0.61750 0.61750 0.76500
0.75750 0.61000 0.75750
0.89750 0.60250 0.75000
1.00000 0.59500 0.74250
0.00000 0.79500 0.79500
0.05000 0.78750 0.78750
0.19000 0.78000 0.78000
0.33000 0.77250 0.77250
0.47000 0.76500 0.76500
0.61000 0.75750 0.75750
0.75000 0.75000 0.75000
0.89000 0.74250 0.74250
1.00000 0.73500 0.73500
0.00000 0.93500 0.78750
0.04250 0.92750 0.78000
0.18250 0.92000 0.77250
0.32250 0.91250 0.76500
0.46250 0.90500 0.75750
0.60250 0.89750 0.75000
0.74250 0.89000 0.74250
0.88250 0.88250 0.73500
1.00000 0.87500 0.72750
0.00000 1.00000 0.78000
0.03500 1.00000 0.77250
0.17500 1.00000 0.76500
0.31500 1.00000 0.75750
0.45500 1.00000 0.75000
0.59500 1.00000 0.74250
0.73500 1.00000 0.73500
0.87500 1.00000 0.72750
1.00000 1.00000 0.72000
0.00000 0.00000 0.98000
0.08750 0.00000 0.97250
0.22750 0.00000 0.96500
0.36750 0.00000 0.95750
0.50750 0.00000 0.95000
0.64750 0.00000 0.94250
0.78750 0.00000 0.93500
0.92750 0.00000 0.92750
1.00000 0.00000 0.92000
0.00000 0.08750 0.97250
0.08000 0.08000 0.96500
0.22000 0.07250 0.95750
0.36000 0.06500 0.95000
0.50000 0.05750 0.94250
0.64000 0.05000 0.93500
0.78000 0.04250 0.92750
0.92000 0.03500 0.92000
1.00000 0.02750 0.91250
0.00000 0.22750 0.96500
0.07250 0.22000 0.95750
0.21250 0.21250 0.95000
0.35250 0.20500 0.94250
0.49250 0.19750 0.93500
0.63250 0.19000 0.92750
0.77250 0.18250 0.92000
0.91250 0.17500 0.91250
1.00000 0.16750 0.90500
0.00000 0.36750 0.95750
0.06500 0.36000 0.95000
0.20500 0.35250 0.94250
0.34500 0.34500 0.93500
0.48500 0.33750 0.92750
0.62500 0.33000 0.92000
0.76500 0.32250 0.91250
0.90500 0.31500 0.90500
1.00000 0.30750 0.89750
0.00000 0.50750 0.95000
0.05750 0.50000 0.94250
0.19750 0.49250 0.93500
0.33750 0.48500 0.92750
0.47750 0.47750 0.92000
0.61750 0.47000 0.91250
0.75750 0.46250 0.90500
0.89750 0.45500 0.89750
1.00000 0.44750 0.89000
0.00000 0.64750 0.94250
0.05000 0.64000 0.93500
0.19000 0.63250 0.92750
0.33000 0.62500 0.92000
0.47000 0.61750 0.91250
0.61000 0.61000 0.90500
0.75000 0.60250 0.89750
0.89000 0.59500 0.89000
1.00000 0.58750 0.88250
0.00000 0.78750 0.93500
0.04250 0.78000 0.92750
0.18250 0.77250 0.92000
0.32250 0.76500 0.91250
0.46250 0.75750 0.90500
0.60250 0.75000 0.89750
0.74250 0.74250 0.89000
0.88250 0.73500 0.88250
1.00000 0.72750 0.87500
0.00000 0.92750 0.92750
0.03500 0.92000 0.92000
0.17500 0.91250 0.91250
0.31500 0.90500 0.90500
0.45500 0.89750 0.89750
0.59500 0.89000 0.89000
0.73500 0.88250 0.88250
0.87500 0.87500 0.87500
1.00000 0.86750 0.86750
0.00000 1.00000 0.92000
0.02750 1.00000 0.91250
0.16750 1.00000 0.90500
0.30750 1.00000 0.89750
0.44750 1.00000 0.89000
0.58750 1.00000 0.88250
0.72750 1.00000 0.87500
0.86750 1.00000 0.86750
1.00000 1.00000 0.86000
0.00000 0.00000 1.00000
0.08000 0.00000 1.00000
0.22000 0.00000 1.00000
0.36000 0.00000 1.00000
0.50000 0.00000 1.00000
0.64000 0.00000 1.00000
0.78000 0.00000 1.00000
0.92000 0.00000 1.00000
1.00000 0.00000 1.00000
0.00000 0.08000 1.00000
0.07250 0.07250 1.00000
0.21250 0.06500 1.00000
0.35250 0.05750 1.00000
0.49250 0.05000 1.00000
0.63250 0.04250 1.00000
0.77250 0.03500 1.00000
0.91250 0.02750 1.00000
1.00000 0.02000 1.00000
0.00000 0.22000 1.00000
0.06500 0.21250 1.00000
0.20500 0.20500 1.00000
0.34500 0.19750 1.00000
0.48500 0.19000 1.00000
0.62500 0.18250 1.00000
0.76500 0.17500 1.00000
0.90500 0.16750 1.00000
1.00000 0.16000 1.00000
0.00000 0.36000 1.00000
0.05750 0.35250 1.00000
0.19750 0.34500 1.00000
0.33750 0.33750 1.00000
0.47750 0.33000 1.00000
0.61750 0.32250 1.00000
0.75750 0.31500 1.00000
0.89750 0.30750 1.00000
1.00000 0.30000 1.00000
0.00000 0.50000 1.00000
0.05000 0.49250 1.00000
0.19000 0.48500 1.00000
0.33000 0.47750 1.00000
0.47000 0.47000 1.00000
0.61000 0.46250 1.00000
0.75000 0.45500 1.00000
0.89000 0.44750 1.00000
1.00000 0.44000 1.00000
0.00000 0.64000 1.00000
0.04250 0.63250 1.00000
0.18250 0.62500 1.00000
0.32250 0.61750 1.00000
0.46250 0.61000 1.00000
0.60250 0.60250 1.00000
0.74250 0.59500 1.00000
0.88250 0.58750 1.00000
1.00000 0.58000 1.00000
0.00000 0.78000 1.00000
0.03500 0.77250 1.00000
0.17500 0.76500 1.00000
0.31500 0.75750 1.00000
0.45500 0.75000 1.00000
0.59500 0.74250 1.00000
0.73500 0.73500 1.00000
0.87500 0.72750 1.00000
1.00000 0.72000 1.00000
0.00000 0.92000 1.00000
0.02750 0.91250 1.00000
0.16750 0.90500 1.00000
0.30750 0.89750 1.00000
0.44750 0.89000 1.00000
0.58750 0.88250 1.00000
0.72750 0.87500 1.00000
0.86750 0.86750 1.00000
1.00000 0.86000 1.00000
0.00000 1.00000 1.00000
0.02000 1.00000 1.00000
0.16000 1.00000 1.00000
0.30000 1.00000 1.00000
0.44000 1.00000 1.00000
0.58000 1.00000 1.00000
0.72000 1.00000 1.00000
0.86000 1.00000 1.00000
1.00000 1.00000 1.00000
