assets/luts/vivid.cube
TITLE "ReelForge vivid saturation"
LUT_3D_SIZE 17
0.00000 0.00000 0.00000
0.07000 0.00000 0.00000
0.14000 0.00000 0.00000
0.21000 0.00000 0.00000
0.28000 0.00000 0.00000
0.35000 0.00000 0.00000
0.42000 0.00000 0.00000
0.49000 0.00000 0.00000
0.56000 0.00000 0.00000
0.63000 0.00000 0.00000
0.70000 0.00000 0.00000
0.77000 0.00000 0.00000
0.84000 0.00000 0.00000
0.91000 0.00000 0.00000
0.98000 0.00000 0.00000
1.00000 0.00000 0.00000
1.00000 0.00000 0.00000
0.00000 0.07000 0.00000
0.06625 0.06625 0.00000
0.13625 0.06250 0.00000
0.20625 0.05875 0.00000
0.27625 0.05500 0.00000
0.34625 0.05125 0.00000
0.41625 0.04750 0.00000
0.48625 0.04375 0.00000
0.55625 0.04000 0.00000
0.62625 0.03625 0.00000
0.69625 0.03250 0.00000
0.76625 0.02875 0.00000
0.83625 0.02500 0.00000
0.90625 0.02125 0.00000
0.97625 0.01750 0.00000
1.00000 0.01375 0.00000
1.00000 0.01000 0.00000
0.00000 0.14000 0.00000
0.06250 0.13625 0.00000
0.13250 0.13250 0.00000
0.20250 0.12875 0.00000
0.27250 0.12500 0.00000
0.34250 0.12125 0.00000
0.41250 0.11750 0.00000
0.48250 0.11375 0.00000
0.55250 0.11000 0.00000
0.62250 0.10625 0.00000
0.69250 0.10250 0.00000
0.76250 0.09875 0.00000
0.83250 0.09500 0.00000
0.90250 0.09125 0.00000
0.97250 0.08750 0.00000
1.00000 0.08375 0.00000
1.00000 0.08000 0.00000
0.00000 0.21000 0.00000
0.05875 0.20625 0.00000
0.12875 0.20250 0.00000
0.19875 0.19875 0.00000
0.26875 0.19500 0.00000
0.33875 0.19125 0.00000
0.40875 0.18750 0.00000
0.47875 0.18375 0.00000
0.54875 0.18000 0.00000
0.61875 0.17625 0.00000
0.68875 0.17250 0.00000
0.75875 0.16875 0.00000
0.82875 0.16500 0.00000
0.89875 0.16125 0.00000
0.96875 0.15750 0.00000
1.00000 0.15375 0.00000
1.00000 0.15000 0.00000
0.00000 0.28000 0.00000
0.05500 0.27625 0.00000
0.12500 0.27250 0.00000
0.19500 0.26875 0.00000
0.26500 0.26500 0.00000
0.33500 0.26125 0.00000
0.40500 0.25750 0.00000
0.47500 0.25375 0.00000
0.54500 0.25000 0.00000
0.61500 0.24625 0.00000
0.68500 0.24250 0.00000
0.75500 0.23875 0.00000
0.82500 0.23500 0.00000
0.89500 0.23125 0.00000
0.96500 0.22750 0.00000
1.00000 0.22375 0.00000
1.00000 0.22000 0.00000
0.00000 0.35000 0.00000
0.05125 0.34625 0.00000
0.12125 0.34250 0.00000
0.19125 0.33875 0.00000
0.26125 0.33500 0.00000
0.33125 0.33125 0.00000
0.40125 0.32750 0.00000
0.47125 0.32375 0.00000
0.54125 0.32000 0.00000
0.61125 0.31625 0.00000
0.68125 0.31250 0.00000
0.75125 0.30875 0.00000
0.82125 0.30500 0.00000
0.89125 0.30125 0.00000
0.96125 0.29750 0.00000
1.00000 0.29375 0.00000
1.00000 0.29000 0.00000
0.00000 0.42000 0.00000
0.04750 0.41625 0.00000
0.11750 0.41250 0.00000
0.18750 0.40875 0.00000
0.25750 0.40500 0.00000
0.32750 0.40125 0.00000
0.39750 0.39750 0.00000
0.46750 0.39375 0.00000
0.53750 0.39000 0.00000
0.60750 0.38625 0.00000
0.67750 0.38250 0.00000
0.74750 0.37875 0.00000
0.81750 0.37500 0.00000
0.88750 0.37125 0.00000
0.95750 0.36750 0.00000
1.00000 0.36375 0.00000
1.00000 0.36000 0.00000
0.00000 0.49000 0.00000
0.04375 0.48625 0.00000
0.11375 0.48250 0.00000
0.18375 0.47875 0.00000
0.25375 0.47500 0.00000
0.32375 0.47125 0.00000
0.39375 0.46750 0.00000
0.46375 0.46375 0.00000
0.53375 0.46000 0.00000
0.60375 0.45625 0.00000
0.67375 0.45250 0.00000
0.74375 0.44875 0.00000
0.81375 0.44500 0.00000
0.88375 0.44125 0.00000
0.95375 0.43750 0.00000
1.00000 0.43375 0.00000
1.00000 0.43000 0.00000
0.00000 0.56000 0.00000
0.04000 0.55625 0.00000
0.11000 0.55250 0.00000
0.18000 0.54875 0.00000
0.25000 0.54500 0.00000
0.32000 0.54125 0.00000
0.39000 0.53750 0.00000
0.46000 0.53375 0.00000
0.53000 0.53000 0.00000
0.60000 0.52625 0.00000
0.67000 0.52250 0.00000
0.74000 0.51875 0.00000
0.81000 0.51500 0.00000
0.88000 0.51125 0.00000
0.95000 0.50750 0.00000
1.00000 0.50375 0.00000
1.00000 0.50000 0.00000
0.00000 0.63000 0.00000
0.03625 0.62625 0.00000
0.10625 0.62250 0.00000
0.17625 0.61875 0.00000
0.24625 0.61500 0.00000
0.31625 0.61125 0.00000
0.38625 0.60750 0.00000
0.45625 0.60375 0.00000
0.52625 0.60000 0.00000
0.59625 0.59625 0.00000
0.66625 0.59250 0.00000
0.73625 0.58875 0.00000
0.80625 0.58500 0.00000
0.87625 0.58125 0.00000
0.94625 0.57750 0.00000
1.00000 0.57375 0.00000
1.00000 0.57000 0.00000
0.00000 0.70000 0.00000
0.03250 0.69625 0.00000
0.10250 0.69250 0.00000
0.17250 0.68875 0.00000
0.24250 0.68500 0.00000
0.31250 0.68125 0.00000
0.38250 0.67750 0.00000
0.45250 0.67375 0.00000
0.52250 0.67000 0.00000
0.59250 0.66625 0.00000
0.66250 0.66250 0.00000
0.73250 0.65875 0.00000
0.80250 0.65500 0.00000
0.87250 0.65125 0.00000
0.94250 0.64750 0.00000
1.00000 0.64375 0.00000
1.00000 0.64000 0.00000
0.00000 0.77000 0.00000
0.02875 0.76625 0.00000
0.09875 0.76250 0.00000
0.16875 0.75875 0.00000
0.23875 0.75500 0.00000
0.30875 0.75125 0.00000
0.37875 0.74750 0.00000
0.44875 0.74375 0.00000
0.51875 0.74000 0.00000
0.58875 0.73625 0.00000
0.65875 0.73250 0.00000
0.72875 0.72875 0.00000
0.79875 0.72500 0.00000
0.86875 0.72125 0.00000
0.93875 0.71750 0.00000
1.00000 0.71375 0.00000
1.00000 0.71000 0.00000
0.00000 0.84000 0.00000
0.02500 0.83625 0.00000
0.09500 0.83250 0.00000
0.16500 0.82875 0.00000
0.23500 0.82500 0.00000
0.30500 0.82125 0.00000
0.37500 0.81750 0.00000
0.44500 0.81375 0.00000
0.51500 0.81000 0.00000
0.58500 0.80625 0.00000
0.65500 0.80250 0.00000
0.72500 0.79875 0.00000
0.79500 0.79500 0.00000
0.86500 0.79125 0.00000
0.93500 0.78750 0.00000
1.00000 0.78375 0.00000
1.00000 0.78000 0.00000
0.00000 0.91000 0.00000
0.02125 0.90625 0.00000
0.09125 0.90250 0.00000
0.16125 0.89875 0.00000
0.23125 0.89500 0.00000
0.30125 0.89125 0.00000
0.37125 0.88750 0.00000
0.44125 0.88375 0.00000
0.51125 0.88000 0.00000
0.58125 0.87625 0.00000
0.65125 0.87250 0.00000
0.72125 0.86875 0.00000
0.79125 0.86500 0.00000
0.86125 0.86125 0.00000
0.93125 0.85750 0.00000
1.00000 0.85375 0.00000
1.00000 0.85000 0.00000
0.00000 0.98000 0.00000
0.01750 0.97625 0.00000
0.08750 0.97250 0.00000
0.15750 0.96875 0.00000
0.22750 0.96500 0.00000
0.29750 0.96125 0.00000
0.36750 0.95750 0.00000
0.43750 0.95375 0.00000
0.50750 0.95000 0.00000
0.57750 0.94625 0.00000
0.64750 0.94250 0.00000
0.71750 0.93875 0.00000
0.78750 0.93500 0.00000
0.85750 0.93125 0.00000
0.92750 0.92750 0.00000
0.99750 0.92375 0.00000
1.00000 0.92000 0.00000
0.00000 1.00000 0.00000
0.01375 1.00000 0.00000
0.08375 1.00000 0.00000
0.15375 1.00000 0.00000
0.22375 1.00000 0.00000
0.29375 1.00000 0.00000
0.36375 1.00000 0.00000
0.43375 1.00000 0.00000
0.50375 1.00000 0.00000
0.57375 1.00000 0.00000
0.64375 1.00000 0.00000
0.71375 1.00000 0.00000
0.78375 1.00000 0.00000
0.85375 1.00000 0.00000
0.92375 0.99750 0.00000
0.99375 0.99375 0.00000
1.00000 0.99000 0.00000
0.00000 1.00000 0.00000
0.01000 1.00000 0.00000
0.08000 1.00000 0.00000
0.15000 1.00000 0.00000
0.22000 1.00000 0.00000
0.29000 1.00000 0.00000
0.36000 1.00000 0.00000
0.43000 1.00000 0.00000
0.50000 1.00000 0.00000
0.57000 1.00000 0.00000
0.64000 1.00000 0.00000
0.71000 1.00000 0.00000
0.78000 1.00000 0.00000
0.85000 1.00000 0.00000
0.92000 1.00000 0.00000
0.99000 1.00000 0.00000
1.00000 1.00000 0.00000
0.00000 0.00000 0.07000
0.06625 0.00000 0.06625
0.13625 0.00000 0.06250
0.20625 0.00000 0.05875
0.27625 0.00000 0.05500
0.34625 0.00000 0.05125
0.41625 0.00000 0.04750
0.48625 0.00000 0.04375
0.55625 0.00000 0.04000
0.62625 0.00000 0.03625
0.69625 0.00000 0.03250
0.76625 0.00000 0.02875
0.83625 0.00000 0.02500
0.90625 0.00000 0.02125
0.97625 0.00000 0.01750
1.00000 0.00000 0.01375
1.00000 0.00000 0.01000
0.00000 0.06625 0.06625
0.06250 0.06250 0.06250
0.13250 0.05875 0.05875
0.20250 0.05500 0.05500
0.27250 0.05125 0.05125
0.34250 0.04750 0.04750
0.41250 0.04375 0.04375
0.48250 0.04000 0.04000
0.55250 0.03625 0.03625
0.62250 0.03250 0.03250
0.69250 0.02875 0.02875
0.76250 0.02500 0.02500
0.83250 0.02125 0.02125
0.90250 0.01750 0.01750
0.97250 0.01375 0.01375
1.00000 0.01000 0.01000
1.00000 0.00625 0.00625
0.00000 0.13625 0.06250
0.05875 0.13250 0.05875
0.12875 0.12875 0.05500
0.19875 0.12500 0.05125
0.26875 0.12125 0.04750
0.33875 0.11750 0.04375
0.40875 0.11375 0.04000
0.47875 0.11000 0.03625
0.54875 0.10625 0.03250
0.61875 0.10250 0.02875
0.68875 0.09875 0.02500
0.75875 0.09500 0.02125
0.82875 0.09125 0.01750
0.89875 0.08750 0.01375
0.96875 0.08375 0.01000
1.00000 0.08000 0.00625
1.00000 0.07625 0.00250
0.00000 0.20625 0.05875
0.05500 0.20250 0.05500
0.12500 0.19875 0.05125
0.19500 0.19500 0.04750
0.26500 0.19125 0.04375
0.33500 0.18750 0.04000
0.40500 0.18375 0.03625
0.47500 0.18000 0.03250
0.54500 0.17625 0.02875
0.61500 0.17250 0.02500
0.68500 0.16875 0.02125
0.75500 0.16500 0.01750
0.82500 0.16125 0.01375
0.89500 0.15750 0.01000
0.96500 0.15375 0.00625
1.00000 0.15000 0.00250
1.00000 0.14625 0.00000
0.00000 0.27625 0.05500
0.05125 0.27250 0.05125
0.12125 0.26875 0.04750
0.19125 0.26500 0.04375
0.26125 0.26125 0.04000
0.33125 0.25750 0.03625
0.40125 0.25375 0.03250
0.47125 0.25000 0.02875
0.54125 0.24625 0.02500
0.61125 0.24250 0.02125
0.68125 0.23875 0.01750
0.75125 0.23500 0.01375
0.82125 0.23125 0.01000
0.89125 0.22750 0.00625
0.96125 0.22375 0.00250
1.00000 0.22000 0.00000
1.00000 0.21625 0.00000
0.00000 0.34625 0.05125
0.04750 0.34250 0.04750
0.11750 0.33875 0.04375
0.18750 0.33500 0.04000
0.25750 0.33125 0.03625
0.32750 0.32750 0.03250
0.39750 0.32375 0.02875
0.46750 0.32000 0.02500
0.53750 0.31625 0.02125
0.60750 0.31250 0.01750
0.67750 0.30875 0.01375
0.74750 0.30500 0.01000
0.81750 0.30125 0.00625
0.88750 0.29750 0.00250
0.95750 0.29375 0.00000
1.00000 0.29000 0.00000
1.00000 0.28625 0.00000
0.00000 0.41625 0.04750
0.04375 0.41250 0.04375
0.11375 0.40875 0.04000
0.18375 0.40500 0.03625
0.25375 0.40125 0.03250
0.32375 0.39750 0.02875
0.39375 0.39375 0.02500
0.46375 0.39000 0.02125
0.53375 0.38625 0.01750
0.60375 0.38250 0.01375
0.67375 0.37875 0.01000
0.74375 0.37500 0.00625
0.81375 0.37125 0.00250
0.88375 0.36750 0.00000
0.95375 0.36375 0.00000
1.00000 0.36000 0.00000
1.00000 0.35625 0.00000
0.00000 0.48625 0.04375
0.04000 0.48250 0.04000
0.11000 0.47875 0.03625
0.18000 0.47500 0.03250
0.25000 0.47125 0.02875
0.32000 0.46750 0.02500
0.39000 0.46375 0.02125
0.46000 0.46000 0.01750
0.53000 0.45625 0.01375
0.60000 0.45250 0.01000
0.67000 0.44875 0.00625
0.74000 0.44500 0.00250
0.81000 0.44125 0.00000
0.88000 0.43750 0.00000
0.95000 0.43375 0.00000
1.00000 0.43000 0.00000
1.00000 0.42625 0.00000
0.00000 0.55625 0.04000
0.03625 0.55250 0.03625
0.10625 0.54875 0.03250
0.17625 0.54500 0.02875
0.24625 0.54125 0.02500
0.31625 0.53750 0.02125
0.38625 0.53375 0.01750
0.45625 0.53000 0.01375
0.52625 0.52625 0.01000
0.59625 0.52250 0.00625
0.66625 0.51875 0.00250
0.73625 0.51500 0.00000
0.80625 0.51125 0.00000
0.87625 0.50750 0.00000
0.94625 0.50375 0.00000
1.00000 0.50000 0.00000
1.00000 0.49625 0.00000
0.00000 0.62625 0.03625
0.03250 0.62250 0.03250
0.10250 0.61875 0.02875
0.17250 0.61500 0.02500
0.24250 0.61125 0.02125
0.31250 0.60750 0.01750
0.38250 0.60375 0.01375
0.45250 0.60000 0.01000
0.52250 0.59625 0.00625
0.59250 0.59250 0.00250
0.66250 0.58875 0.00000
0.73250 0.58500 0.00000
0.80250 0.58125 0.00000
0.87250 0.57750 0.00000
0.94250 0.57375 0.00000
1.00000 0.57000 0.00000
1.00000 0.56625 0.00000
0.00000 0.69625 0.03250
0.02875 0.69250 0.02875
0.09875 0.68875 0.02500
0.16875 0.68500 0.02125
0.23875 0.68125 0.01750
0.30875 0.67750 0.01375
0.37875 0.67375 0.01000
0.44875 0.67000 0.00625
0.51875 0.66625 0.00250
0.58875 0.66250 0.00000
0.65875 0.65875 0.00000
0.72875 0.65500 0.00000
0.79875 0.65125 0.00000
0.86875 0.64750 0.00000
0.93875 0.64375 0.00000
1.00000 0.64000 0.00000
1.00000 0.63625 0.00000
0.00000 0.76625 0.02875
0.02500 0.76250 0.02500
0.09500 0.75875 0.02125
0.16500 0.75500 0.01750
0.23500 0.75125 0.01375
0.30500 0.74750 0.01000
0.37500 0.74375 0.00625
0.44500 0.74000 0.00250
0.51500 0.73625 0.00000
0.58500 0.73250 0.00000
0.65500 0.72875 0.00000
0.72500 0.72500 0.00000
0.79500 0.72125 0.00000
0.86500 0.71750 0.00000
0.93500 0.71375 0.00000
1.00000 0.71000 0.00000
1.00000 0.70625 0.00000
0.00000 0.83625 0.02500
0.02125 0.83250 0.02125
0.09125 0.82875 0.01750
0.16125 0.82500 0.01375
0.23125 0.82125 0.01000
0.30125 0.81750 0.00625
0.37125 0.81375 0.00250
0.44125 0.81000 0.00000
0.51125 0.80625 0.00000
0.58125 0.80250 0.00000
0.65125 0.79875 0.00000
0.72125 0.79500 0.00000
0.79125 0.79125 0.00000
0.86125 0.78750 0.00000
0.93125 0.78375 0.00000
1.00000 0.78000 0.00000
1.00000 0.77625 0.00000
0.00000 0.90625 0.02125
0.01750 0.90250 0.01750
0.08750 0.89875 0.01375
0.15750 0.89500 0.01000
0.22750 0.89125 0.00625
0.29750 0.88750 0.00250
0.36750 0.88375 0.00000
0.43750 0.88000 0.00000
0.50750 0.87625 0.00000
0.57750 0.87250 0.00000
0.64750 0.86875 0.00000
0.71750 0.86500 0.00000
0.78750 0.86125 0.00000
0.85750 0.85750 0.00000
0.92750 0.85375 0.00000
0.99750 0.85000 0.00000
1.00000 0.84625 0.00000
0.00000 0.97625 0.01750
0.01375 0.97250 0.01375
0.08375 0.96875 0.01000
0.15375 0.96500 0.00625
0.22375 0.96125 0.00250
0.29375 0.95750 0.00000
0.36375 0.95375 0.00000
0.43375 0.95000 0.00000
0.50375 0.94625 0.00000
0.57375 0.94250 0.00000
0.64375 0.93875 0.00000
0.71375 0.93500 0.00000
0.78375 0.93125 0.00000
0.85375 0.92750 0.00000
0.92375 0.92375 0.00000
0.99375 0.92000 0.00000
1.00000 0.91625 0.00000
0.00000 1.00000 0.01375
0.01000 1.00000 0.01000
0.08000 1.00000 0.00625
0.15000 1.00000 0.00250
0.22000 1.00000 0.00000
0.29000 1.00000 0.00000
0.36000 1.00000 0.00000
0.43000 1.00000 0.00000
0.50000 1.00000 0.00000
0.57000 1.00000 0.00000
0.64000 1.00000 0.00000
0.71000 1.00000 0.00000
0.78000 1.00000 0.00000
0.85000 0.99750 0.00000
0.92000 0.99375 0.00000
0.99000 0.99000 0.00000
1.00000 0.98625 0.00000
0.00000 1.00000 0.01000
0.00625 1.00000 0.00625
0.07625 1.00000 0.00250
0.14625 1.00000 0.00000
0.21625 1.00000 0.00000
0.28625 1.00000 0.00000
0.35625 1.00000 0.00000
0.42625 1.00000 0.00000
0.49625 1.00000 0.00000
0.56625 1.00000 0.00000
0.63625 1.00000 0.00000
0.70625 1.00000 0.00000
0.77625 1.00000 0.00000
0.84625 1.00000 0.00000
0.91625 1.00000 0.00000
0.98625 1.00000 0.00000
1.00000 1.00000 0.00000
0.00000 0.00000 0.14000
0.06250 0.00000 0.13625
0.13250 0.00000 0.13250
0.20250 0.00000 0.12875
0.27250 0.00000 0.12500
0.34250 0.00000 0.12125
0.41250 0.00000 0.11750
0.48250 0.00000 0.11375
0.55250 0.00000 0.11000
0.62250 0.00000 0.10625
0.69250 0.00000 0.10250
0.76250 0.00000 0.09875
0.83250 0.00000 0.09500
0.90250 0.00000 0.09125
0.97250 0.00000 0.08750
1.00000 0.00000 0.08375
1.00000 0.00000 0.08000
0.00000 0.06250 0.13625
0.05875 0.05875 0.13250
0.12875 0.05500 0.12875
0.19875 0.05125 0.12500
0.26875 0.04750 0.12125
0.33875 0.04375 0.11750
0.40875 0.04000 0.11375
0.47875 0.03625 0.11000
0.54875 0.03250 0.10625
0.61875 0.02875 0.10250
0.68875 0.02500 0.09875
0.75875 0.02125 0.09500
0.82875 0.01750 0.09125
0.89875 0.01375 0.08750
0.96875 0.01000 0.08375
1.00000 0.00625 0.08000
1.00000 0.00250 0.07625
0.00000 0.13250 0.13250
0.05500 0.12875 0.12875
0.12500 0.12500 0.12500
0.19500 0.12125 0.12125
0.26500 0.11750 0.11750
0.33500 0.11375 0.11375
0.40500 0.11000 0.11000
0.47500 0.10625 0.10625
0.54500 0.10250 0.10250
0.61500 0.09875 0.09875
0.68500 0.09500 0.09500
0.75500 0.09125 0.09125
0.82500 0.08750 0.08750
0.89500 0.08375 0.08375
0.96500 0.08000 0.08000
1.00000 0.07625 0.07625
1.00000 0.07250 0.07250
0.00000 0.20250 0.12875
0.05125 0.19875 0.12500
0.12125 0.19500 0.12125
0.19125 0.19125 0.11750
0.26125 0.18750 0.11375
0.33125 0.18375 0.11000
0.40125 0.18000 0.10625
0.47125 0.17625 0.10250
0.54125 0.17250 0.09875
0.61125 0.16875 0.09500
0.68125 0.16500 0.09125
0.75125 0.16125 0.08750
0.82125 0.15750 0.08375
0.89125 0.15375 0.08000
0.96125 0.15000 0.07625
1.00000 0.14625 0.07250
1.00000 0.14250 0.06875
0.00000 0.27250 0.12500
0.04750 0.26875 0.12125
0.11750 0.26500 0.11750
0.18750 0.26125 0.11375
0.25750 0.25750 0.11000
0.32750 0.25375 0.10625
0.39750 0.25000 0.10250
0.46750 0.24625 0.09875
0.53750 0.24250 0.09500
0.60750 0.23875 0.09125
0.67750 0.23500 0.08750
0.74750 0.23125 0.08375
0.81750 0.22750 0.08000
0.88750 0.22375 0.07625
0.95750 0.22000 0.07250
1.00000 0.21625 0.06875
1.00000 0.21250 0.06500
0.00000 0.34250 0.12125
0.04375 0.33875 0.11750
0.11375 0.33500 0.11375
0.18375 0.33125 0.11000
0.25375 0.32750 0.10625
0.32375 0.32375 0.10250
0.39375 0.32000 0.09875
0.46375 0.31625 0.09500
0.53375 0.31250 0.09125
0.60375 0.30875 0.08750
0.67375 0.30500 0.08375
0.74375 0.30125 0.08000
0.81375 0.29750 0.07625
0.88375 0.29375 0.07250
0.95375 0.29000 0.06875
1.00000 0.28625 0.06500
1.00000 0.28250 0.06125
0.00000 0.41250 0.11750
0.04000 0.40875 0.11375
0.11000 0.40500 0.11000
0.18000 0.40125 0.10625
0.25000 0.39750 0.10250
0.32000 0.39375 0.09875
0.39000 0.39000 0.09500
0.46000 0.38625 0.09125
0.53000 0.38250 0.08750
0.60000 0.37875 0.08375
0.67000 0.37500 0.08000
0.74000 0.37125 0.07625
0.81000 0.36750 0.07250
0.88000 0.36375 0.06875
0.95000 0.36000 0.06500
1.00000 0.35625 0.06125
1.00000 0.35250 0.05750
0.00000 0.48250 0.11375
0.03625 0.47875 0.11000
0.10625 0.47500 0.10625
0.17625 0.47125 0.10250
0.24625 0.46750 0.09875
0.31625 0.46375 0.09500
0.38625 0.46000 0.09125
0.45625 0.45625 0.08750
0.52625 0.45250 0.08375
0.59625 0.44875 0.08000
0.66625 0.44500 0.07625
0.73625 0.44125 0.07250
0.80625 0.43750 0.06875
0.87625 0.43375 0.06500
0.94625 0.43000 0.06125
1.00000 0.42625 0.05750
1.00000 0.42250 0.05375
0.00000 0.55250 0.11000
0.03250 0.54875 0.10625
0.10250 0.54500 0.10250
0.17250 0.54125 0.09875
0.24250 0.53750 0.09500
0.31250 0.53375 0.09125
0.38250 0.53000 0.08750
0.45250 0.52625 0.08375
0.52250 0.52250 0.08000
0.59250 0.51875 0.07625
0.66250 0.51500 0.07250
0.73250 0.51125 0.06875
0.80250 0.50750 0.06500
0.87250 0.50375 0.06125
0.94250 0.50000 0.05750
1.00000 0.49625 0.05375
1.00000 0.49250 0.05000
0.00000 0.62250 0.10625
0.02875 0.61875 0.10250
0.09875 0.61500 0.09875
0.16875 0.61125 0.09500
0.23875 0.60750 0.09125
0.30875 0.60375 0.08750
0.37875 0.60000 0.08375
0.44875 0.59625 0.08000
0.51875 0.59250 0.07625
0.58875 0.58875 0.07250
0.65875 0.58500 0.06875
0.72875 0.58125 0.06500
0.79875 0.57750 0.06125
0.86875 0.57375 0.05750
0.93875 0.57000 0.05375
1.00000 0.56625 0.05000
1.00000 0.56250 0.04625
0.00000 0.69250 0.10250
0.02500 0.68875 0.09875
0.09500 0.68500 0.09500
0.16500 0.68125 0.09125
0.23500 0.67750 0.08750
0.30500 0.67375 0.08375
0.37500 0.67000 0.08000
0.44500 0.66625 0.07625
0.51500 0.66250 0.07250
0.58500 0.65875 0.06875
0.65500 0.65500 0.06500
0.72500 0.65125 0.06125
0.79500 0.64750 0.05750
0.86500 0.64375 0.05375
0.93500 0.64000 0.05000
1.00000 0.63625 0.04625
1.00000 0.63250 0.04250
0.00000 0.76250 0.09875
0.02125 0.75875 0.09500
0.09125 0.75500 0.09125
0.16125 0.75125 0.08750
0.23125 0.74750 0.08375
0.30125 0.74375 0.08000
0.37125 0.74000 0.07625
0.44125 0.73625 0.07250
0.51125 0.73250 0.06875
0.58125 0.72875 0.06500
0.65125 0.72500 0.06125
0.72125 0.72125 0.05750
0.79125 0.71750 0.05375
0.86125 0.71375 0.05000
0.93125 0.71000 0.04625
1.00000 0.70625 0.04250
1.00000 0.70250 0.03875
0.00000 0.83250 0.09500
0.01750 0.82875 0.09125
0.08750 0.82500 0.08750
0.15750 0.82125 0.08375
0.22750 0.81750 0.08000
0.29750 0.81375 0.07625
0.36750 0.81000 0.07250
0.43750 0.80625 0.06875
0.50750 0.80250 0.06500
0.57750 0.79875 0.06125
0.64750 0.79500 0.05750
0.71750 0.79125 0.05375
0.78750 0.78750 0.05000
0.85750 0.78375 0.04625
0.92750 0.78000 0.04250
0.99750 0.77625 0.03875
1.00000 0.77250 0.03500
0.00000 0.90250 0.09125
0.01375 0.89875 0.08750
0.08375 0.89500 0.08375
0.15375 0.89125 0.08000
0.22375 0.88750 0.07625
0.29375 0.88375 0.07250
0.36375 0.88000 0.06875
0.43375 0.87625 0.06500
0.50375 0.87250 0.06125
0.57375 0.86875 0.05750
0.64375 0.86500 0.05375
0.71375 0.86125 0.05000
0.78375 0.85750 0.04625
0.85375 0.85375 0.04250
0.92375 0.85000 0.03875
0.99375 0.84625 0.03500
1.00000 0.84250 0.03125
0.00000 0.97250 0.08750
0.01000 0.96875 0.08375
0.08000 0.96500 0.08000
0.15000 0.96125 0.07625
0.22000 0.95750 0.07250
0.29000 0.95375 0.06875
0.36000 0.95000 0.06500
0.43000 0.94625 0.06125
0.50000 0.94250 0.05750
0.57000 0.93875 0.05375
0.64000 0.93500 0.05000
0.71000 0.93125 0.04625
0.78000 0.92750 0.04250
0.85000 0.92375 0.03875
0.92000 0.92000 0.03500
0.99000 0.91625 0.03125
1.00000 0.91250 0.02750
0.00000 1.00000 0.08375
0.00625 1.00000 0.08000
0.07625 1.00000 0.07625
0.14625 1.00000 0.07250
0.21625 1.00000 0.06875
0.28625 1.00000 0.06500
0.35625 1.00000 0.06125
0.42625 1.00000 0.05750
0.49625 1.00000 0.05375
0.56625 1.00000 0.05000
0.63625 1.00000 0.04625
0.70625 1.00000 0.04250
0.77625 0.99750 0.03875
0.84625 0.99375 0.03500
0.91625 0.99000 0.03125
0.98625 0.98625 0.02750
1.00000 0.98250 0.02375
0.00000 1.00000 0.08000
0.00250 1.00000 0.07625
0.07250 1.00000 0.07250
0.14250 1.00000 0.06875
0.21250 1.00000 0.06500
0.28250 1.00000 0.06125
0.35250 1.00000 0.05750
0.42250 1.00000 0.05375
0.49250 1.00000 0.05000
0.56250 1.00000 0.04625
0.63250 1.00000 0.04250
0.70250 1.00000 0.03875
0.77250 1.00000 0.03500
0.84250 1.00000 0.03125
0.91250 1.00000 0.02750
0.98250 1.00000 0.02375
1.00000 1.00000 0.02000
0.00000 0.00000 0.21000
0.05875 0.00000 0.20625
0.12875 0.00000 0.20250
0.19875 0.00000 0.19875
0.26875 0.00000 0.19500
0.33875 0.00000 0.19125
0.40875 0.00000 0.18750
0.47875 0.00000 0.18375
0.54875 0.00000 0.18000
0.61875 0.00000 0.17625
0.68875 0.00000 0.17250
0.75875 0.00000 0.16875
0.82875 0.00000 0.16500
0.89875 0.00000 0.16125
0.96875 0.00000 0.15750
1.00000 0.00000 0.15375
1.00000 0.00000 0.15000
0.00000 0.05875 0.20625
0.05500 0.05500 0.20250
0.12500 0.05125 0.19875
0.19500 0.04750 0.19500
0.26500 0.04375 0.19125
0.33500 0.04000 0.18750
0.40500 0.03625 0.18375
0.47500 0.03250 0.18000
0.54500 0.02875 0.17625
0.61500 0.02500 0.17250
0.68500 0.02125 0.16875
0.75500 0.01750 0.16500
0.82500 0.01375 0.16125
0.89500 0.01000 0.15750
0.96500 0.00625 0.15375
1.00000 0.00250 0.15000
