assets/luts/warm.cube
TITLE "ReelForge warm"
LUT_3D_SIZE 9
0.00000 0.00000 0.00000
0.13500 0.00000 0.00000
0.27000 0.00000 0.00000
0.40500 0.00000 0.00000
0.54000 0.00000 0.00000
0.67500 0.00000 0.00000
0.81000 0.00000 0.00000
0.94500 0.00000 0.00000
1.00000 0.00000 0.00000
0.00000 0.12750 0.00000
0.13500 0.12750 0.00000
0.27000 0.12750 0.00000
0.40500 0.12750 0.00000
0.54000 0.12750 0.00000
0.67500 0.12750 0.00000
0.81000 0.12750 0.00000
0.94500 0.12750 0.00000
1.00000 0.12750 0.00000
0.00000 0.25500 0.00000
0.13500 0.25500 0.00000
0.27000 0.25500 0.00000
0.40500 0.25500 0.00000
0.54000 0.25500 0.00000
0.67500 0.25500 0.00000
0.81000 0.25500 0.00000
0.94500 0.25500 0.00000
1.00000 0.25500 0.00000
0.00000 0.38250 0.00000
0.13500 0.38250 0.00000
0.27000 0.38250 0.00000
0.40500 0.38250 0.00000
0.54000 0.38250 0.00000
0.67500 0.38250 0.00000
0.81000 0.38250 0.00000
0.94500 0.38250 0.00000
1.00000 0.38250 0.00000
0.00000 0.51000 0.00000
0.13500 0.51000 0.00000
0.27000 0.51000 0.00000
0.40500 0.51000 0.00000
0.54000 0.51000 0.00000
0.67500 0.51000 0.00000
0.81000 0.51000 0.00000
0.94500 0.51000 0.00000
1.00000 0.51000 0.00000
0.00000 0.63750 0.00000
0.13500 0.63750 0.00000
0.27000 0.63750 0.00000
0.40500 0.63750 0.00000
0.54000 0.63750 0.00000
0.67500 0.63750 0.00000
0.81000 0.63750 0.00000
0.94500 0.63750 0.00000
1.00000 0.63750 0.00000
0.00000 0.76500 0.00000
0.13500 0.76500 0.00000
0.27000 0.76500 0.00000
0.40500 0.76500 0.00000
0.54000 0.76500 0.00000
0.67500 0.76500 0.00000
0.81000 0.76500 0.00000
0.94500 0.76500 0.00000
1.00000 0.76500 0.00000
0.00000 0.89250 0.00000
0.13500 0.89250 0.00000
0.27000 0.89250 0.00000
0.40500 0.89250 0.00000
0.54000 0.89250 0.00000
0.67500 0.89250 0.00000
0.81000 0.89250 0.00000
0.94500 0.89250 0.00000
1.00000 0.89250 0.00000
0.00000 1.00000 0.00000
0.13500 1.00000 0.00000
0.27000 1.00000 0.00000
0.40500 1.00000 0.00000
0.54000 1.00000 0.00000
0.67500 1.00000 0.00000
0.81000 1.00000 0.00000
0.94500 1.00000 0.00000
1.00000 1.00000 0.00000
0.00000 0.00000 0.11875
0.13500 0.00000 0.11875
0.27000 0.00000 0.11875
0.40500 0.00000 0.11875
0.54000 0.00000 0.11875
0.67500 0.00000 0.11875
0.81000 0.00000 0.11875
0.94500 0.00000 0.11875
1.00000 0.00000 0.11875
0.00000 0.12750 0.11875
0.13500 0.12750 0.11875
0.27000 0.12750 0.11875
0.40500 0.12750 0.11875
0.54000 0.12750 0.11875
0.67500 0.12750 0.11875
0.81000 0.12750 0.11875
0.94500 0.12750 0.11875
1.00000 0.12750 0.11875
0.00000 0.25500 0.11875
0.13500 0.25500 0.11875
0.27000 0.25500 0.11875
0.40500 0.25500 0.11875
0.54000 0.25500 0.11875
0.67500 0.25500 0.11875
0.81000 0.25500 0.11875
0.94500 0.25500 0.11875
1.00000 0.25500 0.11875
0.00000 0.38250 0.11875
0.13500 0.38250 0.11875
0.27000 0.38250 0.11875
0.40500 0.38250 0.11875
0.54000 0.38250 0.11875
0.67500 0.38250 0.11875
0.81000 0.38250 0.11875
0.94500 0.38250 0.11875
1.00000 0.38250 0.11875
0.00000 0.51000 0.11875
0.13500 0.51000 0.11875
0.27000 0.51000 0.11875
0.40500 0.51000 0.11875
0.54000 0.51000 0.11875
0.67500 0.51000 0.11875
0.81000 0.51000 0.11875
0.94500 0.51000 0.11875
1.00000 0.51000 0.11875
0.00000 0.63750 0.11875
0.13500 0.63750 0.11875
0.27000 0.63750 0.11875
0.40500 0.63750 0.11875
0.54000 0.63750 0.11875
0.67500 0.63750 0.11875
0.81000 0.63750 0.11875
0.94500 0.63750 0.11875
1.00000 0.63750 0.11875
0.00000 0.76500 0.11875
0.13500 0.76500 0.11875
0.27000 0.76500 0.11875
0.40500 0.76500 0.11875
0.54000 0.76500 0.11875
0.67500 0.76500 0.11875
0.81000 0.76500 0.11875
0.94500 0.76500 0.11875
1.00000 0.76500 0.11875
0.00000 0.89250 0.11875
0.13500 0.89250 0.11875
0.27000 0.89250 0.11875
0.40500 0.89250 0.11875
0.54000 0.89250 0.11875
0.67500 0.89250 0.11875
0.81000 0.89250 0.11875
0.94500 0.89250 0.11875
1.00000 0.89250 0.11875
0.00000 1.00000 0.11875
0.13500 1.00000 0.11875
0.27000 1.00000 0.11875
0.40500 1.00000 0.11875
0.54000 1.00000 0.11875
0.67500 1.00000 0.11875
0.81000 1.00000 0.11875
0.94500 1.00000 0.11875
1.00000 1.00000 0.11875
0.00000 0.00000 0.23750
0.13500 0.00000 0.23750
0.27000 0.00000 0.23750
0.40500 0.00000 0.23750
0.54000 0.00000 0.23750
0.67500 0.00000 0.23750
0.81000 0.00000 0.23750
0.94500 0.00000 0.23750
1.00000 0.00000 0.23750
0.00000 0.12750 0.23750
0.13500 0.12750 0.23750
0.27000 0.12750 0.23750
0.40500 0.12750 0.23750
0.54000 0.12750 0.23750
0.67500 0.12750 0.23750
0.81000 0.12750 0.23750
0.94500 0.12750 0.23750
1.00000 0.12750 0.23750
0.00000 0.25500 0.23750
0.13500 0.25500 0.23750
0.27000 0.25500 0.23750
0.40500 0.25500 0.23750
0.54000 0.25500 0.23750
0.67500 0.25500 0.23750
0.81000 0.25500 0.23750
0.94500 0.25500 0.23750
1.00000 0.25500 0.23750
0.00000 0.38250 0.23750
0.13500 0.38250 0.23750
0.27000 0.38250 0.23750
0.40500 0.38250 0.23750
0.54000 0.38250 0.23750
0.67500 0.38250 0.23750
0.81000 0.38250 0.23750
0.94500 0.38250 0.23750
1.00000 0.38250 0.23750
0.00000 0.51000 0.23750
0.13500 0.51000 0.23750
0.27000 0.51000 0.23750
0.40500 0.51000 0.23750
0.54000 0.51000 0.23750
0.67500 0.51000 0.23750
0.81000 0.51000 0.23750
0.94500 0.51000 0.23750
1.00000 0.51000 0.23750
0.00000 0.63750 0.23750
0.13500 0.63750 0.23750
0.27000 0.63750 0.23750
0.40500 0.63750 0.23750
0.54000 0.63750 0.23750
0.67500 0.63750 0.23750
0.81000 0.63750 0.23750
0.94500 0.63750 0.23750
1.00000 0.63750 0.23750
0.00000 0.76500 0.23750
0.13500 0.76500 0.23750
0.27000 0.76500 0.23750
0.40500 0.76500 0.23750
0.54000 0.76500 0.23750
0.67500 0.76500 0.23750
0.81000 0.76500 0.23750
0.94500 0.76500 0.23750
1.00000 0.76500 0.23750
0.00000 0.89250 0.23750
0.13500 0.89250 0.23750
0.27000 0.89250 0.23750
0.40500 0.89250 0.23750
0.54000 0.89250 0.23750
0.67500 0.89250 0.23750
0.81000 0.89250 0.23750
0.94500 0.89250 0.23750
1.00000 0.89250 0.23750
0.00000 1.00000 0.23750
0.13500 1.00000 0.23750
0.27000 1.00000 0.23750
0.40500 1.00000 0.23750
0.54000 1.00000 0.23750
0.67500 1.00000 0.23750
0.81000 1.00000 0.23750
0.94500 1.00000 0.23750
1.00000 1.00000 0.23750
0.00000 0.00000 0.35625
0.13500 0.00000 0.35625
0.27000 0.00000 0.35625
0.40500 0.00000 0.35625
0.54000 0.00000 0.35625
0.67500 0.00000 0.35625
0.81000 0.00000 0.35625
0.94500 0.00000 0.35625
1.00000 0.00000 0.35625
0.00000 0.12750 0.35625
0.13500 0.12750 0.35625
0.27000 0.12750 0.35625
0.40500 0.12750 0.35625
0.54000 0.12750 0.35625
0.67500 0.12750 0.35625
0.81000 0.12750 0.35625
0.94500 0.12750 0.35625
1.00000 0.12750 0.35625
0.00000 0.25500 0.35625
0.13500 0.25500 0.35625
0.27000 0.25500 0.35625
0.40500 0.25500 0.35625
0.54000 0.25500 0.35625
0.67500 0.25500 0.35625
0.81000 0.25500 0.35625
0.94500 0.25500 0.35625
1.00000 0.25500 0.35625
0.00000 0.38250 0.35625
0.13500 0.38250 0.35625
0.27000 0.38250 0.35625
0.40500 0.38250 0.35625
0.54000 0.38250 0.35625
0.67500 0.38250 0.35625
0.81000 0.38250 0.35625
0.94500 0.38250 0.35625
1.00000 0.38250 0.35625
0.00000 0.51000 0.35625
0.13500 0.51000 0.35625
0.27000 0.51000 0.35625
0.40500 0.51000 0.35625
0.54000 0.51000 0.35625
0.67500 0.51000 0.35625
0.81000 0.51000 0.35625
0.94500 0.51000 0.35625
1.00000 0.51000 0.35625
0.00000 0.63750 0.35625
0.13500 0.63750 0.35625
0.27000 0.63750 0.35625
0.40500 0.63750 0.35625
0.54000 0.63750 0.35625
0.67500 0.63750 0.35625
0.81000 0.63750 0.35625
0.94500 0.63750 0.35625
1.00000 0.63750 0.35625
0.00000 0.76500 0.35625
0.13500 0.76500 0.35625
0.27000 0.76500 0.35625
0.40500 0.76500 0.35625
0.54000 0.76500 0.35625
0.67500 0.76500 0.35625
0.81000 0.76500 0.35625
0.94500 0.76500 0.35625
1.00000 0.76500 0.35625
0.00000 0.89250 0.35625
0.13500 0.89250 0.35625
0.27000 0.89250 0.35625
0.40500 0.89250 0.35625
0.54000 0.89250 0.35625
0.67500 0.89250 0.35625
0.81000 0.89250 0.35625
0.94500 0.89250 0.35625
1.00000 0.89250 0.35625
0.00000 1.00000 0.35625
0.13500 1.00000 0.35625
0.27000 1.00000 0.35625
0.40500 1.00000 0.35625
0.54000 1.00000 0.35625
0.67500 1.00000 0.35625
0.81000 1.00000 0.35625
0.94500 1.00000 0.35625
1.00000 1.00000 0.35625
0.00000 0.00000 0.47500
0.13500 0.00000 0.47500
0.27000 0.00000 0.47500
0.40500 0.00000 0.47500
0.54000 0.00000 0.47500
0.67500 0.00000 0.47500
0.81000 0.00000 0.47500
0.94500 0.00000 0.47500
1.00000 0.00000 0.47500
0.00000 0.12750 0.47500
0.13500 0.12750 0.47500
0.27000 0.12750 0.47500
0.40500 0.12750 0.47500
0.54000 0.12750 0.47500
0.67500 0.12750 0.47500
0.81000 0.12750 0.47500
0.94500 0.12750 0.47500
1.00000 0.12750 0.47500
0.00000 0.25500 0.47500
0.13500 0.25500 0.47500
0.27000 0.25500 0.47500
0.40500 0.25500 0.47500
0.54000 0.25500 0.47500
0.67500 0.25500 0.47500
0.81000 0.25500 0.47500
0.94500 0.25500 0.47500
1.00000 0.25500 0.47500
0.00000 0.38250 0.47500
0.13500 0.38250 0.47500
0.27000 0.38250 0.47500
0.40500 0.38250 0.47500
0.54000 0.38250 0.47500
0.67500 0.38250 0.47500
0.81000 0.38250 0.47500
0.94500 0.38250 0.47500
1.00000 0.38250 0.47500
0.00000 0.51000 0.47500
0.13500 0.51000 0.47500
0.27000 0.51000 0.47500
0.40500 0.51000 0.47500
0.54000 0.51000 0.47500
0.67500 0.51000 0.47500
0.81000 0.51000 0.47500
0.94500 0.51000 0.47500
1.00000 0.51000 0.47500
0.00000 0.63750 0.47500
0.13500 0.63750 0.47500
0.27000 0.63750 0.47500
0.40500 0.63750 0.47500
0.54000 0.63750 0.47500
0.67500 0.63750 0.47500
0.81000 0.63750 0.47500
0.94500 0.63750 0.47500
1.00000 0.63750 0.47500
0.00000 0.76500 0.47500
0.13500 0.76500 0.47500
0.27000 0.76500 0.47500
0.40500 0.76500 0.47500
0.54000 0.76500 0.47500
0.67500 0.76500 0.47500
0.81000 0.76500 0.47500
0.94500 0.76500 0.47500
1.00000 0.76500 0.47500
0.00000 0.89250 0.47500
0.13500 0.89250 0.47500
0.27000 0.89250 0.47500
0.40500 0.89250 0.47500
0.54000 0.89250 0.47500
0.67500 0.89250 0.47500
0.81000 0.89250 0.47500
0.94500 0.89250 0.47500
1.00000 0.89250 0.47500
0.00000 1.00000 0.47500
0.13500 1.00000 0.47500
0.27000 1.00000 0.47500
0.40500 1.00000 0.47500
0.54000 1.00000 0.47500
0.67500 1.00000 0.47500
0.81000 1.00000 0.47500
0.94500 1.00000 0.47500
1.00000 1.00000 0.47500
0.00000 0.00000 0.59375
0.13500 0.00000 0.59375
0.27000 0.00000 0.59375
0.40500 0.00000 0.59375
0.54000 0.00000 0.59375
0.67500 0.00000 0.59375
0.81000 0.00000 0.59375
0.94500 0.00000 0.59375
1.00000 0.00000 0.59375
0.00000 0.12750 0.59375
0.13500 0.12750 0.59375
0.27000 0.12750 0.59375
0.40500 0.12750 0.59375
0.54000 0.12750 0.59375
0.67500 0.12750 0.59375
0.81000 0.12750 0.59375
0.94500 0.12750 0.59375
1.00000 0.12750 0.59375
0.00000 0.25500 0.59375
0.13500 0.25500 0.59375
0.27000 0.25500 0.59375
0.40500 0.25500 0.59375
0.54000 0.25500 0.59375
0.67500 0.25500 0.59375
0.81000 0.25500 0.59375
0.94500 0.25500 0.59375
1.00000 0.25500 0.59375
0.00000 0.38250 0.59375
0.13500 0.38250 0.59375
0.27000 0.38250 0.59375
0.40500 0.38250 0.59375
0.54000 0.38250 0.59375
0.67500 0.38250 0.59375
0.81000 0.38250 0.59375
0.94500 0.38250 0.59375
1.00000 0.38250 0.59375
0.00000 0.51000 0.59375
0.13500 0.51000 0.59375
0.27000 0.51000 0.59375
0.40500 0.51000 0.59375
0.54000 0.51000 0.59375
0.67500 0.51000 0.59375
0.81000 0.51000 0.59375
0.94500 0.51000 0.59375
1.00000 0.51000 0.59375
0.00000 0.63750 0.59375
0.13500 0.63750 0.59375
0.27000 0.63750 0.59375
0.40500 0.63750 0.59375
0.54000 0.63750 0.59375
0.67500 0.63750 0.59375
0.81000 0.63750 0.59375
0.94500 0.63750 0.59375
1.00000 0.63750 0.59375
0.00000 0.76500 0.59375
0.13500 0.76500 0.59375
0.27000 0.76500 0.59375
0.40500 0.76500 0.59375
0.54000 0.76500 0.59375
0.67500 0.76500 0.59375
0.81000 0.76500 0.59375
0.94500 0.76500 0.59375
1.00000 0.76500 0.59375
0.00000 0.89250 0.59375
0.13500 0.89250 0.59375
0.27000 0.89250 0.59375
0.40500 0.89250 0.59375
0.54000 0.89250 0.59375
0.67500 0.89250 0.59375
0.81000 0.89250 0.59375
0.94500 0.89250 0.59375
1.00000 0.89250 0.59375
0.00000 1.00000 0.59375
0.13500 1.00000 0.59375
0.27000 1.00000 0.59375
0.40500 1.00000 0.59375
0.54000 1.00000 0.59375
0.67500 1.00000 0.59375
0.81000 1.00000 0.59375
0.94500 1.00000 0.59375
1.00000 1.00000 0.59375
0.00000 0.00000 0.71250
0.13500 0.00000 0.71250
0.27000 0.00000 0.71250
0.40500 0.00000 0.71250
0.54000 0.00000 0.71250
0.67500 0.00000 0.71250
0.81000 0.00000 0.71250
0.94500 0.00000 0.71250
1.00000 0.00000 0.71250
0.00000 0.12750 0.71250
0.13500 0.12750 0.71250
0.27000 0.12750 0.71250
0.40500 0.12750 0.71250
0.54000 0.12750 0.71250
0.67500 0.12750 0.71250
0.81000 0.12750 0.71250
0.94500 0.12750 0.71250
1.00000 0.12750 0.71250
0.00000 0.25500 0.71250
0.13500 0.25500 0.71250
0.27000 0.25500 0.71250
0.40500 0.25500 0.71250
0.54000 0.25500 0.71250
0.67500 0.25500 0.71250
0.81000 0.25500 0.71250
0.94500 0.25500 0.71250
1.00000 0.25500 0.71250
0.00000 0.38250 0.71250
0.13500 0.38250 0.71250
0.27000 0.38250 0.71250
0.40500 0.38250 0.71250
0.54000 0.38250 0.71250
0.67500 0.38250 0.71250
0.81000 0.38250 0.71250
0.94500 0.38250 0.71250
1.00000 0.38250 0.71250
0.00000 0.51000 0.71250
0.13500 0.51000 0.71250
0.27000 0.51000 0.71250
0.40500 0.51000 0.71250
0.54000 0.51000 0.71250
0.67500 0.51000 0.71250
0.81000 0.51000 0.71250
0.94500 0.51000 0.71250
1.00000 0.51000 0.71250
0.00000 0.63750 0.71250
0.13500 0.63750 0.71250
0.27000 0.63750 0.71250
0.40500 0.63750 0.71250
0.54000 0.63750 0.71250
0.67500 0.63750 0.71250
0.81000 0.63750 0.71250
0.94500 0.63750 0.71250
1.00000 0.63750 0.71250
0.00000 0.76500 0.71250
0.13500 0.76500 0.71250
0.27000 0.76500 0.71250
0.40500 0.76500 0.71250
0.54000 0.76500 0.71250
0.67500 0.76500 0.71250
0.81000 0.76500 0.71250
0.94500 0.76500 0.71250
1.00000 0.76500 0.71250
0.00000 0.89250 0.71250
0.13500 0.89250 0.71250
0.27000 0.89250 0.71250
0.40500 0.89250 0.71250
0.54000 0.89250 0.71250
0.67500 0.89250 0.71250
0.81000 0.89250 0.71250
0.94500 0.89250 0.71250
1.00000 0.89250 0.71250
0.00000 1.00000 0.71250
0.13500 1.00000 0.71250
0.27000 1.00000 0.71250
0.40500 1.00000 0.71250
0.54000 1.00000 0.71250
0.67500 1.00000 0.71250
0.81000 1.00000 0.71250
0.94500 1.00000 0.71250
1.00000 1.00000 0.71250
0.00000 0.00000 0.83125
0.13500 0.00000 0.83125
0.27000 0.00000 0.83125
0.40500 0.00000 0.83125
0.54000 0.00000 0.83125
0.67500 0.00000 0.83125
0.81000 0.00000 0.83125
0.94500 0.00000 0.83125
1.00000 0.00000 0.83125
0.00000 0.12750 0.83125
0.13500 0.12750 0.83125
0.27000 0.12750 0.83125
0.40500 0.12750 0.83125
0.54000 0.12750 0.83125
0.67500 0.12750 0.83125
0.81000 0.12750 0.83125
0.94500 0.12750 0.83125
1.00000 0.12750 0.83125
0.00000 0.25500 0.83125
0.13500 0.25500 0.83125
0.27000 0.25500 0.83125
0.40500 0.25500 0.83125
0.54000 0.25500 0.83125
0.67500 0.25500 0.83125
0.81000 0.25500 0.83125
0.94500 0.25500 0.83125
1.00000 0.25500 0.83125
0.00000 0.38250 0.83125
0.13500 0.38250 0.83125
0.27000 0.38250 0.83125
0.40500 0.38250 0.83125
0.54000 0.38250 0.83125
0.67500 0.38250 0.83125
0.81000 0.38250 0.83125
0.94500 0.38250 0.83125
1.00000 0.38250 0.83125
0.00000 0.51000 0.83125
0.13500 0.51000 0.83125
0.27000 0.51000 0.83125
0.40500 0.51000 0.83125
0.54000 0.51000 0.83125
0.67500 0.51000 0.83125
0.81000 0.51000 0.83125
0.94500 0.51000 0.83125
1.00000 0.51000 0.83125
0.00000 0.63750 0.83125
0.13500 0.63750 0.83125
0.27000 0.63750 0.83125
0.40500 0.63750 0.83125
0.54000 0.63750 0.83125
0.67500 0.63750 0.83125
0.81000 0.63750 0.83125
0.94500 0.63750 0.83125
1.00000 0.63750 0.83125
0.00000 0.76500 0.83125
0.13500 0.76500 0.83125
0.27000 0.76500 0.83125
0.40500 0.76500 0.83125
0.54000 0.76500 0.83125
0.67500 0.76500 0.83125
0.81000 0.76500 0.83125
0.94500 0.76500 0.83125
1.00000 0.76500 0.83125
0.00000 0.89250 0.83125
0.13500 0.89250 0.83125
0.27000 0.89250 0.83125
0.40500 0.89250 0.83125
0.54000 0.89250 0.83125
0.67500 0.89250 0.83125
0.81000 0.89250 0.83125
0.94500 0.89250 0.83125
1.00000 0.89250 0.83125
0.00000 1.00000 0.83125
0.13500 1.00000 0.83125
0.27000 1.00000 0.83125
0.40500 1.00000 0.83125
0.54000 1.00000 0.83125
0.67500 1.00000 0.83125
0.81000 1.00000 0.83125
0.94500 1.00000 0.83125
1.00000 1.00000 0.83125
0.00000 0.00000 0.95000
0.13500 0.00000 0.95000
0.27000 0.00000 0.95000
0.40500 0.00000 0.95000
0.54000 0.00000 0.95000
0.67500 0.00000 0.95000
0.81000 0.00000 0.95000
0.94500 0.00000 0.95000
1.00000 0.00000 0.95000
0.00000 0.12750 0.95000
0.13500 0.12750 0.95000
0.27000 0.12750 0.95000
0.40500 0.12750 0.95000
0.54000 0.12750 0.95000
0.67500 0.12750 0.95000
0.81000 0.12750 0.95000
0.94500 0.12750 0.95000
1.00000 0.12750 0.95000
0.00000 0.25500 0.95000
0.13500 0.25500 0.95000
0.27000 0.25500 0.95000
0.40500 0.25500 0.95000
0.54000 0.25500 0.95000
0.67500 0.25500 0.95000
0.81000 0.25500 0.95000
0.94500 0.25500 0.95000
1.00000 0.25500 0.95000
0.00000 0.38250 0.95000
0.13500 0.38250 0.95000
0.27000 0.38250 0.95000
0.40500 0.38250 0.95000
0.54000 0.38250 0.95000
0.67500 0.38250 0.95000
0.81000 0.38250 0.95000
0.94500 0.38250 0.95000
1.00000 0.38250 0.95000
0.00000 0.51000 0.95000
0.13500 0.51000 0.95000
0.27000 0.51000 0.95000
0.40500 0.51000 0.95000
0.54000 0.51000 0.95000
0.67500 0.51000 0.95000
0.81000 0.51000 0.95000
0.94500 0.51000 0.95000
1.00000 0.51000 0.95000
0.00000 0.63750 0.95000
0.13500 0.63750 0.95000
0.27000 0.63750 0.95000
0.40500 0.63750 0.95000
0.54000 0.63750 0.95000
0.67500 0.63750 0.95000
0.81000 0.63750 0.95000
0.94500 0.63750 0.95000
1.00000 0.63750 0.95000
0.00000 0.76500 0.95000
0.13500 0.76500 0.95000
0.27000 0.76500 0.95000
0.40500 0.76500 0.95000
0.54000 0.76500 0.95000
0.67500 0.76500 0.95000
0.81000 0.76500 0.95000
0.94500 0.76500 0.95000
1.00000 0.76500 0.95000
0.00000 0.89250 0.95000
0.13500 0.89250 0.95000
0.27000 0.89250 0.95000
0.40500 0.89250 0.95000
0.54000 0.89250 0.95000
0.67500 0.89250 0.95000
0.81000 0.89250 0.95000
0.94500 0.89250 0.95000
1.00000 0.89250 0.95000
0.00000 1.00000 0.95000
0.13500 1.00000 0.95000
0.27000 1.00000 0.95000
0.40500 1.00000 0.95000
0.54000 1.00000 0.95000
0.67500 1.00000 0.95000
0.81000 1.00000 0.95000
0.94500 1.00000 0.95000
1.00000 1.00000 0.95000
