assets/luts/warm.cube
TITLE "ReelForge warm"
LUT_3D_SIZE 17
0.00000 0.00000 0.00000
0.06750 0.00000 0.00000
0.13500 0.00000 0.00000
0.20250 0.00000 0.00000
0.27000 0.00000 0.00000
0.33750 0.00000 0.00000
0.40500 0.00000 0.00000
0.47250 0.00000 0.00000
0.54000 0.00000 0.00000
0.60750 0.00000 0.00000
0.67500 0.00000 0.00000
0.74250 0.00000 0.00000
0.81000 0.00000 0.00000
0.87750 0.00000 0.00000
0.94500 0.00000 0.00000
1.00000 0.00000 0.00000
1.00000 0.00000 0.00000
0.00000 0.06375 0.00000
0.06750 0.06375 0.00000
0.13500 0.06375 0.00000
0.20250 0.06375 0.00000
0.27000 0.06375 0.00000
0.33750 0.06375 0.00000
0.40500 0.06375 0.00000
0.47250 0.06375 0.00000
0.54000 0.06375 0.00000
0.60750 0.06375 0.00000
0.67500 0.06375 0.00000
0.74250 0.06375 0.00000
0.81000 0.06375 0.00000
0.87750 0.06375 0.00000
0.94500 0.06375 0.00000
1.00000 0.06375 0.00000
1.00000 0.06375 0.00000
0.00000 0.12750 0.00000
0.06750 0.12750 0.00000
0.13500 0.12750 0.00000
0.20250 0.12750 0.00000
0.27000 0.12750 0.00000
0.33750 0.12750 0.00000
0.40500 0.12750 0.00000
0.47250 0.12750 0.00000
0.54000 0.12750 0.00000
0.60750 0.12750 0.00000
0.67500 0.12750 0.00000
0.74250 0.12750 0.00000
0.81000 0.12750 0.00000
0.87750 0.12750 0.00000
0.94500 0.12750 0.00000
1.00000 0.12750 0.00000
1.00000 0.12750 0.00000
0.00000 0.19125 0.00000
0.06750 0.19125 0.00000
0.13500 0.19125 0.00000
0.20250 0.19125 0.00000
0.27000 0.19125 0.00000
0.33750 0.19125 0.00000
0.40500 0.19125 0.00000
0.47250 0.19125 0.00000
0.54000 0.19125 0.00000
0.60750 0.19125 0.00000
0.67500 0.19125 0.00000
0.74250 0.19125 0.00000
0.81000 0.19125 0.00000
0.87750 0.19125 0.00000
0.94500 0.19125 0.00000
1.00000 0.19125 0.00000
1.00000 0.19125 0.00000
0.00000 0.25500 0.00000
0.06750 0.25500 0.00000
0.13500 0.25500 0.00000
0.20250 0.25500 0.00000
0.27000 0.25500 0.00000
0.33750 0.25500 0.00000
0.40500 0.25500 0.00000
0.47250 0.25500 0.00000
0.54000 0.25500 0.00000
0.60750 0.25500 0.00000
0.67500 0.25500 0.00000
0.74250 0.25500 0.00000
0.81000 0.25500 0.00000
0.87750 0.25500 0.00000
0.94500 0.25500 0.00000
1.00000 0.25500 0.00000
1.00000 0.25500 0.00000
0.00000 0.31875 0.00000
0.06750 0.31875 0.00000
0.13500 0.31875 0.00000
0.20250 0.31875 0.00000
0.27000 0.31875 0.00000
0.33750 0.31875 0.00000
0.40500 0.31875 0.00000
0.47250 0.31875 0.00000
0.54000 0.31875 0.00000
0.60750 0.31875 0.00000
0.67500 0.31875 0.00000
0.74250 0.31875 0.00000
0.81000 0.31875 0.00000
0.87750 0.31875 0.00000
0.94500 0.31875 0.00000
1.00000 0.31875 0.00000
1.00000 0.31875 0.00000
0.00000 0.38250 0.00000
0.06750 0.38250 0.00000
0.13500 0.38250 0.00000
0.20250 0.38250 0.00000
0.27000 0.38250 0.00000
0.33750 0.38250 0.00000
0.40500 0.38250 0.00000
0.47250 0.38250 0.00000
0.54000 0.38250 0.00000
0.60750 0.38250 0.00000
0.67500 0.38250 0.00000
0.74250 0.38250 0.00000
0.81000 0.38250 0.00000
0.87750 0.38250 0.00000
0.94500 0.38250 0.00000
1.00000 0.38250 0.00000
1.00000 0.38250 0.00000
0.00000 0.44625 0.00000
0.06750 0.44625 0.00000
0.13500 0.44625 0.00000
0.20250 0.44625 0.00000
0.27000 0.44625 0.00000
0.33750 0.44625 0.00000
0.40500 0.44625 0.00000
0.47250 0.44625 0.00000
0.54000 0.44625 0.00000
0.60750 0.44625 0.00000
0.67500 0.44625 0.00000
0.74250 0.44625 0.00000
0.81000 0.44625 0.00000
0.87750 0.44625 0.00000
0.94500 0.44625 0.00000
1.00000 0.44625 0.00000
1.00000 0.44625 0.00000
0.00000 0.51000 0.00000
0.06750 0.51000 0.00000
0.13500 0.51000 0.00000
0.20250 0.51000 0.00000
0.27000 0.51000 0.00000
0.33750 0.51000 0.00000
0.40500 0.51000 0.00000
0.47250 0.51000 0.00000
0.54000 0.51000 0.00000
0.60750 0.51000 0.00000
0.67500 0.51000 0.00000
0.74250 0.51000 0.00000
0.81000 0.51000 0.00000
0.87750 0.51000 0.00000
0.94500 0.51000 0.00000
1.00000 0.51000 0.00000
1.00000 0.51000 0.00000
0.00000 0.57375 0.00000
0.06750 0.57375 0.00000
0.13500 0.57375 0.00000
0.20250 0.57375 0.00000
0.27000 0.57375 0.00000
0.33750 0.57375 0.00000
0.40500 0.57375 0.00000
0.47250 0.57375 0.00000
0.54000 0.57375 0.00000
0.60750 0.57375 0.00000
0.67500 0.57375 0.00000
0.74250 0.57375 0.00000
0.81000 0.57375 0.00000
0.87750 0.57375 0.00000
0.94500 0.57375 0.00000
1.00000 0.57375 0.00000
1.00000 0.57375 0.00000
0.00000 0.63750 0.00000
0.06750 0.63750 0.00000
0.13500 0.63750 0.00000
0.20250 0.63750 0.00000
0.27000 0.63750 0.00000
0.33750 0.63750 0.00000
0.40500 0.63750 0.00000
0.47250 0.63750 0.00000
0.54000 0.63750 0.00000
0.60750 0.63750 0.00000
0.67500 0.63750 0.00000
0.74250 0.63750 0.00000
0.81000 0.63750 0.00000
0.87750 0.63750 0.00000
0.94500 0.63750 0.00000
1.00000 0.63750 0.00000
1.00000 0.63750 0.00000
0.00000 0.70125 0.00000
0.06750 0.70125 0.00000
0.13500 0.70125 0.00000
0.20250 0.70125 0.00000
0.27000 0.70125 0.00000
0.33750 0.70125 0.00000
0.40500 0.70125 0.00000
0.47250 0.70125 0.00000
0.54000 0.70125 0.00000
0.60750 0.70125 0.00000
0.67500 0.70125 0.00000
0.74250 0.70125 0.00000
0.81000 0.70125 0.00000
0.87750 0.70125 0.00000
0.94500 0.70125 0.00000
1.00000 0.70125 0.00000
1.00000 0.70125 0.00000
0.00000 0.76500 0.00000
0.06750 0.76500 0.00000
0.13500 0.76500 0.00000
0.20250 0.76500 0.00000
0.27000 0.76500 0.00000
0.33750 0.76500 0.00000
0.40500 0.76500 0.00000
0.47250 0.76500 0.00000
0.54000 0.76500 0.00000
0.60750 0.76500 0.00000
0.67500 0.76500 0.00000
0.74250 0.76500 0.00000
0.81000 0.76500 0.00000
0.87750 0.76500 0.00000
0.94500 0.76500 0.00000
1.00000 0.76500 0.00000
1.00000 0.76500 0.00000
0.00000 0.82875 0.00000
0.06750 0.82875 0.00000
0.13500 0.82875 0.00000
0.20250 0.82875 0.00000
0.27000 0.82875 0.00000
0.33750 0.82875 0.00000
0.40500 0.82875 0.00000
0.47250 0.82875 0.00000
0.54000 0.82875 0.00000
0.60750 0.82875 0.00000
0.67500 0.82875 0.00000
0.74250 0.82875 0.00000
0.81000 0.82875 0.00000
0.87750 0.82875 0.00000
0.94500 0.82875 0.00000
1.00000 0.82875 0.00000
1.00000 0.82875 0.00000
0.00000 0.89250 0.00000
0.06750 0.89250 0.00000
0.13500 0.89250 0.00000
0.20250 0.89250 0.00000
0.27000 0.89250 0.00000
0.33750 0.89250 0.00000
0.40500 0.89250 0.00000
0.47250 0.89250 0.00000
0.54000 0.89250 0.00000
0.60750 0.89250 0.00000
0.67500 0.89250 0.00000
0.74250 0.89250 0.00000
0.81000 0.89250 0.00000
0.87750 0.89250 0.00000
0.94500 0.89250 0.00000
1.00000 0.89250 0.00000
1.00000 0.89250 0.00000
0.00000 0.95625 0.00000
0.06750 0.95625 0.00000
0.13500 0.95625 0.00000
0.20250 0.95625 0.00000
0.27000 0.95625 0.00000
0.33750 0.95625 0.00000
0.40500 0.95625 0.00000
0.47250 0.95625 0.00000
0.54000 0.95625 0.00000
0.60750 0.95625 0.00000
0.67500 0.95625 0.00000
0.74250 0.95625 0.00000
0.81000 0.95625 0.00000
0.87750 0.95625 0.00000
0.94500 0.95625 0.00000
1.00000 0.95625 0.00000
1.00000 0.95625 0.00000
0.00000 1.00000 0.00000
0.06750 1.00000 0.00000
0.13500 1.00000 0.00000
0.20250 1.00000 0.00000
0.27000 1.00000 0.00000
0.33750 1.00000 0.00000
0.40500 1.00000 0.00000
0.47250 1.00000 0.00000
0.54000 1.00000 0.00000
0.60750 1.00000 0.00000
0.67500 1.00000 0.00000
0.74250 1.00000 0.00000
0.81000 1.00000 0.00000
0.87750 1.00000 0.00000
0.94500 1.00000 0.00000
1.00000 1.00000 0.00000
1.00000 1.00000 0.00000
0.00000 0.00000 0.05937
0.06750 0.00000 0.05937
0.13500 0.00000 0.05937
0.20250 0.00000 0.05937
0.27000 0.00000 0.05937
0.33750 0.00000 0.05937
0.40500 0.00000 0.05937
0.47250 0.00000 0.05937
0.54000 0.00000 0.05937
0.60750 0.00000 0.05937
0.67500 0.00000 0.05937
0.74250 0.00000 0.05937
0.81000 0.00000 0.05937
0.87750 0.00000 0.05937
0.94500 0.00000 0.05937
1.00000 0.00000 0.05937
1.00000 0.00000 0.05937
0.00000 0.06375 0.05937
0.06750 0.06375 0.05937
0.13500 0.06375 0.05937
0.20250 0.06375 0.05937
0.27000 0.06375 0.05937
0.33750 0.06375 0.05937
0.40500 0.06375 0.05937
0.47250 0.06375 0.05937
0.54000 0.06375 0.05937
0.60750 0.06375 0.05937
0.67500 0.06375 0.05937
0.74250 0.06375 0.05937
0.81000 0.06375 0.05937
0.87750 0.06375 0.05937
0.94500 0.06375 0.05937
1.00000 0.06375 0.05937
1.00000 0.06375 0.05937
0.00000 0.12750 0.05937
0.06750 0.12750 0.05937
0.13500 0.12750 0.05937
0.20250 0.12750 0.05937
0.27000 0.12750 0.05937
0.33750 0.12750 0.05937
0.40500 0.12750 0.05937
0.47250 0.12750 0.05937
0.54000 0.12750 0.05937
0.60750 0.12750 0.05937
0.67500 0.12750 0.05937
0.74250 0.12750 0.05937
0.81000 0.12750 0.05937
0.87750 0.12750 0.05937
0.94500 0.12750 0.05937
1.00000 0.12750 0.05937
1.00000 0.12750 0.05937
0.00000 0.19125 0.05937
0.06750 0.19125 0.05937
0.13500 0.19125 0.05937
0.20250 0.19125 0.05937
0.27000 0.19125 0.05937
0.33750 0.19125 0.05937
0.40500 0.19125 0.05937
0.47250 0.19125 0.05937
0.54000 0.19125 0.05937
0.60750 0.19125 0.05937
0.67500 0.19125 0.05937
0.74250 0.19125 0.05937
0.81000 0.19125 0.05937
0.87750 0.19125 0.05937
0.94500 0.19125 0.05937
1.00000 0.19125 0.05937
1.00000 0.19125 0.05937
0.00000 0.25500 0.05937
0.06750 0.25500 0.05937
0.13500 0.25500 0.05937
0.20250 0.25500 0.05937
0.27000 0.25500 0.05937
0.33750 0.25500 0.05937
0.40500 0.25500 0.05937
0.47250 0.25500 0.05937
0.54000 0.25500 0.05937
0.60750 0.25500 0.05937
0.67500 0.25500 0.05937
0.74250 0.25500 0.05937
0.81000 0.25500 0.05937
0.87750 0.25500 0.05937
0.94500 0.25500 0.05937
1.00000 0.25500 0.05937
1.00000 0.25500 0.05937
0.00000 0.31875 0.05937
0.06750 0.31875 0.05937
0.13500 0.31875 0.05937
0.20250 0.31875 0.05937
0.27000 0.31875 0.05937
0.33750 0.31875 0.05937
0.40500 0.31875 0.05937
0.47250 0.31875 0.05937
0.54000 0.31875 0.05937
0.60750 0.31875 0.05937
0.67500 0.31875 0.05937
0.74250 0.31875 0.05937
0.81000 0.31875 0.05937
0.87750 0.31875 0.05937
0.94500 0.31875 0.05937
1.00000 0.31875 0.05937
1.00000 0.31875 0.05937
0.00000 0.38250 0.05937
0.06750 0.38250 0.05937
0.13500 0.38250 0.05937
0.20250 0.38250 0.05937
0.27000 0.38250 0.05937
0.33750 0.38250 0.05937
0.40500 0.38250 0.05937
0.47250 0.38250 0.05937
0.54000 0.38250 0.05937
0.60750 0.38250 0.05937
0.67500 0.38250 0.05937
0.74250 0.38250 0.05937
0.81000 0.38250 0.05937
0.87750 0.38250 0.05937
0.94500 0.38250 0.05937
1.00000 0.38250 0.05937
1.00000 0.38250 0.05937
0.00000 0.44625 0.05937
0.06750 0.44625 0.05937
0.13500 0.44625 0.05937
0.20250 0.44625 0.05937
0.27000 0.44625 0.05937
0.33750 0.44625 0.05937
0.40500 0.44625 0.05937
0.47250 0.44625 0.05937
0.54000 0.44625 0.05937
0.60750 0.44625 0.05937
0.67500 0.44625 0.05937
0.74250 0.44625 0.05937
0.81000 0.44625 0.05937
0.87750 0.44625 0.05937
0.94500 0.44625 0.05937
1.00000 0.44625 0.05937
1.00000 0.44625 0.05937
0.00000 0.51000 0.05937
0.06750 0.51000 0.05937
0.13500 0.51000 0.05937
0.20250 0.51000 0.05937
0.27000 0.51000 0.05937
0.33750 0.51000 0.05937
0.40500 0.51000 0.05937
0.47250 0.51000 0.05937
0.54000 0.51000 0.05937
0.60750 0.51000 0.05937
0.67500 0.51000 0.05937
0.74250 0.51000 0.05937
0.81000 0.51000 0.05937
0.87750 0.51000 0.05937
0.94500 0.51000 0.05937
1.00000 0.51000 0.05937
1.00000 0.51000 0.05937
0.00000 0.57375 0.05937
0.06750 0.57375 0.05937
0.13500 0.57375 0.05937
0.20250 0.57375 0.05937
0.27000 0.57375 0.05937
0.33750 0.57375 0.05937
0.40500 0.57375 0.05937
0.47250 0.57375 0.05937
0.54000 0.57375 0.05937
0.60750 0.57375 0.05937
0.67500 0.57375 0.05937
0.74250 0.57375 0.05937
0.81000 0.57375 0.05937
0.87750 0.57375 0.05937
0.94500 0.57375 0.05937
1.00000 0.57375 0.05937
1.00000 0.57375 0.05937
0.00000 0.63750 0.05937
0.06750 0.63750 0.05937
0.13500 0.63750 0.05937
0.20250 0.63750 0.05937
0.27000 0.63750 0.05937
0.33750 0.63750 0.05937
0.40500 0.63750 0.05937
0.47250 0.63750 0.05937
0.54000 0.63750 0.05937
0.60750 0.63750 0.05937
0.67500 0.63750 0.05937
0.74250 0.63750 0.05937
0.81000 0.63750 0.05937
0.87750 0.63750 0.05937
0.94500 0.63750 0.05937
1.00000 0.63750 0.05937
1.00000 0.63750 0.05937
0.00000 0.70125 0.05937
0.06750 0.70125 0.05937
0.13500 0.70125 0.05937
0.20250 0.70125 0.05937
0.27000 0.70125 0.05937
0.33750 0.70125 0.05937
0.40500 0.70125 0.05937
0.47250 0.70125 0.05937
0.54000 0.70125 0.05937
0.60750 0.70125 0.05937
0.67500 0.70125 0.05937
0.74250 0.70125 0.05937
0.81000 0.70125 0.05937
0.87750 0.70125 0.05937
0.94500 0.70125 0.05937
1.00000 0.70125 0.05937
1.00000 0.70125 0.05937
0.00000 0.76500 0.05937
0.06750 0.76500 0.05937
0.13500 0.76500 0.05937
0.20250 0.76500 0.05937
0.27000 0.76500 0.05937
0.33750 0.76500 0.05937
0.40500 0.76500 0.05937
0.47250 0.76500 0.05937
0.54000 0.76500 0.05937
0.60750 0.76500 0.05937
0.67500 0.76500 0.05937
0.74250 0.76500 0.05937
0.81000 0.76500 0.05937
0.87750 0.76500 0.05937
0.94500 0.76500 0.05937
1.00000 0.76500 0.05937
1.00000 0.76500 0.05937
0.00000 0.82875 0.05937
0.06750 0.82875 0.05937
0.13500 0.82875 0.05937
0.20250 0.82875 0.05937
0.27000 0.82875 0.05937
0.33750 0.82875 0.05937
0.40500 0.82875 0.05937
0.47250 0.82875 0.05937
0.54000 0.82875 0.05937
0.60750 0.82875 0.05937
0.67500 0.82875 0.05937
0.74250 0.82875 0.05937
0.81000 0.82875 0.05937
0.87750 0.82875 0.05937
0.94500 0.82875 0.05937
1.00000 0.82875 0.05937
1.00000 0.82875 0.05937
0.00000 0.89250 0.05937
0.06750 0.89250 0.05937
0.13500 0.89250 0.05937
0.20250 0.89250 0.05937
0.27000 0.89250 0.05937
0.33750 0.89250 0.05937
0.40500 0.89250 0.05937
0.47250 0.89250 0.05937
0.54000 0.89250 0.05937
0.60750 0.89250 0.05937
0.67500 0.89250 0.05937
0.74250 0.89250 0.05937
0.81000 0.89250 0.05937
0.87750 0.89250 0.05937
0.94500 0.89250 0.05937
1.00000 0.89250 0.05937
1.00000 0.89250 0.05937
0.00000 0.95625 0.05937
0.06750 0.95625 0.05937
0.13500 0.95625 0.05937
0.20250 0.95625 0.05937
0.27000 0.95625 0.05937
0.33750 0.95625 0.05937
0.40500 0.95625 0.05937
0.47250 0.95625 0.05937
0.54000 0.95625 0.05937
0.60750 0.95625 0.05937
0.67500 0.95625 0.05937
0.74250 0.95625 0.05937
0.81000 0.95625 0.05937
0.87750 0.95625 0.05937
0.94500 0.95625 0.05937
1.00000 0.95625 0.05937
1.00000 0.95625 0.05937
0.00000 1.00000 0.05937
0.06750 1.00000 0.05937
0.13500 1.00000 0.05937
0.20250 1.00000 0.05937
0.27000 1.00000 0.05937
0.33750 1.00000 0.05937
0.40500 1.00000 0.05937
0.47250 1.00000 0.05937
0.54000 1.00000 0.05937
0.60750 1.00000 0.05937
0.67500 1.00000 0.05937
0.74250 1.00000 0.05937
0.81000 1.00000 0.05937
0.87750 1.00000 0.05937
0.94500 1.00000 0.05937
1.00000 1.00000 0.05937
1.00000 1.00000 0.05937
0.00000 0.00000 0.11875
0.06750 0.00000 0.11875
0.13500 0.00000 0.11875
0.20250 0.00000 0.11875
0.27000 0.00000 0.11875
0.33750 0.00000 0.11875
0.40500 0.00000 0.11875
0.47250 0.00000 0.11875
0.54000 0.00000 0.11875
0.60750 0.00000 0.11875
0.67500 0.00000 0.11875
0.74250 0.00000 0.11875
0.81000 0.00000 0.11875
0.87750 0.00000 0.11875
0.94500 0.00000 0.11875
1.00000 0.00000 0.11875
1.00000 0.00000 0.11875
0.00000 0.06375 0.11875
0.06750 0.06375 0.11875
0.13500 0.06375 0.11875
0.20250 0.06375 0.11875
0.27000 0.06375 0.11875
0.33750 0.06375 0.11875
0.40500 0.06375 0.11875
0.47250 0.06375 0.11875
0.54000 0.06375 0.11875
0.60750 0.06375 0.11875
0.67500 0.06375 0.11875
0.74250 0.06375 0.11875
0.81000 0.06375 0.11875
0.87750 0.06375 0.11875
0.94500 0.06375 0.11875
1.00000 0.06375 0.11875
1.00000 0.06375 0.11875
0.00000 0.12750 0.11875
0.06750 0.12750 0.11875
0.13500 0.12750 0.11875
0.20250 0.12750 0.11875
0.27000 0.12750 0.11875
0.33750 0.12750 0.11875
0.40500 0.12750 0.11875
0.47250 0.12750 0.11875
0.54000 0.12750 0.11875
0.60750 0.12750 0.11875
0.67500 0.12750 0.11875
0.74250 0.12750 0.11875
0.81000 0.12750 0.11875
0.87750 0.12750 0.11875
0.94500 0.12750 0.11875
1.00000 0.12750 0.11875
1.00000 0.12750 0.11875
0.00000 0.19125 0.11875
0.06750 0.19125 0.11875
0.13500 0.19125 0.11875
0.20250 0.19125 0.11875
0.27000 0.19125 0.11875
0.33750 0.19125 0.11875
0.40500 0.19125 0.11875
0.47250 0.19125 0.11875
0.54000 0.19125 0.11875
0.60750 0.19125 0.11875
0.67500 0.19125 0.11875
0.74250 0.19125 0.11875
0.81000 0.19125 0.11875
0.87750 0.19125 0.11875
0.94500 0.19125 0.11875
1.00000 0.19125 0.11875
1.00000 0.19125 0.11875
0.00000 0.25500 0.11875
0.06750 0.25500 0.11875
0.13500 0.25500 0.11875
0.20250 0.25500 0.11875
0.27000 0.25500 0.11875
0.33750 0.25500 0.11875
0.40500 0.25500 0.11875
0.47250 0.25500 0.11875
0.54000 0.25500 0.11875
0.60750 0.25500 0.11875
0.67500 0.25500 0.11875
0.74250 0.25500 0.11875
0.81000 0.25500 0.11875
0.87750 0.25500 0.11875
0.94500 0.25500 0.11875
1.00000 0.25500 0.11875
1.00000 0.25500 0.11875
0.00000 0.31875 0.11875
0.06750 0.31875 0.11875
0.13500 0.31875 0.11875
0.20250 0.31875 0.11875
0.27000 0.31875 0.11875
0.33750 0.31875 0.11875
0.40500 0.31875 0.11875
0.47250 0.31875 0.11875
0.54000 0.31875 0.11875
0.60750 0.31875 0.11875
0.67500 0.31875 0.11875
0.74250 0.31875 0.11875
0.81000 0.31875 0.11875
0.87750 0.31875 0.11875
0.94500 0.31875 0.11875
1.00000 0.31875 0.11875
1.00000 0.31875 0.11875
0.00000 0.38250 0.11875
0.06750 0.38250 0.11875
0.13500 0.38250 0.11875
0.20250 0.38250 0.11875
0.27000 0.38250 0.11875
0.33750 0.38250 0.11875
0.40500 0.38250 0.11875
0.47250 0.38250 0.11875
0.54000 0.38250 0.11875
0.60750 0.38250 0.11875
0.67500 0.38250 0.11875
0.74250 0.38250 0.11875
0.81000 0.38250 0.11875
0.87750 0.38250 0.11875
0.94500 0.38250 0.11875
1.00000 0.38250 0.11875
1.00000 0.38250 0.11875
0.00000 0.44625 0.11875
0.06750 0.44625 0.11875
0.13500 0.44625 0.11875
0.20250 0.44625 0.11875
0.27000 0.44625 0.11875
0.33750 0.44625 0.11875
0.40500 0.44625 0.11875
0.47250 0.44625 0.11875
0.54000 0.44625 0.11875
0.60750 0.44625 0.11875
0.67500 0.44625 0.11875
0.74250 0.44625 0.11875
0.81000 0.44625 0.11875
0.87750 0.44625 0.11875
0.94500 0.44625 0.11875
1.00000 0.44625 0.11875
1.00000 0.44625 0.11875
0.00000 0.51000 0.11875
0.06750 0.51000 0.11875
0.13500 0.51000 0.11875
0.20250 0.51000 0.11875
0.27000 0.51000 0.11875
0.33750 0.51000 0.11875
0.40500 0.51000 0.11875
0.47250 0.51000 0.11875
0.54000 0.51000 0.11875
0.60750 0.51000 0.11875
0.67500 0.51000 0.11875
0.74250 0.51000 0.11875
0.81000 0.51000 0.11875
0.87750 0.51000 0.11875
0.94500 0.51000 0.11875
1.00000 0.51000 0.11875
1.00000 0.51000 0.11875
0.00000 0.57375 0.11875
0.06750 0.57375 0.11875
0.13500 0.57375 0.11875
0.20250 0.57375 0.11875
0.27000 0.57375 0.11875
0.33750 0.57375 0.11875
0.40500 0.57375 0.11875
0.47250 0.57375 0.11875
0.54000 0.57375 0.11875
0.60750 0.57375 0.11875
0.67500 0.57375 0.11875
0.74250 0.57375 0.11875
0.81000 0.57375 0.11875
0.87750 0.57375 0.11875
0.94500 0.57375 0.11875
1.00000 0.57375 0.11875
1.00000 0.57375 0.11875
0.00000 0.63750 0.11875
0.06750 0.63750 0.11875
0.13500 0.63750 0.11875
0.20250 0.63750 0.11875
0.27000 0.63750 0.11875
0.33750 0.63750 0.11875
0.40500 0.63750 0.11875
0.47250 0.63750 0.11875
0.54000 0.63750 0.11875
0.60750 0.63750 0.11875
0.67500 0.63750 0.11875
0.74250 0.63750 0.11875
0.81000 0.63750 0.11875
0.87750 0.63750 0.11875
0.94500 0.63750 0.11875
1.00000 0.63750 0.11875
1.00000 0.63750 0.11875
0.00000 0.70125 0.11875
0.06750 0.70125 0.11875
0.13500 0.70125 0.11875
0.20250 0.70125 0.11875
0.27000 0.70125 0.11875
0.33750 0.70125 0.11875
0.40500 0.70125 0.11875
0.47250 0.70125 0.11875
0.54000 0.70125 0.11875
0.60750 0.70125 0.11875
0.67500 0.70125 0.11875
0.74250 0.70125 0.11875
0.81000 0.70125 0.11875
0.87750 0.70125 0.11875
0.94500 0.70125 0.11875
1.00000 0.70125 0.11875
1.00000 0.70125 0.11875
0.00000 0.76500 0.11875
0.06750 0.76500 0.11875
0.13500 0.76500 0.11875
0.20250 0.76500 0.11875
0.27000 0.76500 0.11875
0.33750 0.76500 0.11875
0.40500 0.76500 0.11875
0.47250 0.76500 0.11875
0.54000 0.76500 0.11875
0.60750 0.76500 0.11875
0.67500 0.76500 0.11875
0.74250 0.76500 0.11875
0.81000 0.76500 0.11875
0.87750 0.76500 0.11875
0.94500 0.76500 0.11875
1.00000 0.76500 0.11875
1.00000 0.76500 0.11875
0.00000 0.82875 0.11875
0.06750 0.82875 0.11875
0.13500 0.82875 0.11875
0.20250 0.82875 0.11875
0.27000 0.82875 0.11875
0.33750 0.82875 0.11875
0.40500 0.82875 0.11875
0.47250 0.82875 0.11875
0.54000 0.82875 0.11875
0.60750 0.82875 0.11875
0.67500 0.82875 0.11875
0.74250 0.82875 0.11875
0.81000 0.82875 0.11875
0.87750 0.82875 0.11875
0.94500 0.82875 0.11875
1.00000 0.82875 0.11875
1.00000 0.82875 0.11875
0.00000 0.89250 0.11875
0.06750 0.89250 0.11875
0.13500 0.89250 0.11875
0.20250 0.89250 0.11875
0.27000 0.89250 0.11875
0.33750 0.89250 0.11875
0.40500 0.89250 0.11875
0.47250 0.89250 0.11875
0.54000 0.89250 0.11875
0.60750 0.89250 0.11875
0.67500 0.89250 0.11875
0.74250 0.89250 0.11875
0.81000 0.89250 0.11875
0.87750 0.89250 0.11875
0.94500 0.89250 0.11875
1.00000 0.89250 0.11875
1.00000 0.89250 0.11875
0.00000 0.95625 0.11875
0.06750 0.95625 0.11875
0.13500 0.95625 0.11875
0.20250 0.95625 0.11875
0.27000 0.95625 0.11875
0.33750 0.95625 0.11875
0.40500 0.95625 0.11875
0.47250 0.95625 0.11875
0.54000 0.95625 0.11875
0.60750 0.95625 0.11875
0.67500 0.95625 0.11875
0.74250 0.95625 0.11875
0.81000 0.95625 0.11875
0.87750 0.95625 0.11875
0.94500 0.95625 0.11875
1.00000 0.95625 0.11875
1.00000 0.95625 0.11875
0.00000 1.00000 0.11875
0.06750 1.00000 0.11875
0.13500 1.00000 0.11875
0.20250 1.00000 0.11875
0.27000 1.00000 0.11875
0.33750 1.00000 0.11875
0.40500 1.00000 0.11875
0.47250 1.00000 0.11875
0.54000 1.00000 0.11875
0.60750 1.00000 0.11875
0.67500 1.00000 0.11875
0.74250 1.00000 0.11875
0.81000 1.00000 0.11875
0.87750 1.00000 0.11875
0.94500 1.00000 0.11875
1.00000 1.00000 0.11875
1.00000 1.00000 0.11875
0.00000 0.00000 0.17812
0.06750 0.00000 0.17812
0.13500 0.00000 0.17812
0.20250 0.00000 0.17812
0.27000 0.00000 0.17812
0.33750 0.00000 0.17812
0.40500 0.00000 0.17812
0.47250 0.00000 0.17812
0.54000 0.00000 0.17812
0.60750 0.00000 0.17812
0.67500 0.00000 0.17812
0.74250 0.00000 0.17812
0.81000 0.00000 0.17812
0.87750 0.00000 0.17812
0.94500 0.00000 0.17812
1.00000 0.00000 0.17812
1.00000 0.00000 0.17812
0.00000 0.06375 0.17812
0.06750 0.06375 0.17812
0.13500 0.06375 0.17812
0.20250 0.06375 0.17812
0.27000 0.06375 0.17812
0.33750 0.06375 0.17812
0.40500 0.06375 0.17812
0.47250 0.06375 0.17812
0.54000 0.06375 0.17812
0.60750 0.06375 0.17812
0.67500 0.06375 0.17812
0.74250 0.06375 0.17812
0.81000 0.06375 0.17812
0.87750 0.06375 0.17812
0.94500 0.06375 0.17812
1.00000 0.06375 0.17812
